;FLAVOR:Marlin
;TIME:5532
;Filament used: 3.21831m
;Layer height: 0.12
;MINX:50.7
;MINY:83.7
;MINZ:0.12
;MAXX:149.3
;MAXY:116.3
;MAXZ:30
;Generated with Cura_SteamEngine 4.13.1
M82 ;absolute extrusion mode
G21 ; set units to millimeters
M140 S60.0 ; set bed temp
G28 ; Home extruder
G1 Z15 ; Levanta Extrusora
G90 ; use absolute positioning
M82 ; absolute extrusion mode
;M140 S60.0 ; set bed temp
M190 S60.0 ; wait for bed temp
M104 S205.0 ; set extruder temp
G29; Perform Automatic Bed Leveling
M109 S205.0 ; wait for extruder temp
G92 E0.0 ; reset extruder distance position
G92 E0
G92 E0
G1 F1500 E-0.3
;LAYER_COUNT:250
;LAYER:0
M107
G0 F3600 X53.777 Y84.825 Z0.12
;TYPE:SKIRT
G1 F1500 E0
G1 X54.414 Y84.454 E0.01471
G1 X55.088 Y84.155 E0.02943
G1 X55.79 Y83.93 E0.04414
G1 X56.513 Y83.782 E0.05886
G1 X57.318 Y83.712 E0.07499
G1 X57.83 Y83.7 E0.08521
G1 X63.793 Y83.7 E0.20421
G1 X64.605 Y83.712 E0.22041
G1 X65.34 Y83.763 E0.23512
G1 X66.066 Y83.894 E0.24984
G1 X66.852 Y84.131 E0.26622
G1 X67.656 Y84.427 E0.28332
G1 X70.221 Y85.332 E0.3376
G1 X72.764 Y86.15 E0.39091
G1 X75.246 Y86.872 E0.44249
G1 X77.818 Y87.541 E0.49553
G1 X80.397 Y88.136 E0.54835
G1 X82.958 Y88.648 E0.60047
G1 X85.57 Y89.095 E0.65335
G1 X88.167 Y89.465 E0.7057
G1 X90.821 Y89.766 E0.759
G1 X93.407 Y89.987 E0.81079
G1 X96.059 Y90.137 E0.8638
G1 X98.676 Y90.211 E0.91605
G1 X101.331 Y90.211 E0.96903
G1 X103.949 Y90.137 E1.0213
G1 X106.601 Y89.987 E1.07431
G1 X109.184 Y89.767 E1.12604
G1 X111.849 Y89.464 E1.17957
G1 X114.428 Y89.097 E1.23155
G1 X117.052 Y88.648 E1.28468
G1 X119.624 Y88.131 E1.33703
G1 X122.165 Y87.548 E1.38906
G1 X124.779 Y86.867 E1.44296
G1 X127.244 Y86.15 E1.49419
G1 X129.787 Y85.332 E1.5475
G1 X132.315 Y84.441 E1.60099
G1 X132.908 Y84.216 E1.61365
G1 X133.31 Y84.075 E1.62215
G1 X134.019 Y83.874 E1.63686
G1 X134.746 Y83.752 E1.65157
G1 X135.319 Y83.712 E1.66303
G1 X135.83 Y83.7 E1.67323
G1 X141.881 Y83.701 E1.79399
G1 X142.579 Y83.71 E1.80792
G1 X143.314 Y83.759 E1.82262
G1 X144.04 Y83.888 E1.83733
G1 X144.748 Y84.094 E1.85205
G1 X145.429 Y84.377 E1.86676
G1 X146.076 Y84.731 E1.88148
G1 X146.68 Y85.153 E1.89619
G1 X147.236 Y85.638 E1.91091
G1 X147.735 Y86.18 E1.92561
G1 X148.173 Y86.773 E1.94032
G1 X148.544 Y87.41 E1.95503
G1 X148.844 Y88.084 E1.96976
G1 X149.069 Y88.786 E1.98447
G1 X149.217 Y89.508 E1.99918
G1 X149.288 Y90.318 E2.0154
G1 X149.3 Y90.83 E2.02562
G1 X149.299 Y108.848 E2.38519
G1 X149.29 Y109.575 E2.3997
G1 X149.241 Y110.311 E2.41442
G1 X149.113 Y111.037 E2.42913
G1 X148.907 Y111.745 E2.44385
G1 X148.625 Y112.426 E2.45856
G1 X148.271 Y113.073 E2.47327
G1 X147.849 Y113.678 E2.48799
G1 X147.365 Y114.233 E2.50269
G1 X146.823 Y114.733 E2.51741
G1 X146.23 Y115.171 E2.53212
G1 X145.593 Y115.542 E2.54683
G1 X144.919 Y115.843 E2.56156
G1 X144.217 Y116.068 E2.57627
G1 X143.495 Y116.216 E2.59098
G1 X142.682 Y116.288 E2.60727
G1 X142.17 Y116.3 E2.61749
G1 X58.119 Y116.299 E4.29482
G1 X57.421 Y116.29 E4.30875
G1 X56.686 Y116.241 E4.32345
G1 X55.96 Y116.112 E4.33816
G1 X55.252 Y115.906 E4.35288
G1 X54.571 Y115.623 E4.36759
G1 X53.924 Y115.269 E4.38231
G1 X53.32 Y114.847 E4.39701
G1 X52.764 Y114.362 E4.41174
G1 X52.265 Y113.82 E4.42644
G1 X51.827 Y113.227 E4.44115
G1 X51.456 Y112.59 E4.45586
G1 X51.156 Y111.916 E4.47059
G1 X50.931 Y111.214 E4.4853
G1 X50.783 Y110.492 E4.5
G1 X50.711 Y109.675 E4.51637
G1 X50.7 Y109.158 E4.52669
G1 X50.701 Y91.082 E4.88742
G1 X50.71 Y90.417 E4.90069
G1 X50.76 Y89.681 E4.91541
G1 X50.889 Y88.956 E4.93011
G1 X51.096 Y88.248 E4.94483
G1 X51.378 Y87.567 E4.95954
G1 X51.733 Y86.92 E4.97426
G1 X52.155 Y86.316 E4.98897
G1 X52.641 Y85.761 E5.00369
G1 X53.184 Y85.262 E5.01841
G1 X53.777 Y84.825 E5.03311
G0 F3600 X54.159 Y85.056
G1 F1500 X54.788 Y84.716 E5.04738
G1 X55.452 Y84.449 E5.06166
G1 X56.141 Y84.257 E5.07593
G1 X56.847 Y84.143 E5.0902
G1 X57.651 Y84.103 E5.10627
G1 X57.83 Y84.1 E5.10984
G1 X63.793 Y84.1 E5.22884
G1 X64.599 Y84.112 E5.24492
G1 X65.312 Y84.163 E5.25919
G1 X66.015 Y84.293 E5.27346
G1 X66.714 Y84.507 E5.28804
G1 X67.554 Y84.817 E5.30591
G1 X70.069 Y85.704 E5.35913
G1 X72.635 Y86.529 E5.41292
G1 X75.138 Y87.258 E5.46495
G1 X77.733 Y87.932 E5.51845
G1 X80.293 Y88.523 E5.57088
G1 X82.919 Y89.048 E5.62432
G1 X85.488 Y89.488 E5.67634
G1 X88.132 Y89.864 E5.72963
G1 X90.743 Y90.161 E5.78207
G1 X93.386 Y90.386 E5.83501
G1 X96.06 Y90.537 E5.88846
G1 X98.665 Y90.611 E5.94046
G1 X101.342 Y90.611 E5.99389
G1 X103.949 Y90.537 E6.04593
G1 X106.621 Y90.386 E6.09934
G1 X109.262 Y90.161 E6.15223
G1 X111.879 Y89.864 E6.20479
G1 X114.515 Y89.488 E6.25793
G1 X117.099 Y89.046 E6.31025
G1 X119.713 Y88.521 E6.36345
G1 X122.29 Y87.93 E6.41622
G1 X124.853 Y87.262 E6.46907
G1 X127.373 Y86.529 E6.52145
G1 X129.939 Y85.704 E6.57523
G1 X132.411 Y84.832 E6.62754
G1 X133.05 Y84.59 E6.64118
G1 X133.439 Y84.453 E6.64941
G1 X134.128 Y84.26 E6.66369
G1 X134.834 Y84.145 E6.67796
G1 X135.65 Y84.103 E6.69427
G1 X135.83 Y84.1 E6.69786
G1 X141.876 Y84.101 E6.81852
G1 X142.574 Y84.11 E6.83245
G1 X143.287 Y84.159 E6.84671
G1 X143.991 Y84.287 E6.86099
G1 X144.676 Y84.493 E6.87526
G1 X145.333 Y84.775 E6.88953
G1 X145.955 Y85.128 E6.9038
G1 X146.534 Y85.548 E6.91808
G1 X147.063 Y86.03 E6.93236
G1 X147.534 Y86.568 E6.94663
G1 X147.942 Y87.155 E6.9609
G1 X148.282 Y87.785 E6.97518
G1 X148.55 Y88.448 E6.98945
G1 X148.742 Y89.137 E7.00373
G1 X148.856 Y89.843 E7.018
G1 X148.897 Y90.651 E7.03414
G1 X148.9 Y90.83 E7.03772
G1 X148.9 Y108.843 E7.39719
G1 X148.891 Y109.57 E7.41169
G1 X148.842 Y110.284 E7.42598
G1 X148.714 Y110.988 E7.44026
G1 X148.508 Y111.673 E7.45453
G1 X148.227 Y112.33 E7.46879
G1 X147.874 Y112.953 E7.48308
G1 X147.454 Y113.532 E7.49735
G1 X146.972 Y114.06 E7.51162
G1 X146.435 Y114.532 E7.52589
G1 X145.847 Y114.94 E7.54017
G1 X145.218 Y115.281 E7.55445
G1 X144.555 Y115.549 E7.56872
G1 X143.866 Y115.741 E7.58299
G1 X143.16 Y115.856 E7.59727
G1 X142.349 Y115.897 E7.61347
G1 X142.17 Y115.9 E7.61705
G1 X58.124 Y115.899 E9.29428
G1 X57.426 Y115.89 E9.30821
G1 X56.713 Y115.841 E9.32247
G1 X56.009 Y115.713 E9.33675
G1 X55.324 Y115.507 E9.35102
G1 X54.667 Y115.225 E9.36529
G1 X54.045 Y114.872 E9.37956
G1 X53.466 Y114.452 E9.39384
G1 X52.937 Y113.97 E9.40812
G1 X52.466 Y113.432 E9.42239
G1 X52.058 Y112.845 E9.43665
G1 X51.718 Y112.215 E9.45094
G1 X51.45 Y111.552 E9.46521
G1 X51.258 Y110.863 E9.47949
G1 X51.144 Y110.157 E9.49376
G1 X51.102 Y109.331 E9.51026
G1 X51.1 Y109.158 E9.51371
G1 X51.101 Y91.087 E9.87434
G1 X51.11 Y90.422 E9.88761
G1 X51.159 Y89.709 E9.90187
G1 X51.288 Y89.005 E9.91616
G1 X51.495 Y88.321 E9.93042
G1 X51.777 Y87.663 E9.94471
G1 X52.13 Y87.041 E9.95898
G1 X52.55 Y86.463 E9.97324
G1 X53.033 Y85.935 E9.98752
G1 X53.571 Y85.464 E10.00179
G1 X54.159 Y85.056 E10.01607
G0 F3600 X53.958 Y85.673
G1 F1500 X54.539 Y85.296 E10.02989
G1 X55.159 Y84.988 E10.0437
G1 X55.811 Y84.754 E10.05753
G1 X56.485 Y84.597 E10.07134
G1 X57.341 Y84.511 E10.08851
G1 X57.83 Y84.5 E10.09827
G1 X63.793 Y84.5 E10.21727
G1 X64.592 Y84.512 E10.23321
G1 X65.283 Y84.562 E10.24704
G1 X65.963 Y84.692 E10.26086
G1 X66.576 Y84.882 E10.27366
G1 X67.431 Y85.197 E10.29185
G1 X69.951 Y86.087 E10.34518
G1 X72.506 Y86.908 E10.39874
G1 X75.032 Y87.643 E10.45123
G1 X77.622 Y88.317 E10.50464
G1 X80.262 Y88.925 E10.55871
G1 X82.809 Y89.435 E10.61054
G1 X85.43 Y89.883 E10.66361
G1 X88.068 Y90.259 E10.71678
G1 X90.735 Y90.562 E10.77035
G1 X93.365 Y90.786 E10.82302
G1 X95.989 Y90.935 E10.87547
G1 X98.689 Y91.011 E10.92937
G1 X101.318 Y91.011 E10.98184
G1 X104.017 Y90.935 E11.03572
G1 X106.644 Y90.786 E11.08823
G1 X109.27 Y90.562 E11.14083
G1 X111.948 Y90.258 E11.19461
G1 X114.568 Y89.885 E11.24742
G1 X117.174 Y89.439 E11.30018
G1 X119.81 Y88.91 E11.35384
G1 X122.376 Y88.321 E11.40638
G1 X124.951 Y87.65 E11.45948
G1 X127.502 Y86.908 E11.5125
G1 X130.057 Y86.087 E11.56605
G1 X132.56 Y85.203 E11.61903
G1 X133.192 Y84.964 E11.63251
G1 X133.569 Y84.832 E11.64048
G1 X134.236 Y84.646 E11.6543
G1 X134.92 Y84.538 E11.66812
G1 X135.661 Y84.502 E11.68292
G1 X135.83 Y84.5 E11.6863
G1 X141.87 Y84.5 E11.80683
G1 X142.568 Y84.509 E11.82076
G1 X143.259 Y84.558 E11.83459
G1 X143.94 Y84.687 E11.84842
G1 X144.601 Y84.892 E11.86223
G1 X145.234 Y85.173 E11.87605
G1 X145.831 Y85.524 E11.88987
G1 X146.383 Y85.942 E11.90369
G1 X146.883 Y86.421 E11.91751
G1 X147.325 Y86.955 E11.93134
G1 X147.702 Y87.535 E11.94514
G1 X148.01 Y88.156 E11.95898
G1 X148.245 Y88.807 E11.97279
G1 X148.402 Y89.482 E11.98662
G1 X148.489 Y90.341 E12.00385
G1 X148.5 Y90.83 E12.01361
G1 X148.5 Y108.838 E12.37298
G1 X148.491 Y109.565 E12.38749
G1 X148.442 Y110.256 E12.40131
G1 X148.314 Y110.937 E12.41514
G1 X148.109 Y111.598 E12.42895
G1 X147.829 Y112.231 E12.44276
G1 X147.477 Y112.828 E12.4566
G1 X147.06 Y113.381 E12.47042
G1 X146.581 Y113.881 E12.48423
G1 X146.048 Y114.323 E12.49805
G1 X145.467 Y114.701 E12.51189
G1 X144.847 Y115.009 E12.5257
G1 X144.196 Y115.244 E12.53951
G1 X143.521 Y115.402 E12.55335
G1 X142.659 Y115.489 E12.57064
G1 X142.17 Y115.5 E12.5804
G1 X58.13 Y115.5 E14.25751
G1 X57.432 Y115.491 E14.27144
G1 X56.741 Y115.442 E14.28526
G1 X56.06 Y115.313 E14.29909
G1 X55.399 Y115.108 E14.3129
G1 X54.766 Y114.827 E14.32672
G1 X54.169 Y114.476 E14.34055
G1 X53.617 Y114.058 E14.35436
G1 X53.117 Y113.579 E14.36818
G1 X52.675 Y113.045 E14.38201
G1 X52.298 Y112.465 E14.39582
G1 X51.99 Y111.844 E14.40965
G1 X51.755 Y111.193 E14.42346
G1 X51.598 Y110.518 E14.43729
G1 X51.511 Y109.653 E14.45464
G1 X51.5 Y109.158 E14.46452
G1 X51.501 Y91.093 E14.82503
G1 X51.51 Y90.428 E14.8383
G1 X51.559 Y89.737 E14.85213
G1 X51.687 Y89.057 E14.86594
G1 X51.894 Y88.395 E14.87978
G1 X52.175 Y87.762 E14.8936
G1 X52.527 Y87.166 E14.90741
G1 X52.945 Y86.614 E14.92123
G1 X53.424 Y86.114 E14.93505
G1 X53.958 Y85.673 E14.94887
G0 F3600 X54.343 Y85.89
G1 F1500 X54.916 Y85.545 E14.96222
G1 X55.527 Y85.272 E14.97557
G1 X56.165 Y85.073 E14.98891
G1 X56.823 Y84.951 E15.00226
G1 X57.352 Y84.911 E15.01285
G1 X57.83 Y84.9 E15.02239
G1 X63.793 Y84.9 E15.14139
G1 X64.586 Y84.912 E15.15722
G1 X65.253 Y84.962 E15.17056
G1 X65.91 Y85.092 E15.18393
G1 X66.437 Y85.257 E15.19495
G1 X67.285 Y85.57 E15.21299
G1 X69.843 Y86.472 E15.26712
G1 X72.377 Y87.287 E15.32024
G1 X74.924 Y88.028 E15.37317
G1 X77.537 Y88.708 E15.42705
G1 X80.159 Y89.312 E15.48075
G1 X82.735 Y89.828 E15.53318
G1 X85.383 Y90.281 E15.58679
G1 X88.033 Y90.658 E15.6402
G1 X90.657 Y90.956 E15.69291
G1 X93.342 Y91.185 E15.74668
G1 X95.993 Y91.335 E15.79967
G1 X98.677 Y91.411 E15.85325
G1 X101.33 Y91.411 E15.9062
G1 X104.016 Y91.335 E15.95982
G1 X106.665 Y91.185 E16.01277
G1 X109.348 Y90.956 E16.06651
G1 X111.978 Y90.658 E16.11933
G1 X114.62 Y90.282 E16.17258
G1 X117.289 Y89.825 E16.22662
G1 X119.865 Y89.308 E16.27905
G1 X122.469 Y88.71 E16.33237
G1 X125.059 Y88.035 E16.38578
G1 X127.631 Y87.287 E16.43924
G1 X130.165 Y86.472 E16.49236
G1 X132.694 Y85.58 E16.54587
G1 X133.333 Y85.338 E16.55951
G1 X133.698 Y85.21 E16.56723
G1 X134.343 Y85.032 E16.58058
G1 X135.004 Y84.932 E16.59392
G1 X135.673 Y84.902 E16.60729
G1 X135.83 Y84.9 E16.61042
G1 X141.865 Y84.9 E16.73085
G1 X142.563 Y84.909 E16.74478
G1 X143.23 Y84.958 E16.75813
G1 X143.887 Y85.086 E16.77149
G1 X144.524 Y85.291 E16.78484
G1 X145.132 Y85.571 E16.7982
G1 X145.702 Y85.921 E16.81155
G1 X146.226 Y86.337 E16.8249
G1 X146.697 Y86.812 E16.83825
G1 X147.108 Y87.34 E16.8516
G1 X147.453 Y87.913 E16.86495
G1 X147.727 Y88.523 E16.87829
G1 X147.927 Y89.162 E16.89166
G1 X148.048 Y89.82 E16.90501
G1 X148.089 Y90.352 E16.91566
G1 X148.1 Y90.83 E16.9252
G1 X148.1 Y108.833 E17.28447
G1 X148.091 Y109.56 E17.29898
G1 X148.042 Y110.228 E17.31234
G1 X147.915 Y110.884 E17.32568
G1 X147.71 Y111.521 E17.33903
G1 X147.431 Y112.129 E17.35238
G1 X147.081 Y112.699 E17.36573
G1 X146.665 Y113.224 E17.3791
G1 X146.19 Y113.695 E17.39245
G1 X145.663 Y114.106 E17.40578
G1 X145.09 Y114.452 E17.41914
G1 X144.48 Y114.726 E17.43249
G1 X143.841 Y114.926 E17.44585
G1 X143.183 Y115.048 E17.4592
G1 X142.648 Y115.089 E17.46991
G1 X142.17 Y115.1 E17.47945
G1 X58.135 Y115.1 E19.15646
G1 X57.437 Y115.091 E19.17039
G1 X56.77 Y115.042 E19.18374
G1 X56.113 Y114.914 E19.1971
G1 X55.476 Y114.709 E19.21045
G1 X54.868 Y114.429 E19.22381
G1 X54.298 Y114.079 E19.23716
G1 X53.774 Y113.663 E19.25051
G1 X53.303 Y113.188 E19.26386
G1 X52.892 Y112.66 E19.27721
G1 X52.547 Y112.087 E19.29056
G1 X52.273 Y111.477 E19.3039
G1 X52.073 Y110.838 E19.31726
G1 X51.952 Y110.18 E19.33061
G1 X51.911 Y109.642 E19.34138
G1 X51.9 Y109.158 E19.35104
G1 X51.901 Y91.098 E19.71145
G1 X51.91 Y90.433 E19.72472
G1 X51.959 Y89.766 E19.73807
G1 X52.087 Y89.109 E19.75143
G1 X52.292 Y88.473 E19.76476
G1 X52.572 Y87.865 E19.77812
G1 X52.923 Y87.295 E19.79148
G1 X53.339 Y86.771 E19.80483
G1 X53.814 Y86.301 E19.81817
G1 X54.343 Y85.89 E19.83153
G0 F3600 X54.726 Y86.117
G1 F1500 X55.29 Y85.806 E19.84439
G1 X55.889 Y85.568 E19.85725
G1 X56.513 Y85.405 E19.87012
G1 X57.363 Y85.311 E19.88719
G1 X57.83 Y85.3 E19.89651
G1 X63.793 Y85.3 E20.01551
G1 X64.58 Y85.312 E20.03121
G1 X65.223 Y85.362 E20.04408
G1 X65.854 Y85.491 E20.05694
G1 X66.299 Y85.632 E20.06625
G1 X67.161 Y85.95 E20.08459
G1 X69.725 Y86.855 E20.13885
G1 X72.258 Y87.669 E20.19194
G1 X74.817 Y88.413 E20.24513
G1 X77.452 Y89.099 E20.29946
G1 X80.063 Y89.701 E20.35294
G1 X82.654 Y90.219 E20.40566
G1 X85.331 Y90.677 E20.45986
G1 X87.968 Y91.053 E20.51302
G1 X90.65 Y91.357 E20.56688
G1 X93.286 Y91.582 E20.61968
G1 X95.993 Y91.735 E20.67379
G1 X98.666 Y91.811 E20.72715
G1 X101.341 Y91.811 E20.78053
G1 X104.016 Y91.735 E20.83394
G1 X106.721 Y91.582 E20.88801
G1 X109.355 Y91.358 E20.94076
G1 X112.048 Y91.052 E20.99485
G1 X114.708 Y90.673 E21.04847
G1 X117.323 Y90.226 E21.10141
G1 X119.969 Y89.694 E21.15527
G1 X122.554 Y89.101 E21.2082
G1 X125.166 Y88.421 E21.26206
G1 X127.75 Y87.669 E21.31576
G1 X130.283 Y86.855 E21.36886
G1 X132.843 Y85.951 E21.42304
G1 X133.475 Y85.712 E21.43652
G1 X133.827 Y85.589 E21.44396
G1 X134.449 Y85.418 E21.45684
G1 X135.364 Y85.311 E21.47522
G1 X135.83 Y85.3 E21.48452
G1 X141.86 Y85.3 E21.60486
G1 X142.558 Y85.309 E21.61879
G1 X143.201 Y85.358 E21.63166
G1 X143.833 Y85.485 E21.64452
G1 X144.444 Y85.69 E21.65738
G1 X145.025 Y85.968 E21.67024
G1 X145.568 Y86.317 E21.68312
G1 X146.063 Y86.73 E21.69598
G1 X146.503 Y87.201 E21.70885
G1 X146.882 Y87.723 E21.72172
G1 X147.193 Y88.287 E21.73457
G1 X147.431 Y88.886 E21.74743
G1 X147.594 Y89.51 E21.7603
G1 X147.689 Y90.363 E21.77743
G1 X147.7 Y90.83 E21.78675
G1 X147.7 Y108.828 E22.14592
G1 X147.691 Y109.555 E22.16043
G1 X147.643 Y110.198 E22.1733
G1 X147.516 Y110.83 E22.18617
G1 X147.311 Y111.442 E22.19905
G1 X147.033 Y112.023 E22.2119
G1 X146.685 Y112.566 E22.22477
G1 X146.272 Y113.061 E22.23763
G1 X145.801 Y113.501 E22.2505
G1 X145.279 Y113.88 E22.26337
G1 X144.715 Y114.191 E22.27622
G1 X144.116 Y114.43 E22.28909
G1 X143.493 Y114.594 E22.30195
G1 X142.637 Y114.689 E22.31914
G1 X142.17 Y114.7 E22.32846
G1 X58.14 Y114.7 E24.00537
G1 X57.442 Y114.691 E24.0193
G1 X56.799 Y114.642 E24.03217
G1 X56.167 Y114.515 E24.04503
G1 X55.556 Y114.31 E24.05789
G1 X54.975 Y114.032 E24.07075
G1 X54.432 Y113.683 E24.08363
G1 X53.937 Y113.27 E24.09649
G1 X53.497 Y112.799 E24.10936
G1 X53.118 Y112.277 E24.12223
G1 X52.807 Y111.713 E24.13508
G1 X52.569 Y111.114 E24.14794
G1 X52.406 Y110.49 E24.16081
G1 X52.311 Y109.631 E24.17806
G1 X52.3 Y109.158 E24.1875
G1 X52.3 Y91.104 E24.54779
G1 X52.309 Y90.439 E24.56106
G1 X52.358 Y89.796 E24.57393
G1 X52.486 Y89.164 E24.5868
G1 X52.691 Y88.553 E24.59966
G1 X52.97 Y87.972 E24.61252
G1 X53.319 Y87.429 E24.6254
G1 X53.732 Y86.935 E24.63825
G1 X54.203 Y86.495 E24.65112
G1 X54.726 Y86.117 E24.66399
G1 F1500 E24.36399
;MESH:Corpo11.stl
G0 F3600 X134.835 Y91.114
G0 X136.114 Y91.114
G0 X141.17 Y91.23
G1 F1500 E24.66399
G0 F3600 X141.1 Y91.3
;TYPE:WALL-INNER
G1 F1200 X136.1 Y91.3 E24.76377
G1 X136.1 Y91.1 E24.76777
G1 X141.1 Y91.1 E24.81766
G1 X141.9 Y91.1 E24.83362
G1 X141.9 Y108.9 E25.18884
G1 X58.1 Y108.9 E26.86116
G1 X58.1 Y91.1 E27.21638
G1 X58.9 Y91.1 E27.23234
G1 X63.9 Y91.1 E27.33212
G1 X63.9 Y91.3 E27.33611
G1 X58.9 Y91.3 E27.386
G1 X58.9 Y108.1 E27.72127
