;FLAVOR:Marlin
;TIME:3755
;Filament used: 1.54727m
;Layer height: 0.12
;MINX:59.657
;MINY:87.7
;MINZ:0.12
;MAXX:136.255
;MAXY:112.3
;MAXZ:57.36
;Generated with Cura_SteamEngine 4.13.1
M82 ;absolute extrusion mode
G21 ; set units to millimeters
M140 S60.0 ; set bed temp
G28 ; Home extruder
G1 Z15 ; Levanta Extrusora
G90 ; use absolute positioning
M82 ; absolute extrusion mode
;M140 S60.0 ; set bed temp
M190 S60.0 ; wait for bed temp
M104 S210.0 ; set extruder temp
G29; Perform Automatic Bed Leveling
M109 S210.0 ; wait for extruder temp
G92 E0.0 ; reset extruder distance position
G92 E0
G92 E0
G1 F1500 E-0.3
;LAYER_COUNT:478
;LAYER:0
M107
G0 F3600 X62.735 Y88.826 Z0.12
;TYPE:SKIRT
G1 F1500 E0
G1 X63.372 Y88.455 E0.01471
G1 X64.046 Y88.155 E0.02943
G1 X64.748 Y87.931 E0.04414
G1 X65.471 Y87.783 E0.05887
G1 X66.261 Y87.713 E0.07469
G1 X66.797 Y87.7 E0.08539
G1 X113.413 Y87.7 E1.01567
G1 X114.208 Y87.711 E1.03153
G1 X114.944 Y87.761 E1.04625
G1 X115.67 Y87.891 E1.06097
G1 X116.377 Y88.099 E1.07568
G1 X117.058 Y88.382 E1.0904
G1 X117.704 Y88.737 E1.10511
G1 X118.308 Y89.16 E1.11982
G1 X118.863 Y89.646 E1.13454
G1 X119.361 Y90.189 E1.14925
G1 X119.798 Y90.783 E1.16396
G1 X120.168 Y91.42 E1.17866
G1 X120.467 Y92.094 E1.19338
G1 X120.692 Y92.797 E1.20811
G1 X120.838 Y93.519 E1.22281
G1 X120.908 Y94.318 E1.23881
G1 X120.92 Y94.829 E1.24901
G1 X120.919 Y104.848 E1.44895
G1 X120.91 Y105.575 E1.46346
G1 X120.861 Y106.311 E1.47818
G1 X120.733 Y107.037 E1.4929
G1 X120.527 Y107.745 E1.50761
G1 X120.245 Y108.426 E1.52232
G1 X119.891 Y109.073 E1.53704
G1 X119.469 Y109.678 E1.55176
G1 X118.985 Y110.233 E1.56645
G1 X118.443 Y110.733 E1.58117
G1 X117.85 Y111.171 E1.59588
G1 X117.213 Y111.542 E1.61059
G1 X116.539 Y111.843 E1.62532
G1 X115.837 Y112.068 E1.64003
G1 X115.115 Y112.216 E1.65474
G1 X114.302 Y112.288 E1.67103
G1 X113.79 Y112.3 E1.68125
G1 X67.076 Y112.299 E2.61348
G1 X66.378 Y112.29 E2.62741
G1 X65.643 Y112.241 E2.64211
G1 X64.917 Y112.112 E2.65682
G1 X64.209 Y111.906 E2.67154
G1 X63.528 Y111.623 E2.68626
G1 X62.881 Y111.269 E2.70097
G1 X62.277 Y110.847 E2.71568
G1 X61.721 Y110.362 E2.7304
G1 X61.222 Y109.82 E2.7451
G1 X60.784 Y109.227 E2.75982
G1 X60.413 Y108.59 E2.77453
G1 X60.113 Y107.916 E2.78925
G1 X59.888 Y107.214 E2.80396
G1 X59.74 Y106.492 E2.81867
G1 X59.668 Y105.662 E2.83529
G1 X59.657 Y105.133 E2.84585
G1 X59.659 Y95.082 E3.04643
G1 X59.668 Y94.418 E3.05968
G1 X59.718 Y93.682 E3.0744
G1 X59.847 Y92.956 E3.08912
G1 X60.054 Y92.249 E3.10382
G1 X60.336 Y91.568 E3.11853
G1 X60.691 Y90.921 E3.13326
G1 X61.114 Y90.317 E3.14797
G1 X61.599 Y89.762 E3.16268
G1 X62.142 Y89.263 E3.1774
G1 X62.735 Y88.826 E3.1921
G0 F3600 X63.117 Y89.057
G1 F1500 X63.746 Y88.717 E3.20637
G1 X64.41 Y88.45 E3.22065
G1 X65.099 Y88.258 E3.23492
G1 X65.805 Y88.144 E3.24919
G1 X66.603 Y88.103 E3.26514
G1 X66.797 Y88.1 E3.26901
G1 X113.413 Y88.1 E4.19929
G1 X114.203 Y88.111 E4.21505
G1 X114.916 Y88.161 E4.22932
G1 X115.62 Y88.29 E4.2436
G1 X116.304 Y88.498 E4.25787
G1 X116.961 Y88.78 E4.27213
G1 X117.583 Y89.134 E4.28642
G1 X118.161 Y89.555 E4.30069
G1 X118.689 Y90.038 E4.31497
G1 X119.159 Y90.576 E4.32922
G1 X119.567 Y91.164 E4.34351
G1 X119.906 Y91.794 E4.35778
G1 X120.173 Y92.457 E4.37205
G1 X120.364 Y93.147 E4.38633
G1 X120.477 Y93.853 E4.4006
G1 X120.517 Y94.649 E4.41651
G1 X120.52 Y94.829 E4.4201
G1 X120.52 Y104.843 E4.61994
G1 X120.511 Y105.57 E4.63445
G1 X120.462 Y106.284 E4.64873
G1 X120.334 Y106.988 E4.66301
G1 X120.128 Y107.673 E4.67728
G1 X119.847 Y108.33 E4.69154
G1 X119.494 Y108.953 E4.70583
G1 X119.074 Y109.532 E4.72011
G1 X118.592 Y110.06 E4.73438
G1 X118.055 Y110.532 E4.74864
G1 X117.467 Y110.94 E4.76293
G1 X116.838 Y111.281 E4.7772
G1 X116.175 Y111.549 E4.79147
G1 X115.486 Y111.741 E4.80575
G1 X114.78 Y111.856 E4.82002
G1 X113.969 Y111.897 E4.83623
G1 X113.79 Y111.9 E4.8398
G1 X67.081 Y111.899 E5.77193
G1 X66.383 Y111.89 E5.78586
G1 X65.67 Y111.841 E5.80012
G1 X64.966 Y111.713 E5.8144
G1 X64.281 Y111.507 E5.82868
G1 X63.624 Y111.225 E5.84294
G1 X63.002 Y110.872 E5.85722
G1 X62.423 Y110.452 E5.87149
G1 X61.894 Y109.97 E5.88577
G1 X61.423 Y109.432 E5.90004
G1 X61.015 Y108.845 E5.91431
G1 X60.675 Y108.215 E5.92859
G1 X60.407 Y107.552 E5.94287
G1 X60.215 Y106.863 E5.95714
G1 X60.101 Y106.157 E5.97141
G1 X60.068 Y105.652 E5.98151
G1 X60.057 Y105.133 E5.99187
G1 X60.059 Y95.087 E6.19235
G1 X60.068 Y94.423 E6.2056
G1 X60.117 Y93.71 E6.21986
G1 X60.246 Y93.006 E6.23415
G1 X60.453 Y92.321 E6.24843
G1 X60.735 Y91.664 E6.26269
G1 X61.088 Y91.042 E6.27697
G1 X61.509 Y90.464 E6.29124
G1 X61.991 Y89.936 E6.3055
G1 X62.529 Y89.465 E6.31977
G1 X63.117 Y89.057 E6.33405
G0 F3600 X62.916 Y89.674
G1 F1500 X63.497 Y89.297 E6.34788
G1 X64.117 Y88.989 E6.36169
G1 X64.769 Y88.755 E6.37552
G1 X65.444 Y88.598 E6.38935
G1 X66.285 Y88.513 E6.40621
G1 X66.797 Y88.5 E6.41643
G1 X113.413 Y88.5 E7.34671
G1 X114.197 Y88.511 E7.36235
G1 X114.888 Y88.56 E7.37618
G1 X115.568 Y88.69 E7.38999
G1 X116.229 Y88.896 E7.40381
G1 X116.862 Y89.178 E7.41764
G1 X117.458 Y89.53 E7.43145
G1 X118.009 Y89.949 E7.44527
G1 X118.509 Y90.429 E7.4591
G1 X118.95 Y90.963 E7.47292
G1 X119.327 Y91.544 E7.48674
G1 X119.634 Y92.165 E7.50057
G1 X119.867 Y92.817 E7.51438
G1 X120.024 Y93.491 E7.52819
G1 X120.109 Y94.341 E7.54524
G1 X120.12 Y94.829 E7.55498
G1 X120.12 Y104.838 E7.75472
G1 X120.111 Y105.565 E7.76923
G1 X120.062 Y106.256 E7.78306
G1 X119.934 Y106.937 E7.79688
G1 X119.729 Y107.598 E7.81069
G1 X119.449 Y108.231 E7.82451
G1 X119.097 Y108.828 E7.83834
G1 X118.68 Y109.381 E7.85216
G1 X118.201 Y109.881 E7.86598
G1 X117.668 Y110.323 E7.8798
G1 X117.087 Y110.701 E7.89363
G1 X116.467 Y111.009 E7.90744
G1 X115.816 Y111.244 E7.92126
G1 X115.141 Y111.402 E7.93509
G1 X114.279 Y111.489 E7.95238
G1 X113.79 Y111.5 E7.96214
G1 X67.087 Y111.5 E8.89415
G1 X66.389 Y111.491 E8.90808
G1 X65.698 Y111.442 E8.9219
G1 X65.017 Y111.313 E8.93574
G1 X64.356 Y111.108 E8.94955
G1 X63.723 Y110.827 E8.96337
G1 X63.126 Y110.476 E8.97719
G1 X62.574 Y110.058 E8.99101
G1 X62.074 Y109.579 E9.00482
G1 X61.632 Y109.045 E9.01866
G1 X61.255 Y108.465 E9.03246
G1 X60.947 Y107.844 E9.0463
G1 X60.712 Y107.193 E9.06011
G1 X60.555 Y106.518 E9.07394
G1 X60.468 Y105.642 E9.0915
G1 X60.457 Y105.133 E9.10166
G1 X60.459 Y95.093 E9.30202
G1 X60.468 Y94.429 E9.31528
G1 X60.517 Y93.738 E9.3291
G1 X60.645 Y93.057 E9.34293
G1 X60.852 Y92.396 E9.35675
G1 X61.133 Y91.763 E9.37057
G1 X61.485 Y91.167 E9.38439
G1 X61.903 Y90.615 E9.3982
G1 X62.382 Y90.115 E9.41202
G1 X62.916 Y89.674 E9.42584
G0 F3600 X63.301 Y89.891
G1 F1500 X63.874 Y89.546 E9.43919
G1 X64.485 Y89.273 E9.45254
G1 X65.123 Y89.074 E9.46588
G1 X65.781 Y88.952 E9.47924
G1 X66.297 Y88.913 E9.48956
G1 X66.797 Y88.9 E9.49954
G1 X113.413 Y88.9 E10.42982
G1 X114.191 Y88.911 E10.44534
G1 X114.858 Y88.96 E10.45869
G1 X115.515 Y89.089 E10.47205
G1 X116.151 Y89.295 E10.48539
G1 X116.759 Y89.576 E10.49876
G1 X117.328 Y89.926 E10.51209
G1 X117.852 Y90.343 E10.52546
G1 X118.322 Y90.819 E10.5388
G1 X118.732 Y91.347 E10.55214
G1 X119.077 Y91.921 E10.56551
G1 X119.35 Y92.532 E10.57886
G1 X119.548 Y93.171 E10.59221
G1 X119.669 Y93.829 E10.60557
G1 X119.709 Y94.352 E10.61603
G1 X119.72 Y94.829 E10.62555
G1 X119.72 Y104.833 E10.8252
G1 X119.711 Y105.56 E10.8397
G1 X119.662 Y106.228 E10.85307
G1 X119.535 Y106.884 E10.86641
G1 X119.33 Y107.521 E10.87976
G1 X119.051 Y108.129 E10.89311
G1 X118.701 Y108.699 E10.90646
G1 X118.285 Y109.224 E10.91982
G1 X117.81 Y109.695 E10.93317
G1 X117.283 Y110.106 E10.94651
G1 X116.71 Y110.452 E10.95987
G1 X116.1 Y110.726 E10.97321
G1 X115.461 Y110.926 E10.98658
G1 X114.803 Y111.048 E10.99993
G1 X114.268 Y111.089 E11.01064
G1 X113.79 Y111.1 E11.02018
G1 X67.092 Y111.1 E11.95209
G1 X66.394 Y111.091 E11.96602
G1 X65.727 Y111.042 E11.97937
G1 X65.07 Y110.914 E11.99272
G1 X64.433 Y110.709 E12.00608
G1 X63.825 Y110.429 E12.01944
G1 X63.255 Y110.079 E12.03278
G1 X62.731 Y109.663 E12.04614
G1 X62.26 Y109.188 E12.05949
G1 X61.849 Y108.66 E12.07284
G1 X61.504 Y108.087 E12.08619
G1 X61.23 Y107.477 E12.09953
G1 X61.03 Y106.838 E12.11289
G1 X60.909 Y106.18 E12.12624
G1 X60.868 Y105.632 E12.13721
G1 X60.857 Y105.133 E12.14717
G1 X60.859 Y95.098 E12.34743
G1 X60.868 Y94.434 E12.36068
G1 X60.917 Y93.767 E12.37403
G1 X61.045 Y93.11 E12.38739
G1 X61.25 Y92.474 E12.40072
G1 X61.53 Y91.866 E12.41408
G1 X61.881 Y91.296 E12.42744
G1 X62.297 Y90.772 E12.44079
G1 X62.773 Y90.302 E12.45414
G1 X63.301 Y89.891 E12.46749
G0 F3600 X63.684 Y90.118
G1 F1500 X64.249 Y89.807 E12.48036
G1 X64.848 Y89.569 E12.49322
G1 X65.471 Y89.406 E12.50608
G1 X66.309 Y89.312 E12.5229
G1 X66.797 Y89.3 E12.53265
G1 X113.413 Y89.3 E13.46292
G1 X114.185 Y89.311 E13.47833
G1 X114.828 Y89.36 E13.49119
G1 X115.46 Y89.488 E13.50406
G1 X116.071 Y89.694 E13.51693
G1 X116.652 Y89.973 E13.52979
G1 X117.194 Y90.322 E13.54266
G1 X117.688 Y90.736 E13.55552
G1 X118.128 Y91.208 E13.5684
G1 X118.506 Y91.73 E13.58126
G1 X118.816 Y92.295 E13.59412
G1 X119.054 Y92.894 E13.60698
G1 X119.216 Y93.518 E13.61985
G1 X119.309 Y94.363 E13.63681
G1 X119.32 Y94.829 E13.64611
G1 X119.32 Y104.828 E13.84566
G1 X119.311 Y105.555 E13.86016
G1 X119.263 Y106.198 E13.87303
G1 X119.136 Y106.83 E13.8859
G1 X118.931 Y107.442 E13.89878
G1 X118.653 Y108.023 E13.91163
G1 X118.305 Y108.566 E13.9245
G1 X117.892 Y109.061 E13.93737
G1 X117.421 Y109.501 E13.95023
G1 X116.899 Y109.88 E13.9631
G1 X116.335 Y110.191 E13.97595
G1 X115.736 Y110.43 E13.98882
G1 X115.113 Y110.594 E14.00168
G1 X114.257 Y110.689 E14.01887
G1 X113.79 Y110.7 E14.02819
G1 X67.097 Y110.7 E14.96
G1 X66.399 Y110.691 E14.97393
G1 X65.756 Y110.642 E14.9868
G1 X65.124 Y110.515 E14.99966
G1 X64.513 Y110.31 E15.01252
G1 X63.932 Y110.032 E15.02538
G1 X63.389 Y109.683 E15.03826
G1 X62.894 Y109.27 E15.05112
G1 X62.454 Y108.799 E15.06399
G1 X62.075 Y108.277 E15.07686
G1 X61.764 Y107.713 E15.08971
G1 X61.526 Y107.114 E15.10258
G1 X61.363 Y106.49 E15.11545
G1 X61.268 Y105.622 E15.13287
G1 X61.257 Y105.133 E15.14263
G1 X61.258 Y95.104 E15.34277
G1 X61.267 Y94.44 E15.35602
G1 X61.316 Y93.797 E15.36889
G1 X61.444 Y93.165 E15.38176
G1 X61.649 Y92.554 E15.39462
G1 X61.928 Y91.973 E15.40748
G1 X62.277 Y91.43 E15.42037
G1 X62.69 Y90.936 E15.43322
G1 X63.162 Y90.496 E15.44609
G1 X63.684 Y90.118 E15.45895
G1 F1500 E15.15895
;MESH:Overhang_Angle_Test_30-75.stl
G0 F3600 X67.072 Y93.835
G0 X67.072 Y95.114
G0 X113.45 Y104.83
G1 F1500 E15.45895
G0 F3600 X113.52 Y104.9
;TYPE:WALL-INNER
G1 F1200 X67.057 Y104.9 E16.38617
G1 X67.058 Y95.1 E16.58174
G1 X113.52 Y95.1 E17.50894
G1 X113.52 Y104.9 E17.70451
G0 F3600 X113.92 Y105.3
;TYPE:WALL-OUTER
G1 F1200 X66.657 Y105.3 E18.6477
G1 X66.658 Y94.7 E18.85923
G1 X113.92 Y94.7 E19.80239
G1 X113.92 Y105.3 E20.01393
G0 F3600 X113.72 Y105.3
G0 X113.13 Y104.51
;TYPE:SKIN
G1 F1200 X67.447 Y104.51 E20.92558
G1 X67.448 Y95.49 E21.10559
G1 X113.13 Y95.49 E22.01722
G1 X113.13 Y104.51 E22.19722
G0 F3600 X112.949 Y95.979
G1 F1200 X112.64 Y95.67 E22.20595
G0 F3600 X112.075 Y95.67
G1 F1200 X112.949 Y96.544 E22.23061
G0 F3600 X112.949 Y97.11
G1 F1200 X111.509 Y95.67 E22.27125
G0 F3600 X110.943 Y95.67
G1 F1200 X112.949 Y97.676 E22.32786
G0 F3600 X112.949 Y98.241
G1 F1200 X110.377 Y95.67 E22.40044
G0 F3600 X109.812 Y95.67
G1 F1200 X112.949 Y98.807 E22.48897
G0 F3600 X112.949 Y99.373
G1 F1200 X109.246 Y95.67 E22.59348
G0 F3600 X108.68 Y95.67
G1 F1200 X112.949 Y99.938 E22.71394
G0 F3600 X112.949 Y100.504
G1 F1200 X108.115 Y95.67 E22.85037
G0 F3600 X107.549 Y95.67
G1 F1200 X112.949 Y101.07 E23.00277
G0 F3600 X112.949 Y101.635
G1 F1200 X106.983 Y95.67 E23.17113
G0 F3600 X106.418 Y95.67
G1 F1200 X112.949 Y102.201 E23.35545
G0 F3600 X112.949 Y102.767
G1 F1200 X105.852 Y95.67 E23.55574
G0 F3600 X105.286 Y95.67
G1 F1200 X112.949 Y103.333 E23.77201
G0 F3600 X112.949 Y103.898
G1 F1200 X104.721 Y95.67 E24.00422
G0 F3600 X104.155 Y95.67
G1 F1200 X112.814 Y104.329 E24.24859
G0 F3600 X112.248 Y104.329
G1 F1200 X103.589 Y95.67 E24.49297
G0 F3600 X103.024 Y95.67
G1 F1200 X111.683 Y104.329 E24.73735
G0 F3600 X111.117 Y104.329
G1 F1200 X102.458 Y95.67 E24.98172
G0 F3600 X101.892 Y95.67
G1 F1200 X110.551 Y104.329 E25.2261
G0 F3600 X109.986 Y104.329
G1 F1200 X101.326 Y95.67 E25.47049
G0 F3600 X100.761 Y95.67
G1 F1200 X109.42 Y104.329 E25.71486
G0 F3600 X108.854 Y104.329
G1 F1200 X100.195 Y95.67 E25.95924
G0 F3600 X99.629 Y95.67
G1 F1200 X108.289 Y104.329 E26.20363
G0 F3600 X107.723 Y104.329
G1 F1200 X99.064 Y95.67 E26.448
G0 F3600 X98.498 Y95.67
G1 F1200 X107.157 Y104.329 E26.69238
G0 F3600 X106.592 Y104.329
G1 F1200 X97.932 Y95.67 E26.93677
G0 F3600 X97.367 Y95.67
G1 F1200 X106.026 Y104.329 E27.18115
G0 F3600 X105.46 Y104.329
G1 F1200 X96.801 Y95.67 E27.42552
G0 F3600 X96.235 Y95.67
G1 F1200 X104.895 Y104.329 E27.66991
G0 F3600 X104.329 Y104.329
G1 F1200 X95.67 Y95.67 E27.91429
G0 F3600 X95.104 Y95.67
G1 F1200 X103.763 Y104.329 E28.15866
G0 F3600 X103.197 Y104.329
G1 F1200 X94.538 Y95.67 E28.40304
G0 F3600 X93.973 Y95.67
G1 F1200 X102.632 Y104.329 E28.64741
G0 F3600 X102.066 Y104.329
G1 F1200 X93.407 Y95.67 E28.89179
G0 F3600 X92.841 Y95.67
G1 F1200 X101.5 Y104.329 E29.13616
G0 F3600 X100.935 Y104.329
G1 F1200 X92.276 Y95.67 E29.38054
G0 F3600 X91.71 Y95.67
G1 F1200 X100.369 Y104.329 E29.62492
G0 F3600 X99.803 Y104.329
G1 F1200 X91.144 Y95.67 E29.86929
G0 F3600 X90.578 Y95.67
G1 F1200 X99.238 Y104.329 E30.11368
G0 F3600 X98.672 Y104.329
G1 F1200 X90.013 Y95.67 E30.35806
G0 F3600 X89.447 Y95.67
G1 F1200 X98.106 Y104.329 E30.60243
G0 F3600 X97.541 Y104.329
G1 F1200 X88.881 Y95.67 E30.84682
G0 F3600 X88.316 Y95.67
G1 F1200 X96.975 Y104.329 E31.0912
G0 F3600 X96.409 Y104.329
G1 F1200 X87.75 Y95.67 E31.33557
G0 F3600 X87.184 Y95.67
G1 F1200 X95.844 Y104.329 E31.57996
G0 F3600 X95.278 Y104.329
G1 F1200 X86.619 Y95.67 E31.82434
G0 F3600 X86.053 Y95.67
G1 F1200 X94.712 Y104.329 E32.06872
G0 F3600 X94.147 Y104.329
G1 F1200 X85.487 Y95.67 E32.31311
G0 F3600 X84.922 Y95.67
G1 F1200 X93.581 Y104.329 E32.55748
G0 F3600 X93.015 Y104.329
G1 F1200 X84.356 Y95.67 E32.80186
G0 F3600 X83.79 Y95.67
G1 F1200 X92.449 Y104.329 E33.04623
G0 F3600 X91.884 Y104.329
G1 F1200 X83.225 Y95.67 E33.29061
G0 F3600 X82.659 Y95.67
G1 F1200 X91.318 Y104.329 E33.53498
G0 F3600 X90.752 Y104.329
G1 F1200 X82.093 Y95.67 E33.77936
G0 F3600 X81.527 Y95.67
G1 F1200 X90.186 Y104.328 E34.02372
G0 F3600 X89.62 Y104.328
G1 F1200 X80.962 Y95.67 E34.26807
G0 F3600 X80.396 Y95.67
G1 F1200 X89.055 Y104.328 E34.51243
G0 F3600 X88.489 Y104.328
G1 F1200 X79.83 Y95.67 E34.75679
G0 F3600 X79.265 Y95.67
G1 F1200 X87.923 Y104.328 E35.00114
G0 F3600 X87.358 Y104.328
G1 F1200 X78.699 Y95.67 E35.2455
G0 F3600 X78.133 Y95.67
G1 F1200 X86.792 Y104.328 E35.48986
G0 F3600 X86.226 Y104.328
G1 F1200 X77.568 Y95.67 E35.73421
G0 F3600 X77.002 Y95.67
G1 F1200 X85.661 Y104.328 E35.97857
G0 F3600 X85.095 Y104.328
G1 F1200 X76.436 Y95.67 E36.22293
G0 F3600 X75.871 Y95.67
G1 F1200 X84.529 Y104.328 E36.46728
G0 F3600 X83.963 Y104.328
G1 F1200 X75.305 Y95.67 E36.71163
G0 F3600 X74.739 Y95.67
G1 F1200 X83.398 Y104.328 E36.95599
G0 F3600 X82.832 Y104.328
G1 F1200 X74.174 Y95.67 E37.20034
G0 F3600 X73.608 Y95.67
G1 F1200 X82.266 Y104.328 E37.44468
G0 F3600 X81.701 Y104.328
G1 F1200 X73.042 Y95.67 E37.68905
G0 F3600 X72.477 Y95.67
G1 F1200 X81.135 Y104.328 E37.93339
G0 F3600 X80.569 Y104.328
G1 F1200 X71.911 Y95.67 E38.17774
G0 F3600 X71.345 Y95.67
G1 F1200 X80.004 Y104.328 E38.4221
G0 F3600 X79.438 Y104.328
G1 F1200 X70.779 Y95.67 E38.66646
G0 F3600 X70.214 Y95.67
G1 F1200 X78.872 Y104.328 E38.91081
G0 F3600 X78.307 Y104.328
G1 F1200 X69.648 Y95.67 E39.15517
G0 F3600 X69.082 Y95.67
G1 F1200 X77.741 Y104.328 E39.39953
G0 F3600 X77.175 Y104.328
G1 F1200 X68.517 Y95.67 E39.64388
G0 F3600 X67.951 Y95.67
G1 F1200 X76.61 Y104.328 E39.88824
G0 F3600 X76.044 Y104.328
G1 F1200 X67.627 Y95.911 E40.12579
G0 F3600 X67.627 Y96.477
M104 S190
G1 F1200 X75.478 Y104.328 E40.34736
G0 F3600 X74.913 Y104.328
G1 F1200 X67.627 Y97.043 E40.55297
G0 F3600 X67.627 Y97.609
G1 F1200 X74.347 Y104.328 E40.74261
G0 F3600 X73.781 Y104.328
G1 F1200 X67.627 Y98.174 E40.91629
G0 F3600 X67.627 Y98.74
