;FLAVOR:Marlin
;TIME:4832
;Filament used: 2.20889m
;Layer height: 0.12
;MINX:60.7
;MINY:78.2
;MINZ:0.12
;MAXX:139.3
;MAXY:121.8
;MAXZ:25.44
;Generated with Cura_SteamEngine 4.13.1
M82 ;absolute extrusion mode
G21 ; set units to millimeters
M140 S60.0 ; set bed temp
G28 ; Home extruder
G1 Z15 ; Levanta Extrusora
G90 ; use absolute positioning
M82 ; absolute extrusion mode
;M140 S60.0 ; set bed temp
M190 S60.0 ; wait for bed temp
M104 S205.0 ; set extruder temp
G29; Perform Automatic Bed Leveling
M109 S205.0 ; wait for extruder temp
G92 E0.0 ; reset extruder distance position
G92 E0
G92 E0
G1 F1500 E-0.3
;LAYER_COUNT:212
;LAYER:0
M107
G0 F3600 X63.184 Y79.762 Z0.12
;TYPE:SKIRT
G1 F1500 E0
G1 X63.777 Y79.325 E0.0147
G1 X64.414 Y78.954 E0.02941
G1 X65.088 Y78.655 E0.04413
G1 X65.79 Y78.43 E0.05884
G1 X66.513 Y78.282 E0.07356
G1 X67.318 Y78.212 E0.08969
G1 X67.83 Y78.2 E0.09991
G1 X131.793 Y78.2 E1.37636
G1 X132.588 Y78.211 E1.39223
G1 X133.324 Y78.261 E1.40695
G1 X134.05 Y78.391 E1.42167
G1 X134.757 Y78.599 E1.43637
G1 X135.438 Y78.882 E1.45109
G1 X136.084 Y79.237 E1.4658
G1 X136.688 Y79.66 E1.48052
G1 X137.243 Y80.146 E1.49524
G1 X137.741 Y80.689 E1.50994
G1 X138.178 Y81.283 E1.52466
G1 X138.548 Y81.92 E1.53936
G1 X138.847 Y82.594 E1.55407
G1 X139.072 Y83.297 E1.5688
G1 X139.218 Y84.019 E1.5835
G1 X139.288 Y84.819 E1.59953
G1 X139.3 Y85.33 E1.60973
G1 X139.299 Y114.348 E2.18882
G1 X139.29 Y115.075 E2.20332
G1 X139.241 Y115.811 E2.21804
G1 X139.113 Y116.537 E2.23276
G1 X138.907 Y117.245 E2.24747
G1 X138.625 Y117.926 E2.26218
G1 X138.271 Y118.573 E2.2769
G1 X137.849 Y119.178 E2.29162
G1 X137.365 Y119.733 E2.30631
G1 X136.823 Y120.233 E2.32103
G1 X136.23 Y120.671 E2.33574
G1 X135.593 Y121.042 E2.35045
G1 X134.919 Y121.343 E2.36518
G1 X134.217 Y121.568 E2.37989
G1 X133.495 Y121.716 E2.3946
G1 X132.682 Y121.788 E2.41089
G1 X132.17 Y121.8 E2.42111
G1 X68.119 Y121.799 E3.69932
G1 X67.421 Y121.79 E3.71325
G1 X66.686 Y121.741 E3.72795
G1 X65.96 Y121.612 E3.74266
G1 X65.252 Y121.406 E3.75738
G1 X64.571 Y121.123 E3.77209
G1 X63.924 Y120.769 E3.78681
G1 X63.32 Y120.347 E3.80152
G1 X62.764 Y119.862 E3.81624
G1 X62.265 Y119.32 E3.83094
G1 X61.827 Y118.727 E3.84565
G1 X61.456 Y118.09 E3.86037
G1 X61.156 Y117.416 E3.87509
G1 X60.931 Y116.714 E3.8898
G1 X60.783 Y115.992 E3.90451
G1 X60.711 Y115.175 E3.92087
G1 X60.7 Y114.658 E3.93119
G1 X60.701 Y85.582 E4.51144
G1 X60.71 Y84.917 E4.52471
G1 X60.76 Y84.181 E4.53943
G1 X60.889 Y83.456 E4.55413
G1 X61.096 Y82.748 E4.56885
G1 X61.378 Y82.067 E4.58356
G1 X61.733 Y81.42 E4.59828
G1 X62.155 Y80.816 E4.61299
G1 X62.641 Y80.261 E4.62771
G1 X63.184 Y79.762 E4.64243
G0 F3600 X63.571 Y79.964
G1 F1500 X64.159 Y79.556 E4.65671
G1 X64.788 Y79.216 E4.67098
G1 X65.452 Y78.949 E4.68526
G1 X66.141 Y78.757 E4.69953
G1 X66.847 Y78.643 E4.7138
G1 X67.651 Y78.603 E4.72987
G1 X67.83 Y78.6 E4.73344
G1 X131.793 Y78.6 E6.00989
G1 X132.583 Y78.611 E6.02566
G1 X133.296 Y78.661 E6.03992
G1 X134 Y78.79 E6.05421
G1 X134.684 Y78.998 E6.06847
G1 X135.341 Y79.28 E6.08274
G1 X135.963 Y79.634 E6.09702
G1 X136.541 Y80.055 E6.11129
G1 X137.069 Y80.538 E6.12557
G1 X137.539 Y81.076 E6.13983
G1 X137.947 Y81.664 E6.15411
G1 X138.286 Y82.294 E6.16839
G1 X138.553 Y82.957 E6.18265
G1 X138.744 Y83.647 E6.19694
G1 X138.857 Y84.353 E6.21121
G1 X138.897 Y85.15 E6.22713
G1 X138.9 Y85.33 E6.23073
G1 X138.9 Y114.343 E6.80971
G1 X138.891 Y115.07 E6.82422
G1 X138.842 Y115.784 E6.8385
G1 X138.714 Y116.488 E6.85278
G1 X138.508 Y117.173 E6.86706
G1 X138.227 Y117.83 E6.88132
G1 X137.874 Y118.453 E6.89561
G1 X137.454 Y119.032 E6.90988
G1 X136.972 Y119.56 E6.92415
G1 X136.435 Y120.032 E6.93842
G1 X135.847 Y120.44 E6.9527
G1 X135.218 Y120.781 E6.96698
G1 X134.555 Y121.049 E6.98125
G1 X133.866 Y121.241 E6.99552
G1 X133.16 Y121.356 E7.0098
G1 X132.349 Y121.397 E7.026
G1 X132.17 Y121.4 E7.02957
G1 X68.124 Y121.399 E8.30768
G1 X67.426 Y121.39 E8.32161
G1 X66.713 Y121.341 E8.33587
G1 X66.009 Y121.213 E8.35015
G1 X65.324 Y121.007 E8.36443
G1 X64.667 Y120.725 E8.37869
G1 X64.045 Y120.372 E8.39297
G1 X63.466 Y119.952 E8.40724
G1 X62.937 Y119.47 E8.42152
G1 X62.466 Y118.932 E8.43579
G1 X62.058 Y118.345 E8.45006
G1 X61.718 Y117.715 E8.46434
G1 X61.45 Y117.052 E8.47862
G1 X61.258 Y116.363 E8.49289
G1 X61.144 Y115.657 E8.50716
G1 X61.102 Y114.831 E8.52367
G1 X61.1 Y114.658 E8.52712
G1 X61.101 Y85.587 E9.10726
G1 X61.11 Y84.922 E9.12053
G1 X61.159 Y84.209 E9.1348
G1 X61.288 Y83.505 E9.14908
G1 X61.495 Y82.821 E9.16334
G1 X61.777 Y82.163 E9.17763
G1 X62.13 Y81.541 E9.1919
G1 X62.55 Y80.963 E9.20616
G1 X63.033 Y80.435 E9.22044
G1 X63.571 Y79.964 E9.23471
G0 F3600 X63.958 Y80.173
G1 F1500 X64.539 Y79.796 E9.24853
G1 X65.159 Y79.488 E9.26234
G1 X65.811 Y79.254 E9.27617
G1 X66.485 Y79.097 E9.28998
G1 X67.341 Y79.011 E9.30715
G1 X67.83 Y79 E9.31691
G1 X131.793 Y79 E10.59336
G1 X132.577 Y79.011 E10.60901
G1 X133.268 Y79.06 E10.62283
G1 X133.948 Y79.19 E10.63665
G1 X134.609 Y79.396 E10.65046
G1 X135.242 Y79.678 E10.66429
G1 X135.838 Y80.03 E10.67811
G1 X136.389 Y80.449 E10.69192
G1 X136.889 Y80.929 E10.70575
G1 X137.33 Y81.463 E10.71957
G1 X137.707 Y82.044 E10.73339
G1 X138.014 Y82.665 E10.74722
G1 X138.247 Y83.317 E10.76103
G1 X138.404 Y83.991 E10.77485
G1 X138.489 Y84.841 E10.79189
G1 X138.5 Y85.33 E10.80165
G1 X138.5 Y114.338 E11.38054
G1 X138.491 Y115.065 E11.39505
G1 X138.442 Y115.756 E11.40887
G1 X138.314 Y116.437 E11.4227
G1 X138.109 Y117.098 E11.43651
G1 X137.829 Y117.731 E11.45032
G1 X137.477 Y118.328 E11.46416
G1 X137.06 Y118.881 E11.47798
G1 X136.581 Y119.381 E11.49179
G1 X136.048 Y119.823 E11.50561
G1 X135.467 Y120.201 E11.51945
G1 X134.847 Y120.509 E11.53326
G1 X134.196 Y120.744 E11.54707
G1 X133.521 Y120.902 E11.56091
G1 X132.659 Y120.989 E11.5782
G1 X132.17 Y121 E11.58796
G1 X68.13 Y121 E12.86594
G1 X67.432 Y120.991 E12.87988
G1 X66.741 Y120.942 E12.8937
G1 X66.06 Y120.813 E12.90753
G1 X65.399 Y120.608 E12.92134
G1 X64.766 Y120.327 E12.93516
G1 X64.169 Y119.976 E12.94898
G1 X63.617 Y119.558 E12.9628
G1 X63.117 Y119.079 E12.97662
G1 X62.675 Y118.545 E12.99045
G1 X62.298 Y117.965 E13.00426
G1 X61.99 Y117.344 E13.01809
G1 X61.755 Y116.693 E13.0319
G1 X61.598 Y116.018 E13.04573
G1 X61.511 Y115.153 E13.06308
G1 X61.5 Y114.658 E13.07296
G1 X61.501 Y85.593 E13.65299
G1 X61.51 Y84.928 E13.66626
G1 X61.559 Y84.237 E13.68008
G1 X61.687 Y83.557 E13.69389
G1 X61.894 Y82.895 E13.70773
G1 X62.175 Y82.262 E13.72155
G1 X62.527 Y81.666 E13.73537
G1 X62.945 Y81.114 E13.74918
G1 X63.424 Y80.614 E13.763
G1 X63.958 Y80.173 E13.77682
G0 F3600 X63.814 Y80.801
G1 F1500 X64.343 Y80.39 E13.79019
G1 X64.916 Y80.045 E13.80354
G1 X65.527 Y79.772 E13.81689
G1 X66.165 Y79.573 E13.83023
G1 X66.823 Y79.451 E13.84359
G1 X67.352 Y79.411 E13.85417
G1 X67.83 Y79.4 E13.86371
G1 X131.793 Y79.4 E15.14016
G1 X132.571 Y79.411 E15.15569
G1 X133.238 Y79.46 E15.16904
G1 X133.895 Y79.589 E15.1824
G1 X134.531 Y79.795 E15.19574
G1 X135.139 Y80.076 E15.20911
G1 X135.708 Y80.426 E15.22244
G1 X136.232 Y80.843 E15.2358
G1 X136.702 Y81.319 E15.24915
G1 X137.112 Y81.847 E15.26249
G1 X137.457 Y82.421 E15.27586
G1 X137.73 Y83.032 E15.28921
G1 X137.928 Y83.671 E15.30256
G1 X138.049 Y84.329 E15.31591
G1 X138.089 Y84.853 E15.3264
G1 X138.1 Y85.33 E15.33592
G1 X138.1 Y114.333 E15.91471
G1 X138.091 Y115.06 E15.92922
G1 X138.042 Y115.728 E15.94259
G1 X137.915 Y116.384 E15.95592
G1 X137.71 Y117.021 E15.96927
G1 X137.431 Y117.629 E15.98262
G1 X137.081 Y118.199 E15.99597
G1 X136.665 Y118.724 E16.00934
G1 X136.19 Y119.195 E16.02269
G1 X135.663 Y119.606 E16.03602
G1 X135.09 Y119.952 E16.04938
G1 X134.48 Y120.226 E16.06273
G1 X133.841 Y120.426 E16.07609
G1 X133.183 Y120.548 E16.08944
G1 X132.648 Y120.589 E16.10015
G1 X132.17 Y120.6 E16.10969
G1 X68.135 Y120.6 E17.38758
G1 X67.437 Y120.591 E17.40151
G1 X66.77 Y120.542 E17.41486
G1 X66.113 Y120.414 E17.42822
G1 X65.476 Y120.209 E17.44157
G1 X64.868 Y119.929 E17.45493
G1 X64.298 Y119.579 E17.46828
G1 X63.774 Y119.163 E17.48163
G1 X63.303 Y118.688 E17.49498
G1 X62.892 Y118.16 E17.50833
G1 X62.547 Y117.587 E17.52168
G1 X62.273 Y116.977 E17.53502
G1 X62.073 Y116.338 E17.54838
G1 X61.952 Y115.68 E17.56174
G1 X61.911 Y115.142 E17.5725
G1 X61.9 Y114.658 E17.58216
G1 X61.901 Y85.598 E18.16209
G1 X61.91 Y84.933 E18.17536
G1 X61.959 Y84.266 E18.18871
G1 X62.087 Y83.609 E18.20206
G1 X62.292 Y82.973 E18.2154
G1 X62.572 Y82.365 E18.22876
G1 X62.923 Y81.795 E18.24212
G1 X63.339 Y81.271 E18.25547
G1 X63.814 Y80.801 E18.2688
G0 F3600 X64.203 Y80.995
G1 F1500 X64.726 Y80.617 E18.28168
G1 X65.29 Y80.306 E18.29453
G1 X65.889 Y80.068 E18.3074
G1 X66.513 Y79.905 E18.32027
G1 X67.363 Y79.811 E18.33733
G1 X67.83 Y79.8 E18.34666
G1 X131.793 Y79.8 E19.62311
G1 X132.565 Y79.811 E19.63851
G1 X133.208 Y79.86 E19.65138
G1 X133.84 Y79.988 E19.66425
G1 X134.451 Y80.194 E19.67712
G1 X135.032 Y80.473 E19.68998
G1 X135.574 Y80.822 E19.70285
G1 X136.068 Y81.236 E19.71571
G1 X136.508 Y81.708 E19.72858
G1 X136.886 Y82.23 E19.74145
G1 X137.196 Y82.795 E19.75431
G1 X137.434 Y83.394 E19.76717
G1 X137.596 Y84.018 E19.78004
G1 X137.689 Y84.864 E19.79702
G1 X137.7 Y85.33 E19.80632
G1 X137.7 Y114.328 E20.38501
G1 X137.691 Y115.055 E20.39952
G1 X137.643 Y115.698 E20.41239
G1 X137.516 Y116.33 E20.42525
G1 X137.311 Y116.942 E20.43813
G1 X137.033 Y117.523 E20.45098
G1 X136.685 Y118.066 E20.46385
G1 X136.272 Y118.561 E20.47672
G1 X135.801 Y119.001 E20.48958
G1 X135.279 Y119.38 E20.50245
G1 X134.715 Y119.691 E20.51531
G1 X134.116 Y119.93 E20.52818
G1 X133.493 Y120.094 E20.54103
G1 X132.637 Y120.189 E20.55822
G1 X132.17 Y120.2 E20.56754
G1 X68.14 Y120.2 E21.84533
G1 X67.442 Y120.191 E21.85926
G1 X66.799 Y120.142 E21.87213
G1 X66.167 Y120.015 E21.88499
G1 X65.556 Y119.81 E21.89786
G1 X64.975 Y119.532 E21.91071
G1 X64.432 Y119.183 E21.92359
G1 X63.937 Y118.77 E21.93646
G1 X63.497 Y118.299 E21.94932
G1 X63.118 Y117.777 E21.96219
G1 X62.807 Y117.213 E21.97504
G1 X62.569 Y116.614 E21.98791
G1 X62.406 Y115.99 E22.00078
G1 X62.311 Y115.131 E22.01802
G1 X62.3 Y114.658 E22.02747
G1 X62.3 Y85.604 E22.60727
G1 X62.309 Y84.939 E22.62054
G1 X62.358 Y84.296 E22.63341
G1 X62.486 Y83.664 E22.64628
G1 X62.691 Y83.053 E22.65914
G1 X62.97 Y82.472 E22.672
G1 X63.319 Y81.929 E22.68488
G1 X63.732 Y81.435 E22.69773
G1 X64.203 Y80.995 E22.7106
G1 F1500 E22.4106
;MESH:Corpo1.stl
G0 F3600 X68.114 Y84.335
G0 X68.114 Y85.614
G0 X131.83 Y114.33
G1 F1500 E22.7106
G0 F3600 X131.9 Y114.4
;TYPE:WALL-INNER
G1 F1200 X68.1 Y114.4 E23.98379
G1 X68.1 Y85.6 E24.55853
G1 X131.9 Y85.6 E25.83173
G1 X131.9 Y114.4 E26.40646
G0 F3600 X132.3 Y114.8
;TYPE:WALL-OUTER
G1 F1200 X67.7 Y114.8 E27.69563
G1 X67.7 Y85.2 E28.28633
G1 X132.3 Y85.2 E29.57549
G1 X132.3 Y114.8 E30.16619
G0 F3600 X132.1 Y114.8
G0 X131.51 Y114.01
;TYPE:SKIN
G1 F1200 X68.49 Y114.01 E31.42382
G1 X68.49 Y85.99 E31.98299
G1 X131.51 Y85.99 E33.24062
G1 X131.51 Y114.01 E33.79979
G0 F3600 X131.329 Y86.64
G1 F1200 X130.859 Y86.17 E33.81306
G0 F3600 X130.293 Y86.17
G1 F1200 X131.329 Y87.206 E33.84229
G0 F3600 X131.329 Y87.771
G1 F1200 X129.727 Y86.17 E33.88749
G0 F3600 X129.162 Y86.17
G1 F1200 X131.329 Y88.337 E33.94865
G0 F3600 X131.329 Y88.903
G1 F1200 X128.596 Y86.17 E34.02578
G0 F3600 X128.03 Y86.17
G1 F1200 X131.329 Y89.468 E34.11887
G0 F3600 X131.329 Y90.034
G1 F1200 X127.465 Y86.17 E34.22792
G0 F3600 X126.899 Y86.17
G1 F1200 X131.329 Y90.6 E34.35295
G0 F3600 X131.329 Y91.165
G1 F1200 X126.333 Y86.17 E34.49393
G0 F3600 X125.768 Y86.17
G1 F1200 X131.329 Y91.731 E34.65087
G0 F3600 X131.329 Y92.297
G1 F1200 X125.202 Y86.17 E34.82379
G0 F3600 X124.636 Y86.17
G1 F1200 X131.329 Y92.862 E35.01267
G0 F3600 X131.329 Y93.428
G1 F1200 X124.071 Y86.17 E35.2175
G0 F3600 X123.505 Y86.17
G1 F1200 X131.329 Y93.994 E35.43831
G0 F3600 X131.329 Y94.559
G1 F1200 X122.939 Y86.17 E35.67508
G0 F3600 X122.374 Y86.17
G1 F1200 X131.329 Y95.125 E35.92781
G0 F3600 X131.329 Y95.691
G1 F1200 X121.808 Y86.17 E36.19652
G0 F3600 X121.242 Y86.17
G1 F1200 X131.329 Y96.257 E36.48119
G0 F3600 X131.329 Y96.822
G1 F1200 X120.676 Y86.17 E36.78183
G0 F3600 X120.111 Y86.17
G1 F1200 X131.329 Y97.388 E37.09843
G0 F3600 X131.329 Y97.954
G1 F1200 X119.545 Y86.17 E37.431
G0 F3600 X118.979 Y86.17
G1 F1200 X131.329 Y98.519 E37.77953
G0 F3600 X131.329 Y99.085
G1 F1200 X118.414 Y86.17 E38.14401
G0 F3600 X117.848 Y86.17
G1 F1200 X131.329 Y99.651 E38.52448
G0 F3600 X131.329 Y100.216
G1 F1200 X117.282 Y86.17 E38.9209
G0 F3600 X116.717 Y86.17
G1 F1200 X131.329 Y100.782 E39.33328
G0 F3600 X131.329 Y101.348
G1 F1200 X116.151 Y86.17 E39.76164
G0 F3600 X115.585 Y86.17
G1 F1200 X131.329 Y101.913 E40.20595
G0 F3600 X131.329 Y102.479
G1 F1200 X115.02 Y86.17 E40.66623
G0 F3600 X114.454 Y86.17
G1 F1200 X131.329 Y103.045 E41.14248
G0 F3600 X131.329 Y103.61
G1 F1200 X113.888 Y86.17 E41.63469
G0 F3600 X113.323 Y86.17
G1 F1200 X131.329 Y104.176 E42.14285
G0 F3600 X131.329 Y104.742
G1 F1200 X112.757 Y86.17 E42.667
G0 F3600 X112.191 Y86.17
G1 F1200 X131.329 Y105.307 E43.2071
G0 F3600 X131.329 Y105.873
G1 F1200 X111.625 Y86.17 E43.76317
G0 F3600 X111.06 Y86.17
G1 F1200 X131.329 Y106.439 E44.33521
G0 F3600 X131.329 Y107.005
G1 F1200 X110.494 Y86.17 E44.92322
G0 F3600 X109.928 Y86.17
G1 F1200 X131.329 Y107.57 E45.52719
G0 F3600 X131.329 Y108.136
G1 F1200 X109.363 Y86.17 E46.14711
G0 F3600 X108.797 Y86.17
G1 F1200 X131.329 Y108.702 E46.78302
G0 F3600 X131.329 Y109.267
G1 F1200 X108.231 Y86.17 E47.43488
G0 F3600 X107.666 Y86.17
G1 F1200 X131.329 Y109.833 E48.1027
G0 F3600 X131.329 Y110.399
G1 F1200 X107.1 Y86.17 E48.78649
G0 F3600 X106.534 Y86.17
G1 F1200 X131.329 Y110.964 E49.48625
G0 F3600 X131.329 Y111.53
G1 F1200 X105.969 Y86.17 E50.20196
G0 F3600 X105.403 Y86.17
G1 F1200 X131.329 Y112.096 E50.93365
G0 F3600 X131.329 Y112.661
G1 F1200 X104.837 Y86.17 E51.6813
G0 F3600 X104.272 Y86.17
G1 F1200 X131.329 Y113.227 E52.4449
G0 F3600 X131.329 Y113.793
G1 F1200 X103.706 Y86.17 E53.22448
G0 F3600 X103.14 Y86.17
G1 F1200 X130.799 Y113.829 E54.00508
G0 F3600 X130.234 Y113.829
G1 F1200 X102.575 Y86.17 E54.78568
G0 F3600 X102.009 Y86.17
G1 F1200 X129.668 Y113.829 E55.56627
G0 F3600 X129.102 Y113.829
G1 F1200 X101.443 Y86.17 E56.34687
G0 F3600 X100.877 Y86.17
G1 F1200 X128.537 Y113.829 E57.12748
G0 F3600 X127.971 Y113.829
G1 F1200 X100.312 Y86.17 E57.90808
G0 F3600 X99.746 Y86.17
G1 F1200 X127.405 Y113.829 E58.68867
G0 F3600 X126.84 Y113.829
G1 F1200 X99.18 Y86.17 E59.46929
G0 F3600 X98.615 Y86.17
G1 F1200 X126.274 Y113.829 E60.24988
G0 F3600 X125.708 Y113.829
G1 F1200 X98.049 Y86.17 E61.03048
G0 F3600 X97.483 Y86.17
G1 F1200 X125.143 Y113.829 E61.81109
G0 F3600 X124.577 Y113.829
G1 F1200 X96.918 Y86.17 E62.59169
G0 F3600 X96.352 Y86.17
G1 F1200 X124.011 Y113.829 E63.37228
G0 F3600 X123.445 Y113.829
G1 F1200 X95.786 Y86.17 E64.15288
G0 F3600 X95.221 Y86.17
G1 F1200 X122.88 Y113.829 E64.93348
G0 F3600 X122.314 Y113.829
G1 F1200 X94.655 Y86.17 E65.71407
G0 F3600 X94.089 Y86.17
G1 F1200 X121.748 Y113.829 E66.49467
G0 F3600 X121.183 Y113.829
G1 F1200 X93.524 Y86.17 E67.27527
G0 F3600 X92.958 Y86.17
G1 F1200 X120.617 Y113.829 E68.05586
G0 F3600 X120.051 Y113.829
G1 F1200 X92.392 Y86.17 E68.83646
G0 F3600 X91.827 Y86.17
G1 F1200 X119.486 Y113.829 E69.61706
G0 F3600 X118.92 Y113.829
G1 F1200 X91.261 Y86.17 E70.39765
G0 F3600 X90.695 Y86.17
G1 F1200 X118.354 Y113.829 E71.17825
G0 F3600 X117.789 Y113.829
G1 F1200 X90.129 Y86.17 E71.95886
G0 F3600 X89.564 Y86.17
G1 F1200 X117.223 Y113.829 E72.73946
G0 F3600 X116.657 Y113.829
G1 F1200 X88.998 Y86.17 E73.52005
G0 F3600 X88.432 Y86.17
G1 F1200 X116.092 Y113.829 E74.30067
G0 F3600 X115.526 Y113.829
G1 F1200 X87.867 Y86.17 E75.08126
G0 F3600 X87.301 Y86.17
G1 F1200 X114.96 Y113.829 E75.86186
G0 F3600 X114.395 Y113.829
G1 F1200 X86.735 Y86.17 E76.64247
G0 F3600 X86.17 Y86.17
G1 F1200 X113.829 Y113.829 E77.42307
G0 F3600 X113.263 Y113.829
G1 F1200 X85.604 Y86.17 E78.20366
G0 F3600 X85.038 Y86.17
G1 F1200 X112.697 Y113.829 E78.98426
G0 F3600 X112.132 Y113.829
G1 F1200 X84.473 Y86.17 E79.76486
G0 F3600 X83.907 Y86.17
G1 F1200 X111.566 Y113.829 E80.54545
G0 F3600 X111 Y113.829
G1 F1200 X83.341 Y86.17 E81.32605
