;FLAVOR:Marlin
;TIME:3017
;Filament used: 1.30561m
;Layer height: 0.12
;MINX:68.212
;MINY:63.904
;MINZ:0.12
;MAXX:131.788
;MAXY:136.096
;MAXZ:3.84
;Generated with Cura_SteamEngine 4.13.1
M82 ;absolute extrusion mode
G21 ; set units to millimeters
M140 S60.0 ; set bed temp
G28 ; Home extruder
G1 Z15 ; Levanta Extrusora
G90 ; use absolute positioning
M82 ; absolute extrusion mode
;M140 S60.0 ; set bed temp
M190 S60.0 ; wait for bed temp
M104 S205.0 ; set extruder temp
G29; Perform Automatic Bed Leveling
M109 S205.0 ; wait for extruder temp
G92 E0.0 ; reset extruder distance position
G92 E0
G92 E0
G1 F1500 E-0.3
;LAYER_COUNT:32
;LAYER:0
M107
G0 F3600 X73.816 Y74.901 Z0.12
;TYPE:SKIRT
G1 F1500 E0
G1 X74.528 Y74.211 E0.01979
G1 X75.053 Y73.716 E0.03419
G1 X75.616 Y73.24 E0.0489
G1 X76.227 Y72.828 E0.0636
G1 X76.88 Y72.485 E0.07832
G1 X77.878 Y72.118 E0.09954
G1 X78.555 Y71.928 E0.11358
G1 X81.19 Y71.145 E0.16843
G1 X83.701 Y70.322 E0.22117
G1 X86.151 Y69.44 E0.27313
G1 X88.605 Y68.478 E0.32573
G1 X91.052 Y67.439 E0.37878
G1 X93.434 Y66.344 E0.4311
G1 X95.786 Y65.185 E0.48343
G1 X96.679 Y64.72 E0.50352
G1 X96.929 Y64.596 E0.50909
G1 X97.608 Y64.308 E0.52381
G1 X98.313 Y64.095 E0.5385
G1 X99.038 Y63.96 E0.55322
G1 X99.773 Y63.904 E0.56793
G1 X100.51 Y63.928 E0.58265
G1 X101.24 Y64.031 E0.59736
G1 X101.955 Y64.213 E0.61208
G1 X102.645 Y64.472 E0.62679
G1 X103.447 Y64.869 E0.64465
G1 X105.875 Y66.072 E0.69872
G1 X108.228 Y67.155 E0.75041
G1 X110.677 Y68.2 E0.80355
G1 X113.15 Y69.173 E0.85658
G1 X115.598 Y70.057 E0.90852
G1 X118.116 Y70.888 E0.96144
G1 X121.556 Y71.896 E1.03297
G1 X122.102 Y72.046 E1.04427
G1 X122.801 Y72.28 E1.05898
G1 X123.471 Y72.588 E1.0737
G1 X124.104 Y72.966 E1.08841
G1 X124.911 Y73.606 E1.10897
G1 X125.295 Y73.964 E1.11944
G1 X126.001 Y74.658 E1.1392
G1 X126.517 Y75.179 E1.15383
G1 X127.007 Y75.73 E1.16855
G1 X127.434 Y76.331 E1.18326
G1 X127.794 Y76.975 E1.19798
G1 X128.081 Y77.654 E1.2127
G1 X128.294 Y78.36 E1.22741
G1 X128.429 Y79.084 E1.24211
G1 X128.486 Y80.043 E1.26128
G1 X128.476 Y80.905 E1.27848
G1 X128.484 Y83.525 E1.33077
G1 X128.63 Y87.417 E1.40849
G1 X128.66 Y88.165 E1.42343
G1 X128.656 Y89.316 E1.4464
G1 X128.594 Y92.274 E1.50544
G1 X128.576 Y94.933 E1.55851
G1 X128.631 Y97.518 E1.61011
G1 X128.765 Y100.206 E1.66382
G1 X128.966 Y102.782 E1.71538
G1 X129.248 Y105.43 E1.76852
G1 X129.604 Y108.062 E1.82152
G1 X130.028 Y110.644 E1.87374
G1 X130.529 Y113.235 E1.9264
G1 X131.097 Y115.789 E1.97862
G1 X131.583 Y117.735 E2.01865
G1 X131.612 Y117.86 E2.02121
G1 X131.74 Y118.586 E2.03592
G1 X131.788 Y119.322 E2.05064
G1 X131.756 Y120.059 E2.06536
G1 X131.644 Y120.788 E2.08008
G1 X131.455 Y121.5 E2.09478
G1 X131.189 Y122.188 E2.1095
G1 X130.85 Y122.843 E2.12422
G1 X130.443 Y123.457 E2.13892
G1 X129.89 Y124.11 E2.15599
G1 X129.241 Y124.783 E2.17465
G1 X124.381 Y129.684 E2.31239
G1 X123.87 Y130.185 E2.32667
G1 X123.316 Y130.671 E2.34138
G1 X122.713 Y131.096 E2.3561
G1 X122.067 Y131.452 E2.37082
G1 X121.387 Y131.736 E2.38553
G1 X120.68 Y131.945 E2.40024
G1 X119.954 Y132.076 E2.41496
G1 X118.907 Y132.207 E2.43602
G1 X116.257 Y132.578 E2.48942
G1 X113.666 Y133.015 E2.54185
G1 X111.093 Y133.525 E2.5942
G1 X108.509 Y134.112 E2.64708
G1 X105.972 Y134.764 E2.69935
G1 X104.558 Y135.176 E2.72874
G1 X103.333 Y135.519 E2.75413
G1 X102.798 Y135.653 E2.76514
G1 X102.085 Y135.809 E2.7797
G1 X101.926 Y135.842 E2.78294
G1 X101.245 Y135.974 E2.79679
G1 X100.515 Y136.075 E2.81149
G1 X99.778 Y136.096 E2.82621
G1 X98.796 Y135.999 E2.8459
G1 X98.107 Y135.868 E2.85989
G1 X97.578 Y135.755 E2.87069
G1 X96.896 Y135.599 E2.88465
G1 X96.537 Y135.506 E2.89205
G1 X95.691 Y135.263 E2.90962
G1 X94.506 Y134.905 E2.93432
G1 X91.986 Y134.219 E2.98644
G1 X89.383 Y133.59 E3.03988
G1 X86.845 Y133.05 E3.09166
G1 X84.243 Y132.574 E3.14445
G1 X81.625 Y132.172 E3.19731
G1 X80.895 Y132.079 E3.21199
G1 X79.995 Y131.952 E3.23013
G1 X79.271 Y131.81 E3.24486
G1 X78.568 Y131.59 E3.25956
G1 X77.892 Y131.295 E3.27427
G1 X77.252 Y130.929 E3.28899
G1 X76.656 Y130.495 E3.3037
G1 X76.232 Y130.121 E3.31498
G1 X75.537 Y129.451 E3.33425
G1 X70.64 Y124.594 E3.47189
G1 X70.154 Y124.098 E3.48575
G1 X69.667 Y123.544 E3.50047
G1 X69.243 Y122.941 E3.51518
G1 X68.887 Y122.295 E3.5299
G1 X68.603 Y121.615 E3.5446
G1 X68.394 Y120.908 E3.55932
G1 X68.264 Y120.182 E3.57403
G1 X68.212 Y119.447 E3.58874
G1 X68.24 Y118.71 E3.60346
G1 X68.411 Y117.703 E3.62384
G1 X68.541 Y117.18 E3.63459
G1 X69.155 Y114.539 E3.6887
G1 X69.685 Y111.944 E3.74156
G1 X70.133 Y109.349 E3.79411
G1 X70.508 Y106.759 E3.84634
G1 X70.814 Y104.12 E3.89935
G1 X71.044 Y101.497 E3.9519
G1 X71.197 Y98.893 E4.00395
G1 X71.28 Y96.221 E4.0573
G1 X71.293 Y94.64 E4.08885
G1 X71.294 Y88.787 E4.20566
G1 X71.304 Y88.08 E4.21977
G1 X71.309 Y87.884 E4.22368
G1 X71.336 Y87.28 E4.23575
G1 X71.433 Y85.566 E4.27001
G1 X71.506 Y82.958 E4.32207
G1 X71.5 Y80.56 E4.36993
G1 X71.504 Y79.987 E4.38136
G1 X71.549 Y79.251 E4.39608
G1 X71.674 Y78.524 E4.4108
G1 X71.876 Y77.815 E4.42551
G1 X72.154 Y77.132 E4.44022
G1 X72.505 Y76.483 E4.45495
G1 X72.923 Y75.876 E4.46966
G1 X73.438 Y75.284 E4.48532
G1 X73.816 Y74.901 E4.49605
G0 F3600 X74.094 Y75.188
G1 F1500 X74.803 Y74.502 E4.51574
G1 X75.328 Y74.007 E4.53014
G1 X75.875 Y73.547 E4.5444
G1 X76.47 Y73.15 E4.55868
G1 X77.105 Y72.822 E4.57294
G1 X77.986 Y72.503 E4.59164
G1 X78.712 Y72.299 E4.60669
G1 X81.28 Y71.536 E4.66015
G1 X83.835 Y70.699 E4.7138
G1 X86.284 Y69.817 E4.76575
G1 X88.759 Y68.847 E4.8188
G1 X91.209 Y67.806 E4.87192
G1 X93.585 Y66.715 E4.9241
G1 X96.022 Y65.514 E4.97832
G1 X96.864 Y65.075 E4.99726
G1 X97.105 Y64.955 E5.00264
G1 X97.764 Y64.677 E5.01691
G1 X98.45 Y64.473 E5.03119
G1 X99.154 Y64.348 E5.04546
G1 X99.868 Y64.302 E5.05974
G1 X100.582 Y64.336 E5.07401
G1 X101.288 Y64.45 E5.08828
G1 X101.977 Y64.641 E5.10254
G1 X102.841 Y65.007 E5.12127
G1 X103.266 Y65.225 E5.1308
G1 X105.695 Y66.43 E5.18491
G1 X108.083 Y67.528 E5.23736
G1 X110.522 Y68.569 E5.29028
G1 X113.003 Y69.545 E5.34349
G1 X115.474 Y70.437 E5.39591
G1 X117.977 Y71.263 E5.44851
G1 X121.502 Y72.296 E5.52182
G1 X121.996 Y72.432 E5.53204
G1 X122.674 Y72.66 E5.54632
G1 X123.322 Y72.962 E5.56058
G1 X123.933 Y73.334 E5.57486
G1 X124.64 Y73.899 E5.59292
G1 X125.015 Y74.25 E5.60317
G1 X125.717 Y74.939 E5.6228
G1 X126.233 Y75.46 E5.63743
G1 X126.707 Y75.996 E5.65171
G1 X127.119 Y76.581 E5.66599
G1 X127.462 Y77.208 E5.68025
G1 X127.734 Y77.87 E5.69454
G1 X127.93 Y78.558 E5.70881
G1 X128.048 Y79.264 E5.7231
G1 X128.086 Y80.038 E5.73856
G1 X128.076 Y80.9 E5.75577
G1 X128.084 Y83.512 E5.80789
G1 X128.233 Y87.505 E5.88763
G1 X128.26 Y88.164 E5.90079
G1 X128.256 Y89.308 E5.92362
G1 X128.194 Y92.266 E5.98267
G1 X128.177 Y94.903 E6.03529
G1 X128.234 Y97.582 E6.08877
G1 X128.363 Y100.186 E6.1408
G1 X128.571 Y102.854 E6.1942
G1 X128.852 Y105.489 E6.24708
G1 X129.202 Y108.079 E6.29924
G1 X129.634 Y110.714 E6.35252
G1 X130.139 Y113.326 E6.40561
G1 X130.711 Y115.894 E6.45812
G1 X131.168 Y117.719 E6.49566
G1 X131.222 Y117.951 E6.50042
G1 X131.345 Y118.655 E6.51468
G1 X131.388 Y119.369 E6.52895
G1 X131.351 Y120.084 E6.54324
G1 X131.235 Y120.789 E6.5575
G1 X131.04 Y121.478 E6.57179
G1 X130.77 Y122.14 E6.58606
G1 X130.428 Y122.768 E6.60033
G1 X130.018 Y123.354 E6.6146
G1 X129.601 Y123.833 E6.62727
G1 X128.957 Y124.502 E6.6458
G1 X124.101 Y129.398 E6.78342
G1 X123.59 Y129.899 E6.7977
G1 X123.052 Y130.37 E6.81197
G1 X122.464 Y130.779 E6.82626
G1 X121.835 Y131.119 E6.84053
G1 X121.172 Y131.387 E6.8548
G1 X120.483 Y131.58 E6.86908
G1 X119.904 Y131.679 E6.8808
G1 X118.877 Y131.808 E6.90146
G1 X116.207 Y132.181 E6.95526
G1 X113.587 Y132.623 E7.00828
G1 X111.006 Y133.134 E7.06079
G1 X108.427 Y133.721 E7.11357
G1 X105.85 Y134.383 E7.16667
G1 X104.451 Y134.791 E7.19575
G1 X103.226 Y135.134 E7.22113
G1 X102.713 Y135.262 E7.23169
G1 X102 Y135.418 E7.24625
G1 X101.85 Y135.449 E7.24931
G1 X101.169 Y135.581 E7.26315
G1 X100.46 Y135.678 E7.27743
G1 X99.745 Y135.695 E7.2917
G1 X98.864 Y135.605 E7.30938
G1 X98.186 Y135.475 E7.32315
G1 X97.667 Y135.365 E7.33374
G1 X96.985 Y135.209 E7.3477
G1 X96.647 Y135.122 E7.35467
G1 X95.807 Y134.88 E7.37211
G1 X94.621 Y134.522 E7.39684
G1 X92.08 Y133.83 E7.44939
G1 X89.489 Y133.204 E7.50258
G1 X86.928 Y132.659 E7.55484
G1 X84.304 Y132.179 E7.60807
G1 X81.664 Y131.773 E7.66137
G1 X80.951 Y131.683 E7.67571
G1 X80.051 Y131.556 E7.69385
G1 X79.349 Y131.417 E7.70813
G1 X78.668 Y131.2 E7.7224
G1 X78.014 Y130.909 E7.73668
G1 X77.398 Y130.546 E7.75095
G1 X76.826 Y130.117 E7.76522
G1 X76.51 Y129.833 E7.7737
G1 X75.818 Y129.167 E7.79286
G1 X70.926 Y124.314 E7.93038
G1 X70.44 Y123.818 E7.94424
G1 X69.968 Y123.28 E7.95852
G1 X69.56 Y122.693 E7.97278
G1 X69.22 Y122.064 E7.98705
G1 X68.952 Y121.4 E8.00134
G1 X68.76 Y120.711 E8.01562
G1 X68.646 Y120.005 E8.02989
G1 X68.611 Y119.291 E8.04415
G1 X68.657 Y118.577 E8.05843
G1 X68.799 Y117.799 E8.07421
G1 X68.947 Y117.202 E8.08649
G1 X69.543 Y114.638 E8.13902
G1 X70.083 Y111.994 E8.19287
G1 X70.525 Y109.438 E8.24464
G1 X70.908 Y106.791 E8.29801
G1 X71.208 Y104.2 E8.35006
G1 X71.443 Y101.522 E8.40371
G1 X71.598 Y98.893 E8.45627
G1 X71.68 Y96.236 E8.50932
G1 X71.693 Y94.643 E8.54111
G1 X71.694 Y88.792 E8.65787
G1 X71.704 Y88.085 E8.67198
G1 X71.709 Y87.901 E8.67565
G1 X71.735 Y87.303 E8.6876
G1 X71.831 Y85.601 E8.72162
G1 X71.906 Y82.936 E8.77482
G1 X71.9 Y80.562 E8.8222
G1 X71.904 Y79.989 E8.83363
G1 X71.949 Y79.275 E8.84791
G1 X72.073 Y78.571 E8.86218
G1 X72.276 Y77.885 E8.87645
G1 X72.553 Y77.226 E8.89072
G1 X72.902 Y76.602 E8.90499
G1 X73.319 Y76.02 E8.91927
G1 X73.724 Y75.564 E8.93144
G1 X74.094 Y75.188 E8.94197
G0 F3600 X74.373 Y75.475
G1 F1500 X75.077 Y74.793 E8.96153
G1 X75.602 Y74.298 E8.97593
G1 X76.132 Y73.853 E8.98974
G1 X76.711 Y73.472 E9.00357
G1 X77.329 Y73.16 E9.01739
G1 X78.094 Y72.888 E9.03359
G1 X78.809 Y72.687 E9.04841
G1 X81.414 Y71.913 E9.10265
G1 X83.948 Y71.083 E9.15586
G1 X86.448 Y70.182 E9.20889
G1 X88.894 Y69.224 E9.26131
G1 X91.396 Y68.161 E9.31556
G1 X93.749 Y67.08 E9.36724
G1 X96.205 Y65.87 E9.42187
G1 X97.181 Y65.363 E9.44382
G1 X97.281 Y65.314 E9.44604
G1 X97.919 Y65.046 E9.45985
G1 X98.584 Y64.853 E9.47367
G1 X99.267 Y64.738 E9.48749
G1 X99.959 Y64.702 E9.50132
G1 X100.65 Y64.746 E9.51514
G1 X101.331 Y64.87 E9.52895
G1 X101.994 Y65.072 E9.54279
G1 X102.658 Y65.363 E9.55725
G1 X103.114 Y65.597 E9.56748
G1 X105.488 Y66.774 E9.62036
G1 X107.938 Y67.901 E9.67418
G1 X110.386 Y68.945 E9.72729
G1 X112.838 Y69.91 E9.77987
G1 X115.35 Y70.818 E9.83318
G1 X117.857 Y71.645 E9.88586
G1 X121.355 Y72.67 E9.9586
G1 X121.89 Y72.817 E9.96967
G1 X122.546 Y73.039 E9.98349
G1 X123.172 Y73.335 E9.99731
G1 X123.76 Y73.701 E10.01113
G1 X124.369 Y74.193 E10.02676
G1 X124.735 Y74.535 E10.03675
G1 X125.433 Y75.221 E10.05628
G1 X125.949 Y75.742 E10.07092
G1 X126.407 Y76.261 E10.08473
G1 X126.802 Y76.83 E10.09855
G1 X127.129 Y77.44 E10.11236
G1 X127.384 Y78.084 E10.12619
G1 X127.563 Y78.753 E10.14001
G1 X127.663 Y79.439 E10.15384
G1 X127.686 Y80.034 E10.16572
G1 X127.676 Y80.896 E10.18293
G1 X127.684 Y83.528 E10.23545
G1 X127.832 Y87.493 E10.31463
G1 X127.86 Y88.162 E10.328
G1 X127.856 Y89.3 E10.35071
G1 X127.794 Y92.258 E10.40975
G1 X127.777 Y94.909 E10.46265
G1 X127.833 Y97.575 E10.51587
G1 X127.965 Y100.236 E10.56904
G1 X128.172 Y102.891 E10.62218
G1 X128.452 Y105.518 E10.6749
G1 X128.809 Y108.155 E10.72801
G1 X129.241 Y110.789 E10.78127
G1 X129.748 Y113.41 E10.83455
G1 X130.318 Y115.971 E10.88691
G1 X130.804 Y117.916 E10.92691
G1 X130.833 Y118.041 E10.92947
G1 X130.95 Y118.724 E10.9433
G1 X130.988 Y119.415 E10.95711
G1 X130.946 Y120.106 E10.97093
G1 X130.825 Y120.788 E10.98475
G1 X130.625 Y121.451 E10.99857
G1 X130.351 Y122.087 E11.01239
G1 X130.005 Y122.687 E11.02621
G1 X129.593 Y123.244 E11.04004
G1 X129.313 Y123.556 E11.0484
G1 X128.673 Y124.22 E11.06681
G1 X123.821 Y129.112 E11.20431
G1 X123.31 Y129.613 E11.21859
G1 X122.788 Y130.069 E11.23242
G1 X122.217 Y130.461 E11.24624
G1 X121.605 Y130.785 E11.26006
G1 X120.96 Y131.036 E11.27387
G1 X120.29 Y131.212 E11.2877
G1 X119.855 Y131.282 E11.29649
G1 X118.83 Y131.41 E11.3171
G1 X116.156 Y131.784 E11.37099
G1 X113.514 Y132.23 E11.42446
G1 X110.911 Y132.746 E11.47741
G1 X108.31 Y133.337 E11.53064
G1 X105.765 Y133.992 E11.58308
G1 X104.343 Y134.406 E11.61264
G1 X103.118 Y134.749 E11.63803
G1 X102.627 Y134.871 E11.64812
G1 X101.774 Y135.056 E11.66554
G1 X101.093 Y135.188 E11.67938
G1 X100.406 Y135.281 E11.69322
G1 X99.714 Y135.293 E11.70703
G1 X98.932 Y135.211 E11.72272
G1 X98.265 Y135.083 E11.73628
G1 X97.756 Y134.975 E11.74666
G1 X97.074 Y134.819 E11.76062
G1 X96.758 Y134.737 E11.76714
G1 X95.923 Y134.497 E11.78447
G1 X94.737 Y134.139 E11.8092
G1 X92.173 Y133.441 E11.86223
G1 X89.594 Y132.817 E11.91518
G1 X86.978 Y132.261 E11.96855
G1 X84.365 Y131.784 E12.02156
G1 X81.739 Y131.379 E12.07458
G1 X81.007 Y131.287 E12.0893
G1 X80.107 Y131.16 E12.10744
G1 X79.428 Y131.024 E12.12126
G1 X78.769 Y130.81 E12.13509
G1 X78.139 Y130.522 E12.14891
G1 X77.547 Y130.164 E12.16272
G1 X76.787 Y129.545 E12.18228
G1 X76.1 Y128.883 E12.20132
G1 X71.211 Y124.034 E12.33873
G1 X70.725 Y123.538 E12.35259
G1 X70.27 Y123.016 E12.36641
G1 X69.878 Y122.446 E12.38021
G1 X69.554 Y121.833 E12.39405
G1 X69.303 Y121.188 E12.40786
G1 X69.128 Y120.518 E12.42168
G1 X69.031 Y119.832 E12.43551
G1 X69.014 Y119.14 E12.44932
G1 X69.077 Y118.45 E12.46315
G1 X69.187 Y117.895 E12.47444
G1 X69.335 Y117.298 E12.48671
G1 X69.939 Y114.703 E12.53989
G1 X70.475 Y112.071 E12.59349
G1 X70.921 Y109.492 E12.64572
G1 X71.302 Y106.862 E12.69875
G1 X71.61 Y104.209 E12.75205
G1 X71.84 Y101.579 E12.80473
G1 X71.998 Y98.894 E12.85841
G1 X72.079 Y96.252 E12.91116
G1 X72.093 Y94.646 E12.94321
G1 X72.094 Y88.798 E13.05991
G1 X72.104 Y88.091 E13.07402
G1 X72.109 Y87.918 E13.07748
G1 X72.135 Y87.325 E13.08932
G1 X72.231 Y85.634 E13.12312
G1 X72.306 Y82.946 E13.17678
G1 X72.3 Y80.565 E13.2243
G1 X72.304 Y79.992 E13.23574
G1 X72.349 Y79.301 E13.24955
G1 X72.473 Y78.62 E13.26337
G1 X72.675 Y77.957 E13.2772
G1 X72.952 Y77.322 E13.29102
G1 X73.3 Y76.724 E13.30483
G1 X73.715 Y76.169 E13.31866
G1 X74.254 Y75.593 E13.3344
G1 X74.373 Y75.475 E13.33775
G0 F3600 X74.651 Y75.762
G1 F1500 X75.351 Y75.084 E13.3572
G1 X75.876 Y74.589 E13.3716
G1 X76.39 Y74.16 E13.38496
G1 X76.95 Y73.796 E13.39828
G1 X77.551 Y73.5 E13.41165
G1 X78.203 Y73.273 E13.42543
G1 X78.946 Y73.064 E13.44083
G1 X81.505 Y72.304 E13.49411
G1 X84.082 Y71.46 E13.54822
G1 X86.582 Y70.559 E13.60125
G1 X89.091 Y69.576 E13.65503
G1 X91.512 Y68.548 E13.70752
G1 X93.944 Y67.43 E13.76093
G1 X96.37 Y66.235 E13.8149
G1 X97.357 Y65.722 E13.8371
G1 X97.457 Y65.673 E13.83932
G1 X98.074 Y65.415 E13.85267
G1 X98.718 Y65.233 E13.86602
G1 X99.379 Y65.128 E13.87938
G1 X100.047 Y65.103 E13.89272
G1 X100.714 Y65.158 E13.90607
G1 X101.369 Y65.293 E13.91942
G1 X102.004 Y65.504 E13.93277
G1 X102.476 Y65.719 E13.94312
G1 X102.904 Y65.938 E13.95272
G1 X105.35 Y67.151 E14.0072
G1 X107.763 Y68.262 E14.06022
G1 X110.231 Y69.314 E14.11376
G1 X112.692 Y70.283 E14.16654
G1 X115.236 Y71.202 E14.22052
G1 X117.736 Y72.026 E14.27305
G1 X121.246 Y73.055 E14.34604
G1 X121.784 Y73.203 E14.35718
G1 X122.417 Y73.419 E14.37052
G1 X123.02 Y73.708 E14.38387
G1 X123.585 Y74.067 E14.39723
G1 X124.098 Y74.487 E14.41046
G1 X124.455 Y74.821 E14.42021
G1 X125.149 Y75.502 E14.43962
G1 X125.665 Y76.023 E14.45425
G1 X126.106 Y76.526 E14.4676
G1 X126.485 Y77.078 E14.48096
G1 X126.795 Y77.671 E14.49432
G1 X127.032 Y78.296 E14.50766
G1 X127.193 Y78.946 E14.52102
G1 X127.275 Y79.61 E14.53437
G1 X127.286 Y80.029 E14.54273
G1 X127.276 Y80.891 E14.55994
G1 X127.284 Y83.545 E14.6129
G1 X127.431 Y87.481 E14.6915
G1 X127.46 Y88.161 E14.70509
G1 X127.456 Y89.291 E14.72764
G1 X127.394 Y92.249 E14.78668
G1 X127.377 Y94.915 E14.83988
G1 X127.434 Y97.604 E14.89356
G1 X127.565 Y100.252 E14.94647
G1 X127.774 Y102.932 E15.00011
G1 X128.052 Y105.543 E15.05251
G1 X128.417 Y108.237 E15.10676
G1 X128.847 Y110.858 E15.15977
G1 X129.351 Y113.467 E15.2128
G1 X129.933 Y116.076 E15.26614
G1 X130.414 Y118.006 E15.30583
G1 X130.443 Y118.131 E15.30839
G1 X130.555 Y118.791 E15.32175
