;FLAVOR:Marlin
;TIME:3996
;Filament used: 2.45183m
;Layer height: 0.12
;MINX:79.482
;MINY:76.215
;MINZ:0.12
;MAXX:120.521
;MAXY:124.886
;MAXZ:49.32
;Generated with Cura_SteamEngine 4.13.1
M82 ;absolute extrusion mode
G21 ; set units to millimeters
M140 S60.0 ; set bed temp
G28 ; Home extruder
G1 Z15 ; Levanta Extrusora
G90 ; use absolute positioning
M82 ; absolute extrusion mode
;M140 S60.0 ; set bed temp
M190 S60.0 ; wait for bed temp
M104 S210.0 ; set extruder temp
G29; Perform Automatic Bed Leveling
M109 S210.0 ; wait for extruder temp
G92 E0.0 ; reset extruder distance position
G92 E0
G92 E0
G1 F1500 E-0.3
;LAYER_COUNT:412
;LAYER:0
M107
G0 F3600 X83.151 Y84.86 Z0.12
;TYPE:SKIRT
G1 F1500 E0
G1 X83.677 Y84.344 E0.0147
G1 X84.257 Y83.888 E0.02943
G1 X84.882 Y83.497 E0.04414
G1 X85.546 Y83.176 E0.05886
G1 X86.24 Y82.929 E0.07356
G1 X86.889 Y82.771 E0.08689
G1 X88.106 Y82.539 E0.11161
G1 X89.84 Y82.189 E0.14691
G1 X90.189 Y82.117 E0.15403
G1 X90.918 Y82.008 E0.16874
G1 X91.655 Y81.978 E0.18345
G1 X92.071 Y81.996 E0.19176
G1 X92.973 Y82.064 E0.20982
G1 X95.625 Y82.225 E0.26284
G1 X98.242 Y82.31 E0.31509
G1 X100.899 Y82.322 E0.36811
G1 X103.508 Y82.259 E0.42019
G1 X106.818 Y82.076 E0.48635
G1 X107.943 Y81.994 E0.50886
G1 X108.68 Y81.98 E0.52357
G1 X109.414 Y82.047 E0.53828
G1 X110.078 Y82.173 E0.55177
G1 X111.944 Y82.533 E0.58969
G1 X113.198 Y82.787 E0.61522
G1 X113.912 Y82.973 E0.62995
G1 X114.601 Y83.234 E0.64465
G1 X115.258 Y83.569 E0.65937
G1 X115.875 Y83.973 E0.67409
G1 X116.381 Y84.383 E0.68708
G1 X116.485 Y84.476 E0.68987
G1 X117.007 Y84.997 E0.70458
G1 X117.56 Y85.7 E0.72243
G1 X118.548 Y87.141 E0.7573
G1 X118.626 Y87.269 E0.76029
G1 X119.374 Y88.383 E0.78707
G1 X119.752 Y89.017 E0.8018
G1 X120.058 Y89.687 E0.8165
G1 X120.29 Y90.387 E0.83122
G1 X120.445 Y91.108 E0.84593
G1 X120.521 Y91.842 E0.86066
G1 X120.517 Y92.579 E0.87537
G1 X120.453 Y93.188 E0.88759
G1 X120.337 Y93.849 E0.90098
G1 X120.168 Y94.606 E0.91646
G1 X119.142 Y98.948 E1.00549
G1 X118.974 Y99.613 E1.01918
G1 X118.755 Y100.317 E1.03389
G1 X118.461 Y100.993 E1.0486
G1 X118.05 Y101.702 E1.06496
G1 X117.316 Y102.81 E1.09148
G1 X115.868 Y105.063 E1.14493
G1 X114.5 Y107.33 E1.19777
G1 X113.191 Y109.641 E1.25077
G1 X111.959 Y111.969 E1.30333
G1 X110.799 Y114.32 E1.35565
G1 X109.874 Y116.327 E1.39975
G1 X109.668 Y116.785 E1.40977
G1 X109.406 Y117.306 E1.42141
G1 X109.157 Y117.747 E1.43152
G1 X107.554 Y120.448 E1.4942
G1 X107.011 Y121.38 E1.51572
G1 X106.493 Y122.144 E1.53414
G1 X106.4 Y122.263 E1.53716
G1 X105.915 Y122.819 E1.55188
G1 X105.373 Y123.318 E1.56658
G1 X104.78 Y123.757 E1.58131
G1 X104.143 Y124.128 E1.59602
G1 X103.469 Y124.428 E1.61074
G1 X102.768 Y124.653 E1.62543
G1 X102.045 Y124.802 E1.64016
G1 X101.325 Y124.87 E1.6546
G1 X101.024 Y124.88 E1.66061
G1 X100.413 Y124.886 E1.6728
G1 X99.521 Y124.884 E1.6906
G1 X98.879 Y124.875 E1.70341
G1 X98.143 Y124.825 E1.71813
G1 X97.417 Y124.695 E1.73285
G1 X96.71 Y124.488 E1.74755
G1 X96.029 Y124.205 E1.76227
G1 X95.58 Y123.969 E1.77239
G1 X94.958 Y123.573 E1.78711
G1 X94.383 Y123.111 E1.80183
G1 X93.861 Y122.59 E1.81655
G1 X93.399 Y122.016 E1.83125
G1 X93.05 Y121.48 E1.84401
G1 X92.542 Y120.612 E1.86409
G1 X90.967 Y117.957 E1.92569
G1 X90.629 Y117.368 E1.93924
G1 X90.36 Y116.847 E1.95094
G1 X90.038 Y116.154 E1.96619
G1 X89.481 Y114.916 E1.99328
G1 X88.351 Y112.58 E2.04507
G1 X87.135 Y110.234 E2.0978
G1 X85.836 Y107.896 E2.15118
G1 X84.51 Y105.661 E2.20304
G1 X83.084 Y103.404 E2.25631
G1 X82.047 Y101.854 E2.29353
G1 X81.864 Y101.569 E2.30029
G1 X81.506 Y100.925 E2.31499
G1 X81.219 Y100.246 E2.3297
G1 X81.046 Y99.692 E2.34129
G1 X80.912 Y99.178 E2.35189
G1 X79.809 Y94.511 E2.44759
G1 X79.681 Y93.936 E2.45934
G1 X79.556 Y93.224 E2.47377
G1 X79.482 Y92.491 E2.48847
G1 X79.487 Y91.754 E2.50318
G1 X79.572 Y91.021 E2.51791
G1 X79.736 Y90.302 E2.53262
G1 X79.977 Y89.605 E2.54734
G1 X80.291 Y88.939 E2.56203
G1 X80.639 Y88.365 E2.57543
G1 X82.318 Y85.879 E2.63529
G1 X82.936 Y85.095 E2.65522
G1 X83.151 Y84.86 E2.66157
G0 F3600 X83.446 Y85.13
G1 F1500 X83.958 Y84.63 E2.67585
G1 X84.522 Y84.19 E2.69013
G1 X85.131 Y83.816 E2.70439
G1 X85.779 Y83.513 E2.71867
G1 X86.456 Y83.283 E2.73294
G1 X86.965 Y83.164 E2.74337
G1 X88.182 Y82.931 E2.7681
G1 X89.921 Y82.581 E2.80349
G1 X90.27 Y82.509 E2.81061
G1 X90.977 Y82.404 E2.82487
G1 X92.041 Y82.395 E2.8461
G1 X92.921 Y82.461 E2.86371
G1 X95.586 Y82.623 E2.917
G1 X98.263 Y82.71 E2.97045
G1 X100.906 Y82.722 E3.02319
G1 X103.54 Y82.658 E3.07577
G1 X106.811 Y82.477 E3.14115
G1 X107.972 Y82.393 E3.16438
G1 X108.687 Y82.381 E3.17865
G1 X109.399 Y82.449 E3.19292
G1 X109.977 Y82.56 E3.20467
G1 X111.865 Y82.925 E3.24304
G1 X113.119 Y83.179 E3.26857
G1 X113.811 Y83.36 E3.28285
G1 X114.478 Y83.617 E3.29711
G1 X115.113 Y83.947 E3.31139
G1 X115.707 Y84.346 E3.32567
G1 X116.114 Y84.681 E3.33619
G1 X116.218 Y84.774 E3.33898
G1 X116.724 Y85.28 E3.35326
G1 X117.23 Y85.926 E3.36963
G1 X118.218 Y87.367 E3.4045
G1 X118.292 Y87.489 E3.40735
G1 X119.042 Y88.606 E3.4342
G1 X119.407 Y89.222 E3.44849
G1 X119.701 Y89.874 E3.46276
G1 X119.921 Y90.554 E3.47702
G1 X120.063 Y91.255 E3.49129
G1 X120.126 Y91.968 E3.50558
G1 X120.109 Y92.683 E3.51985
G1 X120.027 Y93.327 E3.53281
G1 X119.946 Y93.762 E3.54164
G1 X119.779 Y94.514 E3.55701
G1 X118.754 Y98.85 E3.64592
G1 X118.586 Y99.515 E3.65961
G1 X118.372 Y100.197 E3.67388
G1 X118.084 Y100.852 E3.68816
G1 X117.717 Y101.481 E3.70269
G1 X116.954 Y102.633 E3.73026
G1 X115.516 Y104.87 E3.78333
G1 X114.168 Y107.105 E3.83542
G1 X112.848 Y109.436 E3.88888
G1 X111.605 Y111.784 E3.94189
G1 X110.428 Y114.169 E3.99497
G1 X109.509 Y116.163 E4.03879
G1 X109.303 Y116.621 E4.04881
G1 X109.057 Y117.111 E4.05975
G1 X108.813 Y117.543 E4.06965
G1 X107.208 Y120.247 E4.1324
G1 X106.665 Y121.179 E4.15393
G1 X106.178 Y121.898 E4.17126
G1 X106.085 Y122.017 E4.17427
G1 X105.613 Y122.555 E4.18855
G1 X105.085 Y123.037 E4.20282
G1 X104.506 Y123.457 E4.21709
G1 X103.884 Y123.81 E4.23137
G1 X103.227 Y124.092 E4.24563
G1 X102.542 Y124.298 E4.25991
G1 X101.838 Y124.426 E4.27419
G1 X101.308 Y124.47 E4.2848
G1 X101.019 Y124.48 E4.29057
G1 X100.413 Y124.486 E4.30267
G1 X99.526 Y124.484 E4.32037
G1 X98.884 Y124.475 E4.33318
G1 X98.171 Y124.425 E4.34744
G1 X97.467 Y124.296 E4.36173
G1 X96.783 Y124.089 E4.37599
G1 X95.832 Y123.651 E4.39688
G1 X95.777 Y123.62 E4.39814
G1 X95.174 Y123.235 E4.41242
G1 X94.618 Y122.785 E4.42669
G1 X94.116 Y122.275 E4.44098
G1 X93.674 Y121.713 E4.45524
G1 X93.395 Y121.278 E4.46556
G1 X92.887 Y120.41 E4.48563
G1 X91.314 Y117.757 E4.54718
G1 X90.976 Y117.168 E4.56073
G1 X90.722 Y116.679 E4.57173
G1 X90.403 Y115.99 E4.58688
G1 X89.848 Y114.756 E4.61388
G1 X88.709 Y112.401 E4.66608
G1 X87.474 Y110.02 E4.71961
G1 X86.196 Y107.719 E4.77214
G1 X84.849 Y105.449 E4.82481
G1 X83.433 Y103.207 E4.87773
G1 X82.379 Y101.632 E4.91555
G1 X82.203 Y101.356 E4.92208
G1 X81.856 Y100.731 E4.93635
G1 X81.581 Y100.07 E4.95064
G1 X81.433 Y99.589 E4.96068
G1 X81.302 Y99.086 E4.97105
G1 X80.2 Y94.424 E5.06665
G1 X80.072 Y93.849 E5.07841
G1 X79.951 Y93.162 E5.09233
G1 X79.88 Y92.451 E5.10659
G1 X79.889 Y91.735 E5.12088
G1 X79.977 Y91.026 E5.13513
G1 X80.144 Y90.33 E5.14942
G1 X80.388 Y89.658 E5.16368
G1 X80.705 Y89.017 E5.17795
G1 X80.97 Y88.589 E5.188
G1 X82.649 Y86.103 E5.24787
G1 X83.231 Y85.365 E5.26662
G1 X83.446 Y85.13 E5.27298
G0 F3600 X83.741 Y85.4
G1 F1500 X84.237 Y84.917 E5.28679
G1 X84.786 Y84.494 E5.30063
G1 X85.379 Y84.137 E5.31444
G1 X86.01 Y83.851 E5.32826
G1 X86.67 Y83.64 E5.34209
G1 X87.04 Y83.557 E5.34966
G1 X88.257 Y83.324 E5.37439
G1 X90.351 Y82.901 E5.41702
G1 X91.036 Y82.8 E5.43084
G1 X92.011 Y82.794 E5.45029
G1 X92.865 Y82.858 E5.46738
G1 X95.585 Y83.024 E5.52177
G1 X98.248 Y83.11 E5.57494
G1 X100.914 Y83.122 E5.62814
G1 X103.539 Y83.059 E5.68054
G1 X106.863 Y82.875 E5.74697
G1 X108.001 Y82.792 E5.76975
G1 X108.693 Y82.782 E5.78356
G1 X109.681 Y82.907 E5.80343
G1 X109.875 Y82.948 E5.80739
G1 X111.785 Y83.317 E5.84621
G1 X113.039 Y83.571 E5.87174
G1 X113.709 Y83.748 E5.88557
G1 X114.354 Y84 E5.89939
G1 X114.965 Y84.325 E5.9132
G1 X115.535 Y84.719 E5.92703
G1 X115.952 Y85.072 E5.93793
G1 X116.44 Y85.563 E5.95175
G1 X116.901 Y86.152 E5.96667
G1 X117.889 Y87.593 E6.00154
G1 X117.968 Y87.725 E6.00461
G1 X118.71 Y88.829 E6.03115
G1 X119.062 Y89.426 E6.04498
G1 X119.344 Y90.058 E6.0588
G1 X119.55 Y90.72 E6.07263
G1 X119.679 Y91.4 E6.08644
G1 X119.728 Y92.091 E6.10027
G1 X119.662 Y93.068 E6.11981
G1 X119.556 Y93.676 E6.13213
G1 X119.389 Y94.422 E6.14738
G1 X118.366 Y98.752 E6.23617
G1 X118.198 Y99.417 E6.24986
G1 X117.99 Y100.077 E6.26367
G1 X117.707 Y100.709 E6.27749
G1 X117.383 Y101.26 E6.29024
G1 X116.642 Y102.379 E6.31703
G1 X115.197 Y104.628 E6.37037
G1 X113.811 Y106.923 E6.42388
G1 X112.481 Y109.273 E6.47776
G1 X111.258 Y111.584 E6.52994
G1 X110.079 Y113.973 E6.5831
G1 X109.121 Y116.05 E6.62875
G1 X108.938 Y116.457 E6.63766
G1 X108.707 Y116.916 E6.64791
G1 X108.469 Y117.339 E6.6576
G1 X106.837 Y120.088 E6.72139
G1 X106.319 Y120.977 E6.74193
G1 X105.863 Y121.652 E6.75818
G1 X105.77 Y121.771 E6.7612
G1 X105.312 Y122.291 E6.77503
G1 X104.798 Y122.755 E6.78884
G1 X104.234 Y123.156 E6.80265
G1 X103.627 Y123.49 E6.81648
G1 X102.986 Y123.752 E6.8303
G1 X102.319 Y123.938 E6.84412
G1 X101.292 Y124.071 E6.86478
G1 X101.015 Y124.08 E6.87031
G1 X100.414 Y124.086 E6.88231
G1 X99.532 Y124.084 E6.89991
G1 X98.89 Y124.075 E6.91272
G1 X98.199 Y124.026 E6.92655
G1 X97.519 Y123.897 E6.94036
G1 X96.858 Y123.69 E6.95418
G1 X96.028 Y123.303 E6.97246
G1 X95.973 Y123.272 E6.97372
G1 X95.39 Y122.898 E6.98754
G1 X94.855 Y122.459 E7.00135
G1 X94.373 Y121.961 E7.01518
G1 X93.952 Y121.411 E7.029
G1 X93.741 Y121.076 E7.03691
G1 X93.233 Y120.208 E7.05698
G1 X91.661 Y117.558 E7.11846
G1 X91.323 Y116.969 E7.13202
G1 X91.085 Y116.51 E7.14233
G1 X90.768 Y115.826 E7.15738
G1 X90.215 Y114.597 E7.18427
G1 X89.066 Y112.222 E7.23692
G1 X87.821 Y109.821 E7.2909
G1 X86.547 Y107.527 E7.34326
G1 X85.188 Y105.236 E7.39642
G1 X83.754 Y102.966 E7.45
G1 X82.712 Y101.409 E7.48739
G1 X82.541 Y101.143 E7.4937
G1 X82.207 Y100.537 E7.50751
G1 X81.944 Y99.896 E7.52134
G1 X81.731 Y99.156 E7.5367
G1 X81.691 Y98.994 E7.54003
G1 X80.59 Y94.337 E7.63553
G1 X80.462 Y93.762 E7.64729
G1 X80.346 Y93.1 E7.6607
G1 X80.279 Y92.411 E7.67451
G1 X80.291 Y91.719 E7.68832
G1 X80.383 Y91.032 E7.70216
G1 X80.553 Y90.361 E7.71597
G1 X80.8 Y89.714 E7.72979
G1 X81.302 Y88.813 E7.75037
G1 X82.981 Y86.327 E7.81024
G1 X83.526 Y85.635 E7.82782
G1 X83.741 Y85.4 E7.83417
G0 F3600 X84.036 Y85.67
G1 F1500 X84.517 Y85.204 E7.84754
G1 X85.049 Y84.799 E7.86088
G1 X85.626 Y84.46 E7.87424
G1 X86.239 Y84.193 E7.88758
G1 X87.115 Y83.95 E7.90572
G1 X88.285 Y83.726 E7.92949
G1 X90.083 Y83.364 E7.9661
G1 X90.432 Y83.292 E7.97321
G1 X91.094 Y83.197 E7.98655
G1 X91.981 Y83.193 E8.00425
G1 X92.825 Y83.256 E8.02114
G1 X95.584 Y83.424 E8.0763
G1 X98.234 Y83.51 E8.12922
G1 X100.922 Y83.522 E8.18286
G1 X103.571 Y83.458 E8.23574
G1 X106.856 Y83.276 E8.30139
G1 X108.03 Y83.191 E8.32488
G1 X108.699 Y83.182 E8.33824
G1 X109.598 Y83.298 E8.35632
G1 X109.826 Y83.346 E8.36097
G1 X111.706 Y83.709 E8.39918
G1 X112.96 Y83.963 E8.42472
G1 X113.606 Y84.135 E8.43806
G1 X114.228 Y84.383 E8.45142
G1 X114.815 Y84.703 E8.46476
G1 X115.581 Y85.278 E8.48388
G1 X115.685 Y85.371 E8.48666
G1 X116.156 Y85.846 E8.50001
G1 X116.571 Y86.378 E8.51348
G1 X117.559 Y87.819 E8.54834
G1 X117.633 Y87.942 E8.55121
G1 X118.378 Y89.052 E8.57789
G1 X118.717 Y89.629 E8.59124
G1 X118.985 Y90.242 E8.60459
G1 X119.178 Y90.883 E8.61795
G1 X119.293 Y91.542 E8.6313
G1 X119.329 Y92.21 E8.64465
G1 X119.266 Y93.009 E8.66064
G1 X119.165 Y93.589 E8.67239
G1 X119 Y94.33 E8.68754
G1 X117.978 Y98.654 E8.77621
G1 X117.81 Y99.319 E8.7899
G1 X117.608 Y99.956 E8.80323
G1 X117.331 Y100.565 E8.81659
G1 X117.05 Y101.039 E8.82758
G1 X116.329 Y102.127 E8.85363
G1 X114.835 Y104.452 E8.90878
G1 X113.463 Y106.725 E8.96176
G1 X112.152 Y109.041 E9.01487
G1 X110.889 Y111.427 E9.06875
G1 X109.722 Y113.791 E9.12136
G1 X108.758 Y115.882 E9.16731
G1 X108.358 Y116.722 E9.18587
G1 X108.125 Y117.135 E9.19534
G1 X106.517 Y119.844 E9.2582
G1 X105.974 Y120.776 E9.27973
G1 X105.547 Y121.405 E9.2949
G1 X105.454 Y121.524 E9.29792
G1 X105.012 Y122.026 E9.31126
G1 X104.512 Y122.471 E9.32462
G1 X103.963 Y122.854 E9.33798
G1 X103.373 Y123.168 E9.35132
G1 X102.749 Y123.41 E9.36467
G1 X102.101 Y123.575 E9.37802
G1 X101.275 Y123.671 E9.39461
G1 X101.01 Y123.68 E9.3999
G1 X100.414 Y123.686 E9.4118
G1 X99.538 Y123.684 E9.42928
G1 X98.896 Y123.675 E9.44209
G1 X98.228 Y123.626 E9.45546
G1 X97.572 Y123.498 E9.4688
G1 X96.935 Y123.292 E9.48216
G1 X96.224 Y122.954 E9.49787
G1 X96.169 Y122.923 E9.49913
G1 X95.607 Y122.561 E9.51247
G1 X95.092 Y122.134 E9.52582
G1 X94.632 Y121.648 E9.53917
G1 X94.086 Y120.874 E9.55808
G1 X93.578 Y120.006 E9.57815
G1 X92.008 Y117.359 E9.63956
G1 X91.67 Y116.77 E9.65311
G1 X91.448 Y116.342 E9.66274
G1 X91.133 Y115.662 E9.67769
G1 X90.576 Y114.424 E9.70478
G1 X89.417 Y112.027 E9.75792
G1 X88.197 Y109.675 E9.81079
G1 X86.882 Y107.308 E9.86483
G1 X85.537 Y105.041 E9.91743
G1 X84.091 Y102.752 E9.97146
G1 X83.044 Y101.187 E10.00904
G1 X82.88 Y100.93 E10.01512
G1 X82.558 Y100.343 E10.02848
G1 X82.308 Y99.723 E10.04182
G1 X82.118 Y99.053 E10.05572
G1 X82.08 Y98.902 E10.05883
G1 X80.981 Y94.25 E10.15422
G1 X80.853 Y93.675 E10.16597
G1 X80.742 Y93.038 E10.17888
G1 X80.678 Y92.372 E10.19223
G1 X80.694 Y91.704 E10.20556
G1 X80.789 Y91.041 E10.21893
G1 X80.963 Y90.395 E10.23228
G1 X81.213 Y89.775 E10.24562
G1 X81.633 Y89.037 E10.26257
G1 X83.312 Y86.551 E10.32243
G1 X83.821 Y85.905 E10.33885
G1 X84.036 Y85.67 E10.3452
G0 F3600 X84.331 Y85.94
G1 F1500 X84.795 Y85.492 E10.35807
G1 X85.311 Y85.105 E10.37095
G1 X85.87 Y84.785 E10.3838
G1 X86.465 Y84.537 E10.39666
G1 X87.19 Y84.343 E10.41164
G1 X88.359 Y84.119 E10.43539
G1 X90.163 Y83.756 E10.47212
G1 X90.512 Y83.684 E10.47923
G1 X91.151 Y83.593 E10.49211
G1 X91.951 Y83.592 E10.50807
G1 X92.828 Y83.658 E10.52562
G1 X95.545 Y83.823 E10.57994
G1 X98.219 Y83.91 E10.63334
G1 X100.93 Y83.922 E10.68744
G1 X103.57 Y83.858 E10.74014
G1 X106.908 Y83.674 E10.80685
G1 X108.059 Y83.59 E10.82988
G1 X108.703 Y83.583 E10.84273
G1 X109.515 Y83.689 E10.85908
G1 X109.714 Y83.731 E10.86313
G1 X111.626 Y84.101 E10.902
G1 X112.88 Y84.355 E10.92753
G1 X113.503 Y84.522 E10.9404
G1 X114.1 Y84.765 E10.95327
G1 X114.663 Y85.08 E10.96614
G1 X115.314 Y85.576 E10.98247
G1 X115.418 Y85.669 E10.98526
G1 X115.871 Y86.127 E10.99811
G1 X116.241 Y86.604 E11.01016
G1 X117.229 Y88.045 E11.04503
G1 X117.301 Y88.165 E11.04782
G1 X118.046 Y89.275 E11.0745
G1 X118.372 Y89.832 E11.08738
G1 X118.626 Y90.424 E11.10023
G1 X118.805 Y91.044 E11.11311
G1 X118.906 Y91.68 E11.12596
G1 X118.927 Y92.325 E11.13884
G1 X118.871 Y92.949 E11.15134
G1 X118.775 Y93.502 E11.16254
G1 X118.611 Y94.238 E11.17759
G1 X117.591 Y98.556 E11.26613
G1 X117.423 Y99.221 E11.27982
G1 X117.226 Y99.835 E11.29269
G1 X116.955 Y100.42 E11.30555
G1 X116.716 Y100.818 E11.31482
G1 X115.953 Y101.97 E11.34239
G1 X114.515 Y104.208 E11.39548
G1 X113.106 Y106.542 E11.44989
G1 X111.801 Y108.848 E11.50276
G1 X110.549 Y111.214 E11.55618
G1 X109.343 Y113.657 E11.61055
G1 X108.394 Y115.715 E11.65578
G1 X108.009 Y116.527 E11.67371
G1 X107.781 Y116.931 E11.68297
G1 X106.149 Y119.68 E11.74677
G1 X105.628 Y120.575 E11.76743
G1 X105.232 Y121.159 E11.78152
G1 X105.139 Y121.278 E11.78453
G1 X104.712 Y121.76 E11.79738
G1 X104.227 Y122.186 E11.81026
G1 X103.694 Y122.549 E11.82313
G1 X103.121 Y122.843 E11.83598
G1 X102.515 Y123.063 E11.84885
G1 X101.886 Y123.207 E11.86173
G1 X101.258 Y123.271 E11.87432
G1 X101.005 Y123.28 E11.87938
G1 X100.415 Y123.286 E11.89115
G1 X99.543 Y123.284 E11.90855
G1 X98.901 Y123.275 E11.92136
G1 X98.258 Y123.227 E11.93423
G1 X97.626 Y123.098 E11.9471
G1 X97.015 Y122.893 E11.95997
G1 X96.421 Y122.606 E11.97313
G1 X96.366 Y122.575 E11.97439
G1 X95.825 Y122.224 E11.98726
G1 X95.331 Y121.809 E12.00014
G1 X94.893 Y121.336 E12.013
G1 X94.431 Y120.672 E12.02914
G1 X93.923 Y119.804 E12.04921
G1 X92.355 Y117.16 E12.11056
G1 X92.017 Y116.571 E12.12411
