;FLAVOR:Marlin
;TIME:2731
;Filament used: 1.41282m
;Layer height: 0.12
;MINX:66.31
;MINY:71.391
;MINZ:0.12
;MAXX:133.69
;MAXY:128.592
;MAXZ:3.96
;Generated with Cura_SteamEngine 4.13.1
M82 ;absolute extrusion mode
G21 ; set units to millimeters
M140 S60.0 ; set bed temp
G28 ; Home extruder
G1 Z15 ; Levanta Extrusora
G90 ; use absolute positioning
M82 ; absolute extrusion mode
;M140 S60.0 ; set bed temp
M190 S60.0 ; wait for bed temp
M104 S210.0 ; set extruder temp
G29; Perform Automatic Bed Leveling
M109 S210.0 ; wait for extruder temp
G92 E0.0 ; reset extruder distance position
G92 E0
G92 E0
G1 F1500 E-0.3
;LAYER_COUNT:38
;LAYER:0
M107
G0 F3600 X77.035 Y83.161 Z0.12
;TYPE:SKIRT
G1 F1500 E0
G1 X77.581 Y82.665 E0.01472
G1 X78.412 Y82.085 E0.03494
G1 X79.063 Y81.701 E0.05003
G1 X81.022 Y80.58 E0.09507
G1 X82.722 Y79.639 E0.13385
G1 X83.236 Y79.364 E0.14548
G1 X84.544 Y78.625 E0.17546
G1 X85.606 Y78.014 E0.19991
G1 X87.2 Y77.127 E0.23631
G1 X87.433 Y76.988 E0.24173
G1 X89.112 Y76.068 E0.27993
G1 X90.28 Y75.396 E0.30682
G1 X91.632 Y74.643 E0.33771
G1 X93.48 Y73.638 E0.37969
G1 X95.316 Y72.598 E0.4218
G1 X96.001 Y72.224 E0.43737
G1 X96.666 Y71.906 E0.45208
G1 X97.362 Y71.662 E0.4668
G1 X98.08 Y71.494 E0.48152
G1 X98.812 Y71.406 E0.49623
G1 X99.314 Y71.391 E0.50625
G1 X100.322 Y71.4 E0.52637
G1 X100.661 Y71.408 E0.53313
G1 X101.396 Y71.465 E0.54785
G1 X102.121 Y71.602 E0.56257
G1 X102.827 Y71.816 E0.57729
G1 X103.617 Y72.162 E0.5945
G1 X104.057 Y72.393 E0.60442
G1 X120.744 Y81.656 E0.98529
G1 X121.308 Y81.981 E0.99828
G1 X121.926 Y82.383 E1.013
G1 X122.497 Y82.85 E1.02772
G1 X123.014 Y83.376 E1.04244
G1 X123.471 Y83.955 E1.05716
G1 X123.862 Y84.579 E1.07185
G1 X124.184 Y85.243 E1.08658
G1 X124.432 Y85.937 E1.10128
G1 X124.537 Y86.337 E1.10954
G1 X124.717 Y87.114 E1.12545
G1 X125.365 Y89.722 E1.17908
G1 X126.066 Y92.239 E1.23122
G1 X126.852 Y94.78 E1.2843
G1 X127.694 Y97.251 E1.3364
G1 X128.615 Y99.728 E1.38914
G1 X129.617 Y102.201 E1.44238
G1 X130.665 Y104.592 E1.49448
G1 X131.794 Y106.982 E1.54723
G1 X132.768 Y108.915 E1.59043
G1 X132.933 Y109.233 E1.59757
G1 X133.236 Y109.905 E1.61229
G1 X133.466 Y110.606 E1.62701
G1 X133.617 Y111.327 E1.64171
G1 X133.69 Y112.061 E1.65643
G1 X133.683 Y112.798 E1.67114
G1 X133.596 Y113.53 E1.68585
G1 X133.431 Y114.249 E1.70057
G1 X133.236 Y114.825 E1.7127
G1 X132.778 Y116.004 E1.73795
G1 X132.716 Y116.157 E1.74124
G1 X132.403 Y116.824 E1.75594
G1 X132.019 Y117.454 E1.77067
G1 X131.569 Y118.038 E1.78538
G1 X131.058 Y118.57 E1.8001
G1 X130.493 Y119.043 E1.81481
G1 X129.88 Y119.453 E1.82952
G1 X129.227 Y119.794 E1.84422
G1 X128.54 Y120.062 E1.85894
G1 X127.68 Y120.284 E1.87667
G1 X126.535 Y120.501 E1.89992
G1 X123.865 Y121.043 E1.95429
G1 X121.367 Y121.624 E2.00547
G1 X118.747 Y122.315 E2.05954
G1 X116.241 Y123.049 E2.11166
G1 X113.728 Y123.865 E2.16438
G1 X111.258 Y124.745 E2.21671
G1 X108.778 Y125.708 E2.2698
G1 X106.373 Y126.721 E2.32188
G1 X104.488 Y127.579 E2.36321
G1 X103.9 Y127.836 E2.37602
G1 X102.972 Y128.165 E2.39566
G1 X102.463 Y128.301 E2.40618
G1 X102.213 Y128.362 E2.41131
G1 X101.258 Y128.524 E2.43064
G1 X100.67 Y128.578 E2.44243
G1 X100.459 Y128.592 E2.44665
G1 X99.491 Y128.587 E2.46596
G1 X98.809 Y128.531 E2.47962
G1 X98.63 Y128.511 E2.48322
G1 X97.691 Y128.339 E2.50227
G1 X96.972 Y128.145 E2.51713
G1 X96.03 Y127.802 E2.53713
G1 X95.493 Y127.557 E2.54891
G1 X92.485 Y126.041 E2.61613
G1 X90.071 Y124.91 E2.66933
G1 X87.628 Y123.849 E2.72248
G1 X85.2 Y122.872 E2.77471
G1 X82.747 Y121.97 E2.82687
G1 X80.198 Y121.112 E2.88054
G1 X77.732 Y120.357 E2.93201
G1 X75.202 Y119.661 E2.98437
G1 X72.225 Y118.953 E3.04544
G1 X71.487 Y118.772 E3.0606
G1 X70.782 Y118.558 E3.07531
G1 X70.104 Y118.269 E3.09001
G1 X69.461 Y117.908 E3.10473
G1 X68.861 Y117.479 E3.11945
G1 X68.311 Y116.988 E3.13416
G1 X67.817 Y116.441 E3.14887
G1 X67.386 Y115.843 E3.16358
G1 X67.021 Y115.202 E3.1783
G1 X66.729 Y114.525 E3.19302
G1 X66.511 Y113.821 E3.20772
G1 X66.371 Y113.097 E3.22244
G1 X66.31 Y112.362 E3.23716
G1 X66.329 Y111.625 E3.25187
G1 X66.427 Y110.894 E3.26659
G1 X66.604 Y110.179 E3.28129
G1 X66.987 Y109.205 E3.30217
G1 X67.216 Y108.733 E3.31264
G1 X68.082 Y107.013 E3.35107
G1 X69.2 Y104.623 E3.40373
G1 X70.249 Y102.209 E3.45625
G1 X71.231 Y99.76 E3.50891
G1 X72.143 Y97.283 E3.56158
G1 X72.977 Y94.807 E3.61372
G1 X73.759 Y92.246 E3.66716
G1 X74.447 Y89.742 E3.71898
G1 X75.265 Y86.345 E3.78871
G1 X75.476 Y85.639 E3.80342
G1 X75.763 Y84.959 E3.81814
G1 X76.121 Y84.315 E3.83285
G1 X76.547 Y83.713 E3.84757
G1 X77.035 Y83.161 E3.86227
G0 F3600 X77.396 Y83.367
G1 F1500 X77.934 Y82.895 E3.87655
G1 X78.616 Y82.429 E3.89304
G1 X79.262 Y82.048 E3.908
G1 X81.216 Y80.93 E3.95293
G1 X82.911 Y79.992 E3.99159
G1 X83.387 Y79.737 E4.00236
G1 X84.792 Y78.944 E4.03456
G1 X85.8 Y78.364 E4.05777
G1 X87.522 Y77.406 E4.09709
G1 X87.626 Y77.339 E4.09956
G1 X89.306 Y76.418 E4.13779
G1 X90.475 Y75.746 E4.1647
G1 X91.824 Y74.995 E4.19551
G1 X93.633 Y74.011 E4.23661
G1 X95.513 Y72.946 E4.27973
G1 X96.192 Y72.575 E4.29517
G1 X96.838 Y72.267 E4.30945
G1 X97.514 Y72.034 E4.32372
G1 X98.212 Y71.878 E4.33799
G1 X98.923 Y71.8 E4.35227
G1 X99.311 Y71.791 E4.36001
G1 X100.313 Y71.8 E4.38001
G1 X100.652 Y71.808 E4.38678
G1 X101.365 Y71.865 E4.40105
G1 X102.067 Y72.001 E4.41532
G1 X102.75 Y72.214 E4.4296
G1 X103.434 Y72.518 E4.44454
G1 X103.863 Y72.742 E4.45419
G1 X120.544 Y82.003 E4.83494
G1 X121.108 Y82.328 E4.84793
G1 X121.707 Y82.719 E4.86221
G1 X122.259 Y83.175 E4.8765
G1 X122.756 Y83.689 E4.89076
G1 X123.192 Y84.255 E4.90502
G1 X123.563 Y84.867 E4.9193
G1 X123.863 Y85.516 E4.93357
G1 X124.148 Y86.427 E4.95262
G1 X124.339 Y87.249 E4.96946
G1 X124.975 Y89.812 E5.02216
G1 X125.685 Y92.359 E5.07493
G1 X126.467 Y94.89 E5.12779
G1 X127.328 Y97.415 E5.18103
G1 X128.241 Y99.87 E5.2333
G1 X129.24 Y102.337 E5.28642
G1 X130.301 Y104.758 E5.33916
G1 X131.441 Y107.17 E5.3924
G1 X132.413 Y109.099 E5.43551
G1 X132.578 Y109.417 E5.44266
G1 X132.871 Y110.07 E5.45694
G1 X133.09 Y110.751 E5.47122
G1 X133.232 Y111.452 E5.48549
G1 X133.294 Y112.164 E5.49975
G1 X133.276 Y112.879 E5.51403
G1 X133.179 Y113.588 E5.52831
G1 X133.003 Y114.281 E5.54258
G1 X132.864 Y114.68 E5.55101
G1 X132.407 Y115.854 E5.57615
G1 X132.345 Y116.007 E5.57944
G1 X132.04 Y116.653 E5.5937
G1 X131.665 Y117.262 E5.60797
G1 X131.224 Y117.825 E5.62224
G1 X130.722 Y118.336 E5.63654
G1 X130.167 Y118.787 E5.65081
G1 X129.566 Y119.173 E5.66507
G1 X128.924 Y119.49 E5.67935
G1 X128.252 Y119.733 E5.69361
G1 X127.605 Y119.891 E5.7069
G1 X126.459 Y120.108 E5.73018
G1 X123.8 Y120.648 E5.78433
G1 X121.247 Y121.242 E5.83664
G1 X118.637 Y121.93 E5.8905
G1 X116.12 Y122.668 E5.94284
G1 X113.608 Y123.483 E5.99555
G1 X111.116 Y124.371 E6.04834
G1 X108.626 Y125.337 E6.10164
G1 X106.217 Y126.352 E6.15381
G1 X104.234 Y127.254 E6.19728
G1 X103.74 Y127.47 E6.20804
G1 X102.866 Y127.779 E6.22654
G1 X102.368 Y127.913 E6.23683
G1 X102.118 Y127.974 E6.24197
G1 X101.22 Y128.126 E6.26014
G1 X100.644 Y128.179 E6.27169
G1 X100.433 Y128.193 E6.27591
G1 X99.521 Y128.188 E6.29411
G1 X98.853 Y128.133 E6.30748
G1 X98.674 Y128.113 E6.31108
G1 X97.791 Y127.951 E6.32899
G1 X97.081 Y127.76 E6.34366
G1 X96.195 Y127.437 E6.36248
G1 X95.667 Y127.197 E6.37406
G1 X92.64 Y125.671 E6.44171
G1 X90.237 Y124.546 E6.49466
G1 X87.801 Y123.487 E6.54766
G1 X85.321 Y122.49 E6.601
G1 X82.865 Y121.587 E6.65322
G1 X80.37 Y120.747 E6.70576
G1 X77.817 Y119.966 E6.75904
G1 X75.31 Y119.276 E6.81093
G1 X72.321 Y118.565 E6.87224
G1 X71.583 Y118.384 E6.88741
G1 X70.898 Y118.175 E6.9017
G1 X70.242 Y117.891 E6.91596
G1 X69.621 Y117.535 E6.93025
G1 X69.044 Y117.113 E6.94451
G1 X68.518 Y116.629 E6.95878
G1 X68.049 Y116.089 E6.97305
G1 X67.643 Y115.5 E6.98733
G1 X67.305 Y114.869 E7.00161
G1 X67.04 Y114.205 E7.01588
G1 X66.85 Y113.515 E7.03016
G1 X66.739 Y112.809 E7.04443
G1 X66.707 Y112.094 E7.05871
G1 X66.756 Y111.381 E7.07297
G1 X66.883 Y110.677 E7.08725
G1 X67.088 Y109.992 E7.10152
G1 X67.347 Y109.379 E7.1148
G1 X67.573 Y108.913 E7.12513
G1 X68.437 Y107.197 E7.16347
G1 X69.577 Y104.76 E7.21716
G1 X70.61 Y102.381 E7.26892
G1 X71.601 Y99.911 E7.32203
G1 X72.526 Y97.401 E7.37541
G1 X73.363 Y94.914 E7.42778
G1 X74.142 Y92.364 E7.48099
G1 X74.834 Y89.844 E7.53314
G1 X75.654 Y86.439 E7.60303
G1 X75.86 Y85.754 E7.61731
G1 X76.141 Y85.096 E7.63159
G1 X76.494 Y84.474 E7.64586
G1 X76.914 Y83.895 E7.66013
G1 X77.396 Y83.367 E7.6744
G0 F3600 X77.755 Y83.576
G1 F1500 X78.285 Y83.13 E7.68822
G1 X78.82 Y82.774 E7.70105
G1 X79.461 Y82.395 E7.71591
G1 X81.41 Y81.28 E7.76072
G1 X83.1 Y80.344 E7.79927
G1 X83.594 Y80.079 E7.81046
G1 X84.947 Y79.316 E7.84146
G1 X85.995 Y78.713 E7.86558
G1 X87.651 Y77.791 E7.90341
G1 X87.818 Y77.69 E7.9073
G1 X89.499 Y76.769 E7.94555
G1 X90.67 Y76.095 E7.97252
G1 X92.015 Y75.346 E8.00324
G1 X93.854 Y74.346 E8.04501
G1 X95.791 Y73.25 E8.08943
G1 X96.384 Y72.926 E8.10291
G1 X97.01 Y72.629 E8.11674
G1 X97.666 Y72.407 E8.13056
G1 X98.343 Y72.262 E8.14438
G1 X99.308 Y72.191 E8.16369
G1 X100.304 Y72.2 E8.18356
G1 X100.643 Y72.208 E8.19033
G1 X101.333 Y72.264 E8.20415
G1 X102.012 Y72.399 E8.21796
G1 X102.671 Y72.612 E8.23178
G1 X103.251 Y72.873 E8.24448
G1 X103.669 Y73.092 E8.25389
G1 X120.345 Y82.349 E8.63452
G1 X120.909 Y82.674 E8.64751
G1 X121.488 Y83.054 E8.66133
G1 X122.019 Y83.498 E8.67514
G1 X122.496 Y84 E8.68896
G1 X122.912 Y84.554 E8.70278
G1 X123.261 Y85.152 E8.7166
G1 X123.539 Y85.787 E8.73043
G1 X123.758 Y86.518 E8.74566
G1 X123.938 Y87.294 E8.76156
G1 X124.59 Y89.919 E8.81554
G1 X125.301 Y92.47 E8.86839
G1 X126.092 Y95.032 E8.92189
G1 X126.946 Y97.535 E8.97467
G1 X127.876 Y100.035 E9.0279
G1 X128.874 Y102.5 E9.08097
G1 X129.931 Y104.911 E9.13351
G1 X131.072 Y107.326 E9.18681
G1 X132.084 Y109.335 E9.2317
G1 X132.223 Y109.602 E9.23771
G1 X132.506 Y110.234 E9.25153
G1 X132.714 Y110.894 E9.26534
G1 X132.845 Y111.574 E9.27916
G1 X132.896 Y112.265 E9.29298
G1 X132.868 Y112.957 E9.3068
G1 X132.76 Y113.641 E9.32062
G1 X132.491 Y114.535 E9.33925
G1 X132.037 Y115.703 E9.36426
G1 X131.975 Y115.856 E9.36756
G1 X131.678 Y116.482 E9.38138
G1 X131.311 Y117.07 E9.39522
G1 X130.879 Y117.611 E9.40903
G1 X130.388 Y118.099 E9.42285
G1 X129.843 Y118.527 E9.43667
G1 X129.253 Y118.889 E9.45049
G1 X128.625 Y119.181 E9.46431
G1 X127.968 Y119.398 E9.47812
G1 X127.531 Y119.498 E9.48706
G1 X126.384 Y119.715 E9.51036
G1 X123.702 Y120.26 E9.56498
G1 X121.152 Y120.853 E9.61722
G1 X118.538 Y121.542 E9.67117
G1 X116.012 Y122.283 E9.7237
G1 X113.466 Y123.109 E9.77712
G1 X110.973 Y123.997 E9.82993
G1 X108.505 Y124.955 E9.88276
G1 X106.017 Y126.003 E9.93664
G1 X104.074 Y126.887 E9.97924
G1 X103.58 Y127.103 E9.99
G1 X102.761 Y127.393 E10.00733
G1 X102.273 Y127.524 E10.01742
G1 X102.023 Y127.585 E10.02255
G1 X101.181 Y127.728 E10.0396
G1 X100.617 Y127.78 E10.0509
G1 X100.406 Y127.794 E10.05512
G1 X99.552 Y127.79 E10.07216
G1 X98.898 Y127.736 E10.08526
G1 X98.719 Y127.716 E10.08885
G1 X97.89 Y127.564 E10.10567
G1 X97.19 Y127.375 E10.12014
G1 X96.359 Y127.073 E10.13779
G1 X95.841 Y126.837 E10.14914
G1 X92.797 Y125.303 E10.21717
G1 X90.401 Y124.181 E10.26997
G1 X87.961 Y123.12 E10.32306
G1 X85.46 Y122.115 E10.37685
G1 X83.005 Y121.212 E10.42905
G1 X80.467 Y120.357 E10.4825
G1 X77.968 Y119.593 E10.53465
G1 X75.399 Y118.886 E10.58782
G1 X72.416 Y118.176 E10.64901
G1 X71.678 Y117.995 E10.66418
G1 X71.016 Y117.792 E10.67799
G1 X70.382 Y117.513 E10.69182
G1 X69.784 Y117.164 E10.70564
G1 X69.23 Y116.748 E10.71946
G1 X68.729 Y116.27 E10.73328
G1 X68.285 Y115.739 E10.74709
G1 X67.906 Y115.159 E10.76092
G1 X67.596 Y114.54 E10.77473
G1 X67.359 Y113.889 E10.78856
G1 X67.199 Y113.215 E10.80238
G1 X67.118 Y112.527 E10.81621
G1 X67.116 Y111.835 E10.83002
G1 X67.195 Y111.147 E10.84384
G1 X67.352 Y110.472 E10.85767
G1 X67.707 Y109.554 E10.87731
G1 X67.931 Y109.092 E10.88756
G1 X68.806 Y107.354 E10.92639
G1 X69.929 Y104.953 E10.97928
G1 X70.977 Y102.54 E11.03178
G1 X71.984 Y100.031 E11.08574
G1 X72.897 Y97.551 E11.13847
G1 X73.749 Y95.022 E11.19173
G1 X74.515 Y92.514 E11.24406
G1 X75.226 Y89.925 E11.29764
G1 X76.043 Y86.532 E11.36729
G1 X76.243 Y85.87 E11.38109
G1 X76.519 Y85.234 E11.39492
G1 X76.866 Y84.635 E11.40874
G1 X77.28 Y84.08 E11.42256
G1 X77.755 Y83.576 E11.43638
G0 F3600 X78.113 Y83.79
G1 F1500 X78.635 Y83.37 E11.44975
G1 X79.024 Y83.118 E11.459
G1 X79.659 Y82.742 E11.47372
G1 X81.603 Y81.63 E11.51842
G1 X83.289 Y80.697 E11.55687
G1 X83.781 Y80.433 E11.56801
G1 X85.185 Y79.641 E11.60018
G1 X86.189 Y79.063 E11.6233
G1 X87.913 Y78.104 E11.66267
G1 X88.01 Y78.04 E11.66499
G1 X89.713 Y77.107 E11.70374
G1 X90.865 Y76.444 E11.73027
G1 X92.206 Y75.697 E11.7609
G1 X94.113 Y74.66 E11.80422
G1 X95.983 Y73.601 E11.8471
G1 X96.576 Y73.277 E11.86059
G1 X97.181 Y72.992 E11.87394
G1 X97.816 Y72.781 E11.88729
G1 X98.472 Y72.647 E11.90065
G1 X99.305 Y72.591 E11.91731
G1 X100.294 Y72.6 E11.93705
G1 X100.633 Y72.608 E11.94382
G1 X101.3 Y72.663 E11.95717
G1 X101.955 Y72.798 E11.97052
G1 X102.59 Y73.01 E11.98388
G1 X103.067 Y73.229 E11.99435
G1 X103.475 Y73.442 E12.00354
G1 X120.145 Y82.696 E12.38403
G1 X120.709 Y83.021 E12.39702
G1 X121.268 Y83.389 E12.41037
G1 X121.778 Y83.821 E12.42371
G1 X122.234 Y84.311 E12.43707
G1 X122.628 Y84.852 E12.45042
G1 X122.955 Y85.436 E12.46378
G1 X123.209 Y86.054 E12.47711
G1 X123.368 Y86.608 E12.48862
G1 X123.54 Y87.351 E12.50384
G1 X124.2 Y90.009 E12.55849
G1 X124.919 Y92.59 E12.61196
G1 X125.711 Y95.153 E12.66549
G1 X126.575 Y97.689 E12.71896
G1 X127.501 Y100.176 E12.77192
G1 X128.496 Y102.631 E12.82478
G1 X129.58 Y105.106 E12.8787
G1 X130.694 Y107.464 E12.93074
G1 X131.73 Y109.52 E12.97669
G1 X131.868 Y109.786 E12.98267
G1 X132.14 Y110.397 E12.99601
G1 X132.337 Y111.036 E13.00936
G1 X132.457 Y111.695 E13.02273
G1 X132.497 Y112.362 E13.03606
G1 X132.457 Y113.03 E13.04942
G1 X132.338 Y113.689 E13.06278
G1 X132.118 Y114.391 E13.07746
G1 X131.666 Y115.553 E13.10234
G1 X131.604 Y115.706 E13.10564
G1 X131.316 Y116.31 E13.11899
G1 X130.958 Y116.875 E13.13234
G1 X130.536 Y117.394 E13.14569
G1 X130.054 Y117.858 E13.15904
G1 X129.521 Y118.262 E13.17238
G1 X128.943 Y118.599 E13.18574
G1 X128.329 Y118.865 E13.19909
G1 X127.456 Y119.105 E13.21716
G1 X126.307 Y119.323 E13.2405
G1 X123.603 Y119.872 E13.29556
G1 X121.064 Y120.462 E13.34758
G1 X118.462 Y121.148 E13.40128
G1 X115.891 Y121.902 E13.45475
G1 X113.314 Y122.738 E13.50881
G1 X110.831 Y123.623 E13.56142
G1 X108.354 Y124.585 E13.61444
G1 X105.862 Y125.634 E13.6684
G1 X103.913 Y126.521 E13.71113
G1 X103.419 Y126.737 E13.72189
G1 X102.655 Y127.007 E13.73806
G1 X101.928 Y127.196 E13.75305
G1 X101.142 Y127.33 E13.76897
G1 X100.591 Y127.381 E13.78001
G1 X100.38 Y127.395 E13.78423
G1 X99.582 Y127.391 E13.80015
G1 X98.942 Y127.338 E13.81297
G1 X98.763 Y127.318 E13.81656
G1 X97.99 Y127.176 E13.83225
G1 X97.299 Y126.991 E13.84652
G1 X96.523 Y126.708 E13.86301
G1 X96.015 Y126.477 E13.87414
G1 X92.968 Y124.942 E13.94223
G1 X90.552 Y123.81 E13.99547
G1 X88.134 Y122.759 E14.04809
G1 X85.611 Y121.745 E14.10235
G1 X83.123 Y120.83 E14.15525
G1 X80.606 Y119.982 E14.20826
G1 X78.044 Y119.199 E14.26172
G1 X75.488 Y118.495 E14.31463
G1 X72.511 Y117.788 E14.37569
G1 X71.773 Y117.607 E14.39085
G1 X71.134 Y117.409 E14.4042
G1 X70.523 Y117.136 E14.41756
G1 X69.949 Y116.793 E14.4309
G1 X69.42 Y116.383 E14.44426
G1 X68.944 Y115.913 E14.45761
G1 X68.527 Y115.39 E14.47095
G1 X68.175 Y114.821 E14.48431
G1 X67.894 Y114.214 E14.49766
G1 X67.687 Y113.577 E14.51102
G1 X67.558 Y112.921 E14.52436
G1 X67.508 Y112.254 E14.53771
G1 X67.537 Y111.586 E14.55106
G1 X67.647 Y110.925 E14.56443
G1 X67.834 Y110.283 E14.57777
G1 X68.067 Y109.728 E14.58978
G1 X68.288 Y109.272 E14.5999
G1 X69.161 Y107.538 E14.63864
G1 X70.287 Y105.132 E14.69165
G1 X71.369 Y102.639 E14.74588
G1 X72.343 Y100.212 E14.79807
G1 X73.28 Y97.669 E14.85216
G1 X74.124 Y95.161 E14.90496
G1 X74.907 Y92.599 E14.95843
G1 X75.613 Y90.027 E15.01165
G1 X76.432 Y86.626 E15.08146
G1 X76.627 Y85.986 E15.09481
G1 X76.897 Y85.374 E15.10816
G1 X77.238 Y84.799 E15.1215
G1 X77.645 Y84.268 E15.13486
G1 X78.113 Y83.79 E15.14821
G0 F3600 X78.01 Y84.46
G1 F1500 X78.47 Y84.008 E15.16107
