;FLAVOR:Marlin
;TIME:8207
;Filament used: 4.00627m
;Layer height: 0.12
;MINX:59.808
;MINY:42.008
;MINZ:0.12
;MAXX:140.191
;MAXY:122.692
;MAXZ:12
;Generated with Cura_SteamEngine 4.13.1
M82 ;absolute extrusion mode
G21 ; set units to millimeters
M140 S60.0 ; set bed temp
G28 ; Home extruder
G1 Z15 ; Levanta Extrusora
G90 ; use absolute positioning
M82 ; absolute extrusion mode
;M140 S60.0 ; set bed temp
M190 S60.0 ; wait for bed temp
M104 S205.0 ; set extruder temp
G29; Perform Automatic Bed Leveling
M109 S205.0 ; wait for extruder temp
G92 E0.0 ; reset extruder distance position
G92 E0
G92 E0
G1 F1500 E-0.3
;LAYER_COUNT:100
;LAYER:0
M107
G0 F3600 X61.716 Y45.353 Z0.12
;TYPE:SKIRT
G1 F1500 E0
G1 X61.796 Y45.253 E0.00256
G1 X62.531 Y44.47 E0.02399
G1 X62.84 Y44.189 E0.03232
G1 X63.412 Y43.723 E0.04705
G1 X64.134 Y43.253 E0.06424
G1 X64.779 Y42.897 E0.07894
G1 X65.496 Y42.594 E0.09447
G1 X66.195 Y42.36 E0.10918
G1 X67.112 Y42.158 E0.12792
G1 X67.842 Y42.052 E0.14264
G1 X68.533 Y42.018 E0.15645
G1 X69.255 Y42.008 E0.17086
G1 X115.026 Y42.008 E1.08427
G1 X130.586 Y42.011 E1.39479
G1 X131.735 Y42.032 E1.41772
G1 X132.471 Y42.086 E1.43245
G1 X133.163 Y42.203 E1.44645
G1 X133.88 Y42.376 E1.46117
G1 X134.512 Y42.594 E1.47451
G1 X135.19 Y42.884 E1.48923
G1 X135.924 Y43.286 E1.50593
G1 X136.544 Y43.683 E1.52062
G1 X137.047 Y44.082 E1.53343
G1 X137.249 Y44.258 E1.53878
G1 X137.994 Y45.021 E1.56006
G1 X138.29 Y45.376 E1.56928
G1 X138.73 Y45.967 E1.58399
G1 X139.061 Y46.521 E1.59687
G1 X139.204 Y46.788 E1.60291
G1 X139.632 Y47.762 E1.62414
G1 X139.801 Y48.265 E1.63473
G1 X139.815 Y48.311 E1.63569
G1 X140.025 Y49.22 E1.65431
G1 X140.096 Y49.665 E1.6633
G1 X140.177 Y50.5 E1.68004
G1 X140.191 Y51.274 E1.69549
G1 X140.191 Y77.895 E2.22674
G1 X140.171 Y79.317 E2.25512
G1 X140.131 Y80.597 E2.28068
G1 X140.122 Y83.203 E2.33269
G1 X140.143 Y83.972 E2.34804
G1 X140.138 Y84.154 E2.35167
G1 X140.191 Y86.92 E2.40688
G1 X140.19 Y113.257 E2.93246
G1 X140.179 Y114.082 E2.94893
G1 X140.124 Y114.859 E2.96447
G1 X140.088 Y115.138 E2.97009
G1 X139.954 Y115.863 E2.9848
G1 X139.725 Y116.658 E3.00131
G1 X139.472 Y117.35 E3.01601
G1 X139.153 Y118.009 E3.03062
G1 X138.785 Y118.64 E3.0452
G1 X138.66 Y118.83 E3.04974
G1 X138.289 Y119.341 E3.06234
G1 X138.205 Y119.446 E3.06503
G1 X137.471 Y120.228 E3.08643
G1 X137.161 Y120.51 E3.09479
G1 X136.589 Y120.976 E3.10951
G1 X135.866 Y121.447 E3.12673
G1 X135.221 Y121.803 E3.14144
G1 X134.504 Y122.106 E3.15697
G1 X133.805 Y122.34 E3.17168
G1 X132.888 Y122.542 E3.19042
G1 X132.158 Y122.648 E3.20514
G1 X131.467 Y122.682 E3.21895
G1 X130.745 Y122.692 E3.23336
G1 X84.974 Y122.692 E4.14677
G1 X69.414 Y122.689 E4.45728
G1 X68.265 Y122.668 E4.48022
G1 X67.529 Y122.614 E4.49494
G1 X66.837 Y122.497 E4.50895
G1 X65.782 Y122.212 E4.53076
G1 X65.245 Y122.011 E4.5422
G1 X65.204 Y121.994 E4.54309
G1 X64.45 Y121.626 E4.55983
G1 X64.068 Y121.409 E4.5686
G1 X63.448 Y121.01 E4.58331
G1 X62.968 Y120.63 E4.59553
G1 X62.652 Y120.353 E4.60391
G1 X61.996 Y119.667 E4.62285
G1 X61.701 Y119.312 E4.63207
G1 X61.261 Y118.72 E4.64679
G1 X60.933 Y118.17 E4.65956
G1 X60.792 Y117.906 E4.66554
G1 X60.48 Y117.237 E4.68027
G1 X60.251 Y116.594 E4.69389
G1 X60.052 Y115.884 E4.7086
G1 X59.902 Y115.02 E4.7261
G1 X59.823 Y114.186 E4.74282
G1 X59.814 Y113.891 E4.74871
G1 X59.808 Y113.309 E4.76033
G1 X59.81 Y86.709 E5.29116
G1 X59.829 Y85.383 E5.31762
G1 X59.869 Y84.103 E5.34318
G1 X59.878 Y81.497 E5.39519
G1 X59.857 Y80.728 E5.41054
G1 X59.862 Y80.54 E5.41429
G1 X59.809 Y77.772 E5.46954
G1 X59.81 Y51.413 E5.99556
G1 X59.822 Y50.597 E6.01185
G1 X59.875 Y49.846 E6.02687
G1 X59.909 Y49.578 E6.03226
G1 X60.041 Y48.853 E6.04697
G1 X60.277 Y48.037 E6.06392
G1 X60.53 Y47.344 E6.07864
G1 X60.847 Y46.691 E6.09313
G1 X61.229 Y46.038 E6.10823
G1 X61.359 Y45.842 E6.11292
G1 X61.716 Y45.353 E6.125
G0 F3600 X62.028 Y45.603
G1 F1500 X62.108 Y45.503 E6.12756
G1 X62.8 Y44.766 E6.14773
G1 X63.109 Y44.485 E6.15607
G1 X63.664 Y44.034 E6.17034
G1 X64.345 Y43.592 E6.18654
G1 X64.972 Y43.248 E6.20081
G1 X65.643 Y42.966 E6.21534
G1 X66.322 Y42.74 E6.22962
G1 X67.191 Y42.55 E6.24737
G1 X67.899 Y42.448 E6.26164
G1 X68.545 Y42.418 E6.27455
G1 X69.258 Y42.408 E6.28878
G1 X115.026 Y42.408 E7.20213
G1 X130.579 Y42.411 E7.51251
G1 X131.728 Y42.432 E7.53544
G1 X132.777 Y42.538 E7.55648
G1 X133.09 Y42.596 E7.56283
G1 X134.111 Y42.874 E7.58395
G1 X134.375 Y42.97 E7.58956
G1 X135.341 Y43.416 E7.61079
G1 X135.726 Y43.634 E7.61962
G1 X136.328 Y44.02 E7.63389
G1 X136.784 Y44.383 E7.64552
G1 X136.985 Y44.56 E7.65087
G1 X137.686 Y45.277 E7.67088
G1 X137.982 Y45.632 E7.6801
G1 X138.409 Y46.207 E7.69439
G1 X138.709 Y46.709 E7.70606
G1 X138.852 Y46.976 E7.71211
G1 X139.254 Y47.894 E7.73211
G1 X139.419 Y48.382 E7.74239
G1 X139.433 Y48.428 E7.74335
G1 X139.63 Y49.283 E7.76086
G1 X139.701 Y49.728 E7.76985
G1 X139.777 Y50.514 E7.78561
G1 X139.791 Y51.279 E7.80088
G1 X139.791 Y77.895 E8.33203
G1 X139.771 Y79.305 E8.36017
G1 X139.731 Y80.584 E8.3857
G1 X139.722 Y83.212 E8.43815
G1 X139.743 Y83.982 E8.45352
G1 X139.738 Y84.165 E8.45718
G1 X139.792 Y87.051 E8.51478
G1 X139.789 Y113.343 E9.03946
G1 X139.779 Y114.076 E9.05409
G1 X139.727 Y114.808 E9.06874
G1 X139.691 Y115.087 E9.07435
G1 X139.467 Y116.13 E9.09564
G1 X139.342 Y116.541 E9.10421
G1 X139.096 Y117.213 E9.11849
G1 X138.798 Y117.826 E9.1321
G1 X138.451 Y118.421 E9.14584
G1 X138.326 Y118.611 E9.15038
G1 X137.977 Y119.091 E9.16222
G1 X137.893 Y119.196 E9.16491
G1 X137.202 Y119.932 E9.18505
G1 X136.892 Y120.214 E9.19342
G1 X136.336 Y120.665 E9.2077
G1 X135.655 Y121.108 E9.22392
G1 X135.028 Y121.452 E9.23819
G1 X134.357 Y121.734 E9.25271
G1 X133.678 Y121.96 E9.26699
G1 X132.809 Y122.15 E9.28475
G1 X132.101 Y122.252 E9.29902
G1 X131.455 Y122.282 E9.31193
G1 X130.742 Y122.292 E9.32616
G1 X84.974 Y122.292 E10.23951
G1 X69.421 Y122.289 E10.54988
G1 X68.272 Y122.268 E10.57282
G1 X67.223 Y122.162 E10.59386
G1 X66.91 Y122.104 E10.60021
G1 X65.917 Y121.836 E10.62073
G1 X65.399 Y121.642 E10.63177
G1 X65.358 Y121.625 E10.63266
G1 X64.648 Y121.278 E10.64843
G1 X64.266 Y121.061 E10.6572
G1 X63.665 Y120.673 E10.67147
G1 X63.231 Y120.328 E10.68254
G1 X62.921 Y120.057 E10.69075
G1 X62.304 Y119.411 E10.70858
G1 X62.009 Y119.056 E10.71779
G1 X61.583 Y118.482 E10.73206
G1 X61.286 Y117.981 E10.74368
G1 X61.145 Y117.717 E10.74965
G1 X60.731 Y116.763 E10.77041
G1 X60.63 Y116.466 E10.77667
G1 X60.438 Y115.777 E10.79094
G1 X60.297 Y114.958 E10.80752
G1 X60.223 Y114.173 E10.82326
G1 X60.214 Y113.887 E10.82897
G1 X60.208 Y113.309 E10.8405
G1 X60.21 Y86.715 E11.37122
G1 X60.229 Y85.395 E11.39756
G1 X60.269 Y84.116 E11.4231
G1 X60.278 Y81.488 E11.47554
G1 X60.257 Y80.718 E11.49091
G1 X60.262 Y80.534 E11.49459
G1 X60.208 Y77.641 E11.55233
G1 X60.211 Y51.315 E12.07769
G1 X60.222 Y50.603 E12.0919
G1 X60.272 Y49.897 E12.10603
G1 X60.306 Y49.629 E12.11142
G1 X60.435 Y48.925 E12.1257
G1 X60.66 Y48.153 E12.14175
G1 X60.906 Y47.482 E12.15601
G1 X61.202 Y46.874 E12.16951
G1 X61.563 Y46.259 E12.18374
G1 X61.693 Y46.063 E12.18843
G1 X62.028 Y45.603 E12.19979
G0 F3600 X62.341 Y45.853
G1 F1500 X62.421 Y45.753 E12.20234
G1 X63.069 Y45.062 E12.22125
G1 X63.378 Y44.781 E12.22958
G1 X63.917 Y44.345 E12.24342
G1 X64.557 Y43.931 E12.25863
G1 X65.165 Y43.6 E12.27244
G1 X65.79 Y43.338 E12.28597
G1 X66.448 Y43.12 E12.2998
G1 X67.27 Y42.943 E12.31658
G1 X68.27 Y42.827 E12.33667
G1 X68.887 Y42.811 E12.34899
G1 X69.261 Y42.808 E12.35645
G1 X115.026 Y42.808 E13.26974
G1 X130.572 Y42.811 E13.57998
G1 X131.721 Y42.832 E13.60291
G1 X132.704 Y42.931 E13.62263
G1 X133.017 Y42.989 E13.62898
G1 X133.974 Y43.25 E13.64878
G1 X134.238 Y43.346 E13.65438
G1 X135.144 Y43.764 E13.67429
G1 X135.529 Y43.982 E13.68312
G1 X136.111 Y44.357 E13.69694
G1 X136.521 Y44.685 E13.70742
G1 X136.722 Y44.861 E13.71275
G1 X137.379 Y45.534 E13.73152
G1 X137.675 Y45.889 E13.74074
G1 X138.087 Y46.445 E13.75455
G1 X138.356 Y46.898 E13.76507
G1 X138.499 Y47.165 E13.77111
G1 X138.876 Y48.025 E13.78985
G1 X139.05 Y48.544 E13.80077
G1 X139.235 Y49.346 E13.8172
G1 X139.306 Y49.791 E13.82619
G1 X139.377 Y50.528 E13.84097
G1 X139.392 Y51.284 E13.85606
G1 X139.39 Y77.979 E14.38878
G1 X139.371 Y79.292 E14.41499
G1 X139.331 Y80.546 E14.44003
G1 X139.322 Y83.222 E14.49343
G1 X139.343 Y83.993 E14.50882
G1 X139.337 Y84.167 E14.5123
G1 X139.392 Y87.051 E14.56986
G1 X139.389 Y113.338 E15.09444
G1 X139.379 Y114.071 E15.10907
G1 X139.331 Y114.757 E15.1228
G1 X139.295 Y115.036 E15.12841
G1 X139.084 Y116.014 E15.14838
G1 X138.959 Y116.425 E15.15695
G1 X138.72 Y117.075 E15.17077
G1 X138.442 Y117.643 E15.18339
G1 X138.117 Y118.201 E15.19628
G1 X137.992 Y118.391 E15.20082
G1 X137.664 Y118.841 E15.21193
G1 X137.58 Y118.946 E15.21461
G1 X136.932 Y119.636 E15.2335
G1 X136.622 Y119.918 E15.24186
G1 X136.084 Y120.354 E15.25568
G1 X135.443 Y120.769 E15.27092
G1 X134.835 Y121.1 E15.28474
G1 X134.21 Y121.362 E15.29826
G1 X133.552 Y121.58 E15.31209
G1 X132.73 Y121.757 E15.32887
G1 X131.73 Y121.873 E15.34896
G1 X131.113 Y121.889 E15.36128
G1 X130.739 Y121.892 E15.36875
G1 X84.974 Y121.892 E16.28204
G1 X69.428 Y121.889 E16.59227
G1 X68.279 Y121.868 E16.61521
G1 X67.296 Y121.769 E16.63492
G1 X66.983 Y121.711 E16.64127
G1 X66.052 Y121.459 E16.66052
G1 X65.552 Y121.272 E16.67118
G1 X65.511 Y121.255 E16.67206
G1 X64.845 Y120.93 E16.68685
G1 X64.463 Y120.713 E16.69562
G1 X63.882 Y120.337 E16.70943
G1 X63.303 Y119.861 E16.72439
G1 X63.19 Y119.761 E16.7274
G1 X62.611 Y119.156 E16.74411
G1 X62.316 Y118.801 E16.75332
G1 X61.905 Y118.243 E16.76715
G1 X61.639 Y117.793 E16.77758
G1 X61.498 Y117.529 E16.78355
G1 X61.109 Y116.634 E16.80303
G1 X61.008 Y116.337 E16.80929
G1 X60.762 Y115.339 E16.8298
G1 X60.692 Y114.895 E16.83877
G1 X60.622 Y114.16 E16.85351
G1 X60.614 Y113.882 E16.85906
G1 X60.608 Y113.309 E16.87049
G1 X60.61 Y86.721 E17.40108
G1 X60.629 Y85.408 E17.42729
G1 X60.669 Y84.131 E17.45279
G1 X60.678 Y81.478 E17.50573
G1 X60.657 Y80.707 E17.52112
G1 X60.663 Y80.533 E17.5246
G1 X60.608 Y77.641 E17.58232
G1 X60.611 Y51.321 E18.10756
G1 X60.622 Y50.609 E18.12177
G1 X60.669 Y49.947 E18.13502
G1 X60.703 Y49.679 E18.14041
G1 X60.916 Y48.683 E18.16073
G1 X61.042 Y48.27 E18.16935
G1 X61.282 Y47.621 E18.18316
G1 X61.558 Y47.057 E18.19569
G1 X61.896 Y46.481 E18.20902
G1 X62.026 Y46.285 E18.21371
G1 X62.341 Y45.853 E18.22438
G0 F3600 X62.653 Y46.103
G1 F1500 X62.733 Y46.003 E18.22694
G1 X63.338 Y45.358 E18.24458
G1 X63.647 Y45.077 E18.25292
G1 X64.168 Y44.657 E18.26627
G1 X64.768 Y44.271 E18.28051
G1 X65.356 Y43.951 E18.29387
G1 X65.938 Y43.71 E18.30644
G1 X66.893 Y43.427 E18.32632
G1 X67.349 Y43.335 E18.3356
G1 X68.282 Y43.227 E18.35435
G1 X68.894 Y43.211 E18.36656
G1 X69.263 Y43.208 E18.37393
G1 X115.026 Y43.208 E19.28718
G1 X130.564 Y43.211 E19.59726
G1 X131.713 Y43.232 E19.62019
G1 X132.631 Y43.325 E19.6386
G1 X132.944 Y43.383 E19.64495
G1 X133.838 Y43.626 E19.66344
G1 X134.102 Y43.722 E19.66905
G1 X134.947 Y44.112 E19.68762
G1 X135.332 Y44.33 E19.69645
G1 X135.894 Y44.694 E19.70981
G1 X136.447 Y45.152 E19.72414
G1 X136.459 Y45.162 E19.72445
G1 X137.072 Y45.79 E19.74197
G1 X137.368 Y46.145 E19.75119
G1 X137.765 Y46.683 E19.76453
G1 X138.147 Y47.354 E19.77994
G1 X138.499 Y48.157 E19.79744
G1 X138.667 Y48.66 E19.80802
G1 X138.84 Y49.409 E19.82336
G1 X138.911 Y49.854 E19.83235
G1 X138.978 Y50.542 E19.84615
G1 X138.992 Y51.289 E19.86106
G1 X138.99 Y77.974 E20.39359
G1 X138.971 Y79.279 E20.41963
G1 X138.931 Y80.546 E20.44493
G1 X138.922 Y83.231 E20.49851
G1 X138.943 Y84.004 E20.51394
G1 X138.937 Y84.173 E20.51732
G1 X138.992 Y87.051 E20.57476
G1 X138.989 Y113.332 E21.09923
G1 X138.979 Y114.065 E21.11386
G1 X138.934 Y114.706 E21.12668
G1 X138.898 Y114.985 E21.13229
G1 X138.702 Y115.897 E21.15091
G1 X138.577 Y116.308 E21.15948
G1 X138.201 Y117.237 E21.17948
G1 X138.086 Y117.461 E21.18451
G1 X137.782 Y117.981 E21.19653
G1 X137.657 Y118.171 E21.20107
G1 X137.352 Y118.591 E21.21143
G1 X137.268 Y118.696 E21.21411
G1 X136.663 Y119.34 E21.23174
G1 X136.353 Y119.622 E21.24011
G1 X135.832 Y120.042 E21.25346
G1 X135.232 Y120.429 E21.26771
G1 X134.644 Y120.749 E21.28107
G1 X134.062 Y120.99 E21.29364
G1 X133.107 Y121.273 E21.31352
G1 X132.651 Y121.365 E21.3228
G1 X131.718 Y121.473 E21.34154
G1 X131.106 Y121.489 E21.35376
G1 X130.737 Y121.492 E21.36112
G1 X84.974 Y121.492 E22.27437
G1 X69.436 Y121.489 E22.58445
G1 X68.287 Y121.468 E22.60739
G1 X67.369 Y121.375 E22.6258
G1 X67.056 Y121.317 E22.63215
G1 X66.187 Y121.083 E22.65011
G1 X65.705 Y120.903 E22.66038
G1 X65.664 Y120.886 E22.66126
G1 X65.043 Y120.582 E22.67506
G1 X64.661 Y120.365 E22.68383
G1 X64.1 Y120.001 E22.69717
G1 X63.565 Y119.559 E22.71102
G1 X63.459 Y119.465 E22.71385
G1 X62.919 Y118.9 E22.72945
G1 X62.624 Y118.545 E22.73866
G1 X62.228 Y118.006 E22.75201
G1 X61.85 Y117.34 E22.76729
G1 X61.488 Y116.505 E22.78545
G1 X61.387 Y116.208 E22.79171
G1 X61.157 Y115.277 E22.81085
G1 X61.087 Y114.833 E22.81982
G1 X61.022 Y114.146 E22.83359
G1 X61.014 Y113.877 E22.83896
G1 X61.008 Y113.309 E22.8503
G1 X61.01 Y86.726 E23.38079
G1 X61.029 Y85.421 E23.40683
G1 X61.069 Y84.145 E23.43231
G1 X61.078 Y81.469 E23.48571
G1 X61.057 Y80.696 E23.50114
G1 X61.063 Y80.527 E23.50452
G1 X61.008 Y77.641 E23.56212
G1 X61.011 Y51.327 E24.08725
G1 X61.022 Y50.615 E24.10146
G1 X61.066 Y49.997 E24.11382
G1 X61.1 Y49.729 E24.11921
G1 X61.299 Y48.8 E24.13817
G1 X61.425 Y48.387 E24.14679
G1 X61.799 Y47.463 E24.16668
G1 X61.914 Y47.239 E24.17171
G1 X62.229 Y46.702 E24.18413
G1 X62.653 Y46.103 E24.19878
G0 F3600 X62.965 Y46.353
G1 F1500 X63.045 Y46.253 E24.20133
G1 X63.607 Y45.654 E24.21772
G1 X63.916 Y45.373 E24.22606
G1 X64.664 Y44.807 E24.24478
G1 X64.98 Y44.61 E24.25221
G1 X65.815 Y44.189 E24.27087
G1 X66.085 Y44.082 E24.27667
G1 X66.973 Y43.819 E24.29515
G1 X67.429 Y43.727 E24.30443
G1 X68.295 Y43.627 E24.32183
G1 X68.902 Y43.611 E24.33395
G1 X69.266 Y43.608 E24.34121
G1 X115.026 Y43.608 E25.2544
G1 X130.557 Y43.611 E25.56434
G1 X131.706 Y43.632 E25.58727
G1 X132.558 Y43.718 E25.60436
G1 X132.871 Y43.776 E25.61071
G1 X133.701 Y44.002 E25.62788
G1 X133.965 Y44.098 E25.63349
G1 X134.75 Y44.46 E25.65074
G1 X135.135 Y44.678 E25.65957
G1 X135.675 Y45.03 E25.67243
G1 X136.184 Y45.453 E25.68564
G1 X136.765 Y46.046 E25.7022
G1 X137.061 Y46.401 E25.71143
G1 X137.442 Y46.921 E25.72429
G1 X137.794 Y47.543 E25.73855
G1 X138.121 Y48.288 E25.75479
G1 X138.285 Y48.777 E25.76508
G1 X138.445 Y49.472 E25.77932
G1 X138.516 Y49.917 E25.78831
G1 X138.578 Y50.556 E25.80112
G1 X138.592 Y51.294 E25.81585
G1 X138.59 Y77.968 E26.34816
G1 X138.571 Y79.267 E26.37409
G1 X138.531 Y80.542 E26.39954
G1 X138.522 Y83.24 E26.45338
G1 X138.543 Y84.014 E26.46884
G1 X138.537 Y84.174 E26.47203
G1 X138.592 Y87.051 E26.52945
G1 X138.59 Y113.327 E27.05382
G1 X138.58 Y114.06 E27.06845
G1 X138.537 Y114.654 E27.08033
G1 X138.501 Y114.933 E27.08595
G1 X138.319 Y115.781 E27.10326
G1 X138.194 Y116.192 E27.11183
G1 X137.845 Y117.054 E27.13039
G1 X137.73 Y117.278 E27.13541
G1 X137.448 Y117.761 E27.14657
G1 X137.04 Y118.341 E27.16073
G1 X136.956 Y118.446 E27.16341
G1 X136.394 Y119.045 E27.1798
G1 X136.084 Y119.327 E27.18816
G1 X135.336 Y119.893 E27.20688
G1 X135.02 Y120.09 E27.21431
G1 X134.185 Y120.511 E27.23298
G1 X133.915 Y120.618 E27.23877
G1 X133.027 Y120.881 E27.25725
G1 X132.571 Y120.973 E27.26654
G1 X131.705 Y121.073 E27.28393
G1 X131.098 Y121.089 E27.29605
G1 X130.734 Y121.092 E27.30331
G1 X84.974 Y121.092 E28.21651
G1 X69.443 Y121.089 E28.52644
G1 X68.294 Y121.068 E28.54938
G1 X67.442 Y120.982 E28.56647
G1 X67.129 Y120.924 E28.57282
G1 X66.322 Y120.706 E28.5895
G1 X65.817 Y120.516 E28.60027
G1 X65.241 Y120.234 E28.61307
G1 X64.859 Y120.017 E28.62183
G1 X64.319 Y119.665 E28.6347
G1 X63.827 Y119.257 E28.64745
G1 X63.728 Y119.169 E28.6501
G1 X63.227 Y118.644 E28.66458
G1 X62.932 Y118.289 E28.67379
G1 X62.551 Y117.769 E28.68665
G1 X62.203 Y117.152 E28.70079
G1 X61.867 Y116.376 E28.71766
G1 X61.766 Y116.079 E28.72392
G1 X61.552 Y115.215 E28.74169
G1 X61.482 Y114.771 E28.75066
G1 X61.422 Y114.133 E28.76345
G1 X61.414 Y113.872 E28.76866
G1 X61.408 Y113.309 E28.77989
