;FLAVOR:Marlin
;TIME:6911
;Filament used: 3.58372m
;Layer height: 0.12
;MINX:75.2
;MINY:57.7
;MINZ:0.12
;MAXX:125.625
;MAXY:143.785
;MAXZ:9.96
;Generated with Cura_SteamEngine 4.13.1
M82 ;absolute extrusion mode
G21 ; set units to millimeters
M140 S60.0 ; set bed temp
G28 ; Home extruder
G1 Z15 ; Levanta Extrusora
G90 ; use absolute positioning
M82 ; absolute extrusion mode
;M140 S60.0 ; set bed temp
M190 S60.0 ; wait for bed temp
M104 S210.0 ; set extruder temp
G29; Perform Automatic Bed Leveling
M109 S210.0 ; wait for extruder temp
G92 E0.0 ; reset extruder distance position
G92 E0
G92 E0
G1 F1500 E-0.3
;LAYER_COUNT:83
;LAYER:0
M107
G0 F3600 X76.999 Y60.71 Z0.12
;TYPE:SKIRT
G1 F1500 E0
G1 X77.218 Y60.45 E0.00678
G1 X77.723 Y59.913 E0.02149
G1 X78.376 Y59.363 E0.03853
G1 X78.587 Y59.207 E0.04377
G1 X79.203 Y58.802 E0.05848
G1 X79.607 Y58.584 E0.06764
G1 X80.403 Y58.241 E0.08494
G1 X80.686 Y58.14 E0.09094
G1 X81.393 Y57.93 E0.10565
G1 X82.377 Y57.77 E0.12555
G1 X83.094 Y57.722 E0.13989
G1 X84.116 Y57.701 E0.16029
G1 X116.044 Y57.7 E0.79745
G1 X116.563 Y57.707 E0.8078
G1 X117.29 Y57.738 E0.82233
G1 X118.024 Y57.814 E0.83705
G1 X118.752 Y57.97 E0.85191
G1 X119.001 Y58.038 E0.85706
G1 X119.701 Y58.271 E0.87178
G1 X120.264 Y58.522 E0.88408
G1 X120.455 Y58.618 E0.88835
G1 X121.095 Y58.985 E0.90307
G1 X121.779 Y59.491 E0.92005
G1 X122.05 Y59.719 E0.92712
G1 X122.587 Y60.223 E0.94182
G1 X123.138 Y60.876 E0.95887
G1 X123.289 Y61.08 E0.96393
G1 X123.694 Y61.696 E0.97864
G1 X123.918 Y62.11 E0.98804
G1 X124.259 Y62.903 E1.00526
G1 X124.36 Y63.186 E1.01126
G1 X124.57 Y63.893 E1.02598
G1 X124.73 Y64.873 E1.04579
G1 X124.778 Y65.591 E1.06015
G1 X124.799 Y66.601 E1.08031
G1 X124.8 Y90.781 E1.56285
G1 X124.837 Y93.402 E1.61516
G1 X124.95 Y96.053 E1.66811
G1 X125.136 Y98.676 E1.72059
G1 X125.402 Y101.364 E1.77449
G1 X125.57 Y102.815 E1.80364
G1 X125.612 Y103.388 E1.81511
G1 X125.625 Y103.925 E1.82583
G1 X125.623 Y114.078 E2.02844
G1 X125.612 Y114.786 E2.04257
G1 X125.569 Y115.449 E2.05583
G1 X125.26 Y118.162 E2.11032
G1 X125.036 Y120.78 E2.16276
G1 X124.885 Y123.431 E2.21575
G1 X124.81 Y126.063 E2.26829
G1 X124.8 Y127.453 E2.29603
G1 X124.799 Y133.641 E2.41952
G1 X124.786 Y134.285 E2.43238
G1 X124.762 Y134.786 E2.44239
G1 X124.687 Y135.52 E2.45711
G1 X124.54 Y136.213 E2.47125
G1 X124.48 Y136.438 E2.47589
G1 X124.252 Y137.139 E2.49061
G1 X124.008 Y137.694 E2.5027
G1 X123.898 Y137.917 E2.50767
G1 X123.537 Y138.56 E2.52238
G1 X123.001 Y139.29 E2.54046
G1 X122.782 Y139.55 E2.54724
G1 X122.277 Y140.087 E2.56195
G1 X121.616 Y140.643 E2.57919
G1 X121.403 Y140.8 E2.58447
G1 X120.786 Y141.204 E2.59919
G1 X120.395 Y141.416 E2.60806
G1 X119.597 Y141.759 E2.62539
G1 X119.314 Y141.86 E2.63139
G1 X118.607 Y142.07 E2.64611
G1 X117.623 Y142.23 E2.666
G1 X116.906 Y142.278 E2.68034
G1 X115.884 Y142.299 E2.70074
G1 X114.991 Y142.3 E2.71856
G1 X112.345 Y142.337 E2.77137
G1 X109.694 Y142.45 E2.82433
G1 X107.072 Y142.636 E2.87678
G1 X104.437 Y142.897 E2.92962
G1 X101.843 Y143.229 E2.98181
G1 X98.906 Y143.693 E3.04115
G1 X98.036 Y143.773 E3.05858
G1 X97.525 Y143.785 E3.06879
G1 X92.587 Y143.784 E3.16733
G1 X91.886 Y143.774 E3.18132
G1 X91.15 Y143.724 E3.19604
G1 X90.576 Y143.63 E3.20765
G1 X88.086 Y143.131 E3.25833
G1 X85.483 Y142.684 E3.31103
G1 X82.87 Y142.311 E3.36371
G1 X82.156 Y142.215 E3.37808
G1 X81.589 Y142.112 E3.38958
G1 X81.364 Y142.061 E3.39419
G1 X80.655 Y141.859 E3.4089
G1 X80.146 Y141.661 E3.4198
G1 X79.917 Y141.561 E3.42479
G1 X79.102 Y141.138 E3.44311
G1 X79.056 Y141.11 E3.44418
G1 X78.199 Y140.491 E3.46528
G1 X77.932 Y140.265 E3.47226
G1 X77.396 Y139.759 E3.48697
G1 X76.822 Y139.07 E3.50487
G1 X76.671 Y138.862 E3.51
G1 X76.271 Y138.243 E3.5247
G1 X76.061 Y137.846 E3.53367
G1 X75.74 Y137.094 E3.54998
G1 X75.641 Y136.817 E3.55585
G1 X75.431 Y136.11 E3.57057
G1 X75.27 Y135.127 E3.59045
G1 X75.222 Y134.407 E3.60485
G1 X75.201 Y133.383 E3.62529
G1 X75.2 Y66.456 E4.96089
G1 X75.207 Y65.938 E4.97123
G1 X75.238 Y65.21 E4.98577
G1 X75.313 Y64.477 E5.00047
G1 X75.472 Y63.74 E5.01552
G1 X75.54 Y63.492 E5.02065
G1 X75.773 Y62.792 E5.03538
G1 X76.047 Y62.188 E5.04861
G1 X76.149 Y61.989 E5.05307
G1 X76.52 Y61.352 E5.06778
G1 X76.999 Y60.71 E5.08377
G0 F3600 X77.305 Y60.968
G1 F1500 X77.524 Y60.708 E5.09055
G1 X78.015 Y60.187 E5.10484
G1 X78.614 Y59.685 E5.12044
G1 X78.825 Y59.529 E5.12567
G1 X79.729 Y58.97 E5.14688
G1 X79.788 Y58.94 E5.1482
G1 X80.538 Y58.617 E5.1645
G1 X80.821 Y58.516 E5.1705
G1 X81.507 Y58.314 E5.18477
G1 X82.412 Y58.169 E5.20306
G1 X83.103 Y58.122 E5.21688
G1 X84.125 Y58.101 E5.23728
G1 X116.044 Y58.1 E5.87426
G1 X116.557 Y58.107 E5.8845
G1 X117.271 Y58.138 E5.89876
G1 X117.982 Y58.212 E5.91302
G1 X118.647 Y58.356 E5.9266
G1 X118.896 Y58.424 E5.93175
G1 X119.574 Y58.651 E5.94602
G1 X120.084 Y58.88 E5.95718
G1 X120.275 Y58.976 E5.96144
G1 X120.895 Y59.332 E5.97571
G1 X121.521 Y59.797 E5.99127
G1 X121.792 Y60.025 E5.99834
G1 X122.313 Y60.515 E6.01261
G1 X122.816 Y61.114 E6.02822
G1 X122.967 Y61.318 E6.03329
G1 X123.529 Y62.228 E6.05463
G1 X123.561 Y62.291 E6.05604
G1 X123.883 Y63.038 E6.07228
G1 X123.984 Y63.321 E6.07827
G1 X124.186 Y64.007 E6.09254
G1 X124.331 Y64.908 E6.11075
G1 X124.378 Y65.599 E6.12458
G1 X124.399 Y66.609 E6.14474
G1 X124.4 Y90.781 E6.62711
G1 X124.438 Y93.423 E6.67984
G1 X124.55 Y96.066 E6.73264
G1 X124.737 Y98.708 E6.78549
G1 X125.003 Y101.385 E6.83918
G1 X125.173 Y102.861 E6.86883
G1 X125.212 Y103.401 E6.87963
G1 X125.225 Y103.925 E6.89009
G1 X125.223 Y114.071 E7.09257
G1 X125.212 Y114.779 E7.1067
G1 X125.172 Y115.404 E7.11919
G1 X124.863 Y118.119 E7.17372
G1 X124.637 Y120.759 E7.2266
G1 X124.485 Y123.432 E7.28003
G1 X124.41 Y126.048 E7.33226
G1 X124.4 Y127.45 E7.36024
G1 X124.399 Y133.635 E7.48366
G1 X124.387 Y134.266 E7.49626
G1 X124.363 Y134.767 E7.50627
G1 X124.289 Y135.479 E7.52055
G1 X124.154 Y136.11 E7.53343
G1 X124.094 Y136.335 E7.53808
G1 X123.871 Y137.015 E7.55236
G1 X123.65 Y137.517 E7.56331
G1 X123.54 Y137.74 E7.56827
G1 X123.188 Y138.363 E7.58255
G1 X122.695 Y139.032 E7.59913
G1 X122.476 Y139.292 E7.60592
G1 X121.985 Y139.813 E7.6202
G1 X121.378 Y140.321 E7.636
G1 X121.165 Y140.478 E7.64128
G1 X120.27 Y141.03 E7.66226
G1 X120.213 Y141.059 E7.66354
G1 X119.462 Y141.383 E7.67986
G1 X119.179 Y141.484 E7.68586
G1 X118.493 Y141.686 E7.70013
G1 X117.588 Y141.831 E7.71842
G1 X116.897 Y141.878 E7.73224
G1 X115.875 Y141.899 E7.75264
G1 X114.986 Y141.9 E7.77038
G1 X112.324 Y141.938 E7.82351
G1 X109.684 Y142.05 E7.87624
G1 X107.038 Y142.237 E7.92918
G1 X104.383 Y142.501 E7.98242
G1 X101.801 Y142.831 E8.03437
G1 X98.844 Y143.298 E8.09411
G1 X98.025 Y143.373 E8.11052
G1 X97.525 Y143.385 E8.1205
G1 X92.593 Y143.384 E8.21893
G1 X91.892 Y143.374 E8.23292
G1 X91.178 Y143.324 E8.2472
G1 X90.65 Y143.237 E8.25788
G1 X88.167 Y142.739 E8.30842
G1 X85.536 Y142.287 E8.36169
G1 X82.928 Y141.916 E8.41426
G1 X82.211 Y141.819 E8.4287
G1 X81.677 Y141.722 E8.43953
G1 X81.452 Y141.671 E8.44413
G1 X80.765 Y141.474 E8.4584
G1 X80.077 Y141.194 E8.47322
G1 X79.31 Y140.796 E8.49046
G1 X79.264 Y140.768 E8.49154
G1 X78.457 Y140.186 E8.51139
G1 X78.19 Y139.96 E8.51837
G1 X77.671 Y139.468 E8.53265
G1 X77.146 Y138.835 E8.54906
G1 X76.995 Y138.627 E8.55419
G1 X76.45 Y137.729 E8.57515
G1 X76.419 Y137.667 E8.57653
G1 X76.116 Y136.959 E8.5919
G1 X76.017 Y136.682 E8.59777
G1 X75.815 Y135.996 E8.61204
G1 X75.669 Y135.092 E8.63032
G1 X75.622 Y134.399 E8.64418
G1 X75.601 Y133.375 E8.66462
G1 X75.6 Y66.456 E10.00006
G1 X75.607 Y65.944 E10.01028
G1 X75.637 Y65.229 E10.02456
G1 X75.712 Y64.518 E10.03882
G1 X75.858 Y63.846 E10.05255
G1 X75.926 Y63.598 E10.05768
G1 X76.153 Y62.919 E10.07197
G1 X76.403 Y62.371 E10.08399
G1 X76.505 Y62.172 E10.08845
G1 X76.866 Y61.554 E10.10273
G1 X77.305 Y60.968 E10.11734
G0 F3600 X77.611 Y61.226
G1 F1500 X77.83 Y60.966 E10.12413
G1 X78.306 Y60.463 E10.13795
G1 X78.852 Y60.006 E10.15216
G1 X79.063 Y59.85 E10.15739
G1 X79.911 Y59.327 E10.17728
G1 X79.97 Y59.297 E10.1786
G1 X80.672 Y58.994 E10.19386
G1 X80.955 Y58.893 E10.19985
G1 X81.62 Y58.698 E10.21368
G1 X82.447 Y58.567 E10.23039
G1 X83.111 Y58.522 E10.24367
G1 X84.256 Y58.5 E10.26653
G1 X116.044 Y58.5 E10.90089
G1 X116.551 Y58.507 E10.91101
G1 X117.252 Y58.537 E10.92501
G1 X117.94 Y58.61 E10.93882
G1 X118.542 Y58.742 E10.95112
G1 X118.791 Y58.81 E10.95627
G1 X119.447 Y59.031 E10.97008
G1 X119.905 Y59.237 E10.9801
G1 X120.096 Y59.333 E10.98437
G1 X120.695 Y59.679 E10.99817
G1 X121.264 Y60.103 E11.01234
G1 X121.535 Y60.331 E11.0194
G1 X122.038 Y60.806 E11.03321
G1 X122.495 Y61.352 E11.04742
G1 X122.646 Y61.556 E11.05248
G1 X123.172 Y62.409 E11.07248
G1 X123.204 Y62.472 E11.07389
G1 X123.506 Y63.172 E11.08911
G1 X123.607 Y63.455 E11.0951
G1 X123.802 Y64.12 E11.10893
G1 X123.933 Y64.943 E11.12556
G1 X123.978 Y65.607 E11.13884
G1 X123.999 Y66.617 E11.159
G1 X124 Y90.781 E11.64122
G1 X124.037 Y93.41 E11.69369
G1 X124.152 Y96.11 E11.74762
G1 X124.338 Y98.739 E11.80022
G1 X124.609 Y101.474 E11.85507
G1 X124.775 Y102.907 E11.88385
G1 X124.812 Y103.413 E11.89398
G1 X124.825 Y103.925 E11.9042
G1 X124.823 Y114.065 E12.10655
G1 X124.812 Y114.773 E12.12068
G1 X124.774 Y115.359 E12.1324
G1 X124.465 Y118.076 E12.18697
G1 X124.237 Y120.736 E12.24025
G1 X124.087 Y123.364 E12.29278
G1 X124.009 Y126.081 E12.34702
G1 X124 Y127.447 E12.37429
G1 X123.999 Y133.629 E12.49765
G1 X123.987 Y134.247 E12.50999
G1 X123.963 Y134.748 E12.52
G1 X123.89 Y135.437 E12.53383
G1 X123.767 Y136.007 E12.54546
G1 X123.707 Y136.232 E12.55011
G1 X123.491 Y136.89 E12.56393
G1 X123.181 Y137.563 E12.57872
G1 X122.839 Y138.166 E12.59255
G1 X122.389 Y138.774 E12.60765
G1 X122.17 Y139.034 E12.61443
G1 X121.694 Y139.537 E12.62825
G1 X121.141 Y139.999 E12.64263
G1 X120.928 Y140.156 E12.64791
G1 X120.089 Y140.674 E12.66759
G1 X120.032 Y140.703 E12.66886
G1 X119.328 Y141.006 E12.68416
G1 X119.045 Y141.107 E12.69016
G1 X118.38 Y141.302 E12.70398
G1 X117.553 Y141.433 E12.72069
G1 X116.889 Y141.478 E12.73398
G1 X115.744 Y141.5 E12.75683
G1 X114.98 Y141.5 E12.77208
G1 X112.337 Y141.537 E12.82482
G1 X109.637 Y141.652 E12.87876
G1 X107.009 Y141.838 E12.93133
G1 X104.325 Y142.104 E12.98516
G1 X101.753 Y142.433 E13.0369
G1 X98.781 Y142.903 E13.09695
G1 X98.014 Y142.974 E13.11232
G1 X97.525 Y142.985 E13.12208
G1 X92.598 Y142.984 E13.2204
G1 X91.897 Y142.974 E13.23439
G1 X90.884 Y142.873 E13.25471
G1 X90.641 Y142.828 E13.25964
G1 X88.208 Y142.339 E13.30917
G1 X85.623 Y141.895 E13.36151
G1 X82.951 Y141.515 E13.41537
G1 X82.266 Y141.423 E13.42916
G1 X81.766 Y141.332 E13.4393
G1 X81.541 Y141.281 E13.44391
G1 X80.875 Y141.089 E13.45774
G1 X80.237 Y140.828 E13.47149
G1 X79.518 Y140.454 E13.48767
G1 X79.472 Y140.426 E13.48874
G1 X78.716 Y139.881 E13.50734
G1 X78.449 Y139.655 E13.51432
G1 X77.947 Y139.177 E13.52815
G1 X77.47 Y138.6 E13.54309
G1 X77.319 Y138.392 E13.54822
G1 X76.807 Y137.55 E13.56789
G1 X76.776 Y137.488 E13.56927
G1 X76.493 Y136.824 E13.58368
G1 X76.394 Y136.547 E13.58955
G1 X76.199 Y135.883 E13.60336
G1 X76.067 Y135.057 E13.62005
G1 X76.022 Y134.391 E13.63337
G1 X76 Y133.244 E13.65626
G1 X76.001 Y66.37 E14.99081
G1 X76.013 Y65.746 E15.00326
G1 X76.037 Y65.249 E15.01319
G1 X76.11 Y64.56 E15.02702
G1 X76.244 Y63.951 E15.03946
G1 X76.312 Y63.703 E15.04459
G1 X76.533 Y63.047 E15.05841
G1 X76.759 Y62.553 E15.06925
G1 X76.861 Y62.354 E15.07371
G1 X77.211 Y61.757 E15.08752
G1 X77.611 Y61.226 E15.10079
G0 F3600 X77.917 Y61.483
G1 F1500 X78.136 Y61.223 E15.10757
G1 X78.597 Y60.738 E15.12093
G1 X79.09 Y60.328 E15.13372
G1 X79.301 Y60.172 E15.13896
G1 X80.092 Y59.683 E15.15752
G1 X80.151 Y59.653 E15.15884
G1 X80.807 Y59.371 E15.17309
G1 X81.09 Y59.27 E15.17908
G1 X81.732 Y59.083 E15.19243
G1 X82.482 Y58.965 E15.20758
G1 X83.119 Y58.922 E15.22032
G1 X84.256 Y58.9 E15.24302
G1 X116.044 Y58.9 E15.87738
G1 X116.546 Y58.907 E15.8874
G1 X117.232 Y58.937 E15.9011
G1 X117.897 Y59.009 E15.91445
G1 X118.436 Y59.128 E15.92546
G1 X118.685 Y59.196 E15.93062
G1 X119.319 Y59.41 E15.94397
G1 X119.916 Y59.69 E15.95713
G1 X120.495 Y60.026 E15.97049
G1 X121.006 Y60.409 E15.98323
G1 X121.277 Y60.637 E15.9903
G1 X121.763 Y61.097 E16.00365
G1 X122.173 Y61.59 E16.01645
G1 X122.324 Y61.794 E16.02151
G1 X122.816 Y62.59 E16.04019
G1 X122.848 Y62.653 E16.0416
G1 X123.129 Y63.307 E16.0558
G1 X123.23 Y63.59 E16.0618
G1 X123.417 Y64.232 E16.07514
G1 X123.534 Y64.979 E16.09023
G1 X123.578 Y65.616 E16.10298
G1 X123.6 Y66.742 E16.12545
G1 X123.6 Y90.781 E16.60517
G1 X123.638 Y93.433 E16.6581
G1 X123.752 Y96.12 E16.71177
G1 X123.94 Y98.77 E16.76479
G1 X124.21 Y101.501 E16.81956
G1 X124.378 Y102.953 E16.84873
G1 X124.422 Y103.754 E16.86473
G1 X124.425 Y103.925 E16.86815
G1 X124.423 Y114.059 E17.07038
G1 X124.412 Y114.767 E17.08451
G1 X124.377 Y115.314 E17.09545
G1 X124.067 Y118.033 E17.15006
G1 X123.838 Y120.715 E17.20378
G1 X123.687 Y123.365 E17.25675
G1 X123.61 Y126.065 E17.31065
G1 X123.6 Y127.445 E17.33819
G1 X123.599 Y133.624 E17.4615
G1 X123.588 Y134.228 E17.47356
G1 X123.564 Y134.729 E17.48357
G1 X123.492 Y135.394 E17.49692
G1 X123.381 Y135.904 E17.50733
G1 X123.321 Y136.129 E17.51198
G1 X123.11 Y136.764 E17.52533
G1 X122.822 Y137.386 E17.53901
G1 X122.491 Y137.968 E17.55237
G1 X122.083 Y138.517 E17.56602
G1 X121.864 Y138.777 E17.57281
G1 X121.403 Y139.262 E17.58616
G1 X120.904 Y139.677 E17.59911
G1 X120.691 Y139.834 E17.60439
G1 X119.907 Y140.317 E17.62277
G1 X119.85 Y140.346 E17.62404
G1 X119.193 Y140.629 E17.63832
G1 X118.91 Y140.73 E17.64432
G1 X118.268 Y140.917 E17.65766
G1 X117.518 Y141.035 E17.67281
G1 X116.881 Y141.078 E17.68555
G1 X115.744 Y141.1 E17.70825
G1 X114.974 Y141.1 E17.72361
G1 X112.314 Y141.138 E17.7767
G1 X109.627 Y141.252 E17.83037
G1 X106.978 Y141.44 E17.88337
G1 X104.307 Y141.704 E17.93693
G1 X101.64 Y142.046 E17.99059
G1 X98.719 Y142.507 E18.0496
G1 X98.002 Y142.574 E18.06397
G1 X97.525 Y142.585 E18.0735
G1 X92.604 Y142.584 E18.1717
G1 X91.903 Y142.574 E18.18569
G1 X90.957 Y142.48 E18.20466
G1 X90.72 Y142.435 E18.20948
G1 X88.318 Y141.953 E18.25837
G1 X85.681 Y141.5 E18.31176
G1 X83.01 Y141.119 E18.3656
G1 X82.321 Y141.027 E18.37947
G1 X81.629 Y140.89 E18.39355
G1 X80.987 Y140.704 E18.40689
G1 X80.397 Y140.461 E18.41962
G1 X79.726 Y140.113 E18.43471
G1 X79.68 Y140.085 E18.43578
G1 X78.974 Y139.575 E18.45316
G1 X78.707 Y139.349 E18.46014
G1 X78.223 Y138.887 E18.4735
G1 X77.793 Y138.365 E18.48699
G1 X77.642 Y138.157 E18.49212
G1 X77.165 Y137.371 E18.51047
G1 X77.134 Y137.309 E18.51185
G1 X76.87 Y136.69 E18.52528
G1 X76.771 Y136.413 E18.53115
G1 X76.584 Y135.77 E18.54452
G1 X76.466 Y135.021 E18.55965
G1 X76.422 Y134.383 E18.57241
G1 X76.4 Y133.244 E18.59515
G1 X76.401 Y66.376 E19.92957
G1 X76.413 Y65.765 E19.94176
G1 X76.437 Y65.268 E19.95169
G1 X76.509 Y64.603 E19.96504
G1 X76.629 Y64.057 E19.9762
G1 X76.697 Y63.809 E19.98133
G1 X76.912 Y63.176 E19.99467
G1 X77.217 Y62.537 E20.0088
G1 X77.557 Y61.961 E20.02215
G1 X77.917 Y61.483 E20.03409
G0 F3600 X78.223 Y61.741
G1 F1500 X78.442 Y61.481 E20.04087
G1 X78.887 Y61.015 E20.05373
G1 X79.328 Y60.65 E20.06516
G1 X79.539 Y60.494 E20.07039
G1 X80.273 Y60.04 E20.08762
G1 X80.332 Y60.01 E20.08894
G1 X80.941 Y59.748 E20.10217
G1 X81.224 Y59.647 E20.10816
G1 X81.844 Y59.468 E20.12104
G1 X82.517 Y59.364 E20.13463
G1 X83.127 Y59.322 E20.14683
G1 X84.256 Y59.3 E20.16937
G1 X116.044 Y59.3 E20.80373
G1 X116.718 Y59.312 E20.81719
G1 X117.213 Y59.336 E20.82708
G1 X117.854 Y59.407 E20.83995
G1 X118.58 Y59.582 E20.85485
G1 X119.19 Y59.79 E20.86771
G1 X119.736 Y60.048 E20.87976
G1 X120.293 Y60.373 E20.89263
G1 X120.749 Y60.715 E20.90401
G1 X121.02 Y60.943 E20.91107
G1 X121.486 Y61.388 E20.92393
G1 X121.852 Y61.828 E20.93535
G1 X122.003 Y62.032 E20.94042
G1 X122.459 Y62.771 E20.95775
G1 X122.491 Y62.834 E20.95916
G1 X122.752 Y63.441 E20.97234
G1 X122.853 Y63.724 E20.97834
G1 X123.032 Y64.344 E20.99122
G1 X123.136 Y65.014 E21.00475
G1 X123.178 Y65.624 E21.01695
G1 X123.2 Y66.742 E21.03927
G1 X123.2 Y90.781 E21.51899
G1 X123.238 Y93.456 E21.57238
G1 X123.351 Y96.129 E21.62577
G1 X123.541 Y98.805 E21.6793
G1 X123.81 Y101.515 E21.73365
G1 X123.981 Y102.998 E21.76344
