;FLAVOR:Marlin
;TIME:4407
;Filament used: 1.31152m
;Layer height: 0.12
;MINX:84.714
;MINY:84.714
;MINZ:0.12
;MAXX:115.286
;MAXY:115.285
;MAXZ:20.04
;Generated with Cura_SteamEngine 5.2.1
M82 ;absolute extrusion mode
G21 ; set units to millimeters
M140 S60.0 ; set bed temp
G28 ; Home extruder
G1 Z15 ; Levanta Extrusora
G90 ; use absolute positioning
M82 ; absolute extrusion mode
;M140 S60.0 ; set bed temp
M190 S60.0 ; wait for bed temp
M104 S205.0 ; set extruder temp
G29; Perform Automatic Bed Leveling
M109 S205.0 ; wait for extruder temp
G92 E0.0 ; reset extruder distance position
G92 E0
G92 E0
G1 F1500 E-0.3
;LAYER_COUNT:167
;LAYER:0
M107
G0 F3600 X86.58 Y87.092 Z0.12
;TYPE:SKIRT
G1 F1500 E0
G1 F900 X87.104 Y86.573 E0.0103
G1 X87.68 Y86.113 E0.0206
G1 X88.303 Y85.718 E0.0309
G1 X89.43 Y85.203 E0.04821
G1 X90.33 Y84.93 E0.06135
G1 X91.054 Y84.794 E0.07164
G1 X91.805 Y84.737 E0.08216
G1 X92.889 Y84.715 E0.09731
G1 X107.323 Y84.714 E0.29894
G1 X108.099 Y84.725 E0.30978
G1 X108.834 Y84.776 E0.32007
G1 X109.56 Y84.906 E0.33038
G1 X110.269 Y85.109 E0.34068
G1 X110.96 Y85.366 E0.35098
G1 X111.619 Y85.697 E0.36128
G1 X112.238 Y86.097 E0.37158
G1 X113.021 Y86.75 E0.38582
G1 X113.611 Y87.379 E0.39787
G1 X114.054 Y87.968 E0.40816
G1 X114.431 Y88.602 E0.41846
G1 X114.737 Y89.273 E0.42877
G1 X114.961 Y89.932 E0.43849
G1 X115.145 Y90.646 E0.44879
G1 X115.27 Y91.523 E0.46116
G1 X115.286 Y92.64 E0.47677
G1 X115.286 Y107.418 E0.68321
G1 X115.276 Y108.114 E0.69293
G1 X115.226 Y108.849 E0.70322
G1 X115.096 Y109.575 E0.71353
G1 X114.91 Y110.233 E0.72308
G1 X114.657 Y110.925 E0.73337
G1 X114.33 Y111.586 E0.74367
G1 X113.933 Y112.208 E0.75398
G1 X113.196 Y113.081 E0.76994
G1 X112.563 Y113.659 E0.78191
G1 X111.967 Y114.093 E0.79221
G1 X111.327 Y114.46 E0.80252
G1 X110.492 Y114.821 E0.81523
G1 X109.675 Y115.069 E0.82715
G1 X108.951 Y115.205 E0.83744
G1 X108.195 Y115.263 E0.84804
G1 X107.111 Y115.285 E0.86318
G1 X92.576 Y115.285 E1.06622
G1 X91.901 Y115.275 E1.07566
G1 X91.166 Y115.224 E1.08595
G1 X90.44 Y115.094 E1.09625
G1 X89.731 Y114.891 E1.10655
G1 X89.04 Y114.634 E1.11685
G1 X88.381 Y114.303 E1.12715
G1 X87.762 Y113.903 E1.13745
G1 X86.979 Y113.25 E1.15169
G1 X86.389 Y112.621 E1.16374
G1 X85.946 Y112.032 E1.17403
G1 X85.569 Y111.398 E1.18434
G1 X85.263 Y110.727 E1.19464
G1 X85.047 Y110.096 E1.20396
G1 X84.861 Y109.383 E1.21425
G1 X84.753 Y108.654 E1.22454
G1 X84.725 Y108.128 E1.2319
G1 X84.714 Y107.359 E1.24265
G1 X84.714 Y92.582 E1.44907
G1 X84.724 Y91.885 E1.45881
G1 X84.774 Y91.15 E1.4691
G1 X84.904 Y90.424 E1.4794
G1 X85.131 Y89.636 E1.49086
G1 X85.388 Y88.945 E1.50116
G1 X85.717 Y88.285 E1.51146
G1 X86.116 Y87.665 E1.52176
G1 X86.58 Y87.092 E1.53206
G0 F3600 X86.935 Y87.297
G1 F900 X87.45 Y86.801 E1.54204
G1 X88.017 Y86.365 E1.55204
G1 X88.63 Y85.996 E1.56203
G1 X89.58 Y85.574 E1.57655
G1 X90.445 Y85.314 E1.58917
G1 X91.149 Y85.185 E1.59917
G1 X91.813 Y85.137 E1.60847
G1 X92.897 Y85.115 E1.62361
G1 X107.323 Y85.114 E1.82513
G1 X108.093 Y85.125 E1.83589
G1 X108.806 Y85.175 E1.84588
G1 X109.51 Y85.305 E1.85588
G1 X110.15 Y85.491 E1.86519
G1 X110.82 Y85.742 E1.87518
G1 X111.457 Y86.066 E1.88516
G1 X112.055 Y86.459 E1.89516
G1 X112.75 Y87.044 E1.90785
G1 X113.318 Y87.653 E1.91948
G1 X113.745 Y88.226 E1.92947
G1 X114.106 Y88.844 E1.93946
G1 X114.546 Y89.917 E1.95566
G1 X114.756 Y90.745 E1.9676
G1 X114.87 Y91.565 E1.97916
G1 X114.886 Y92.64 E1.99418
G1 X114.886 Y107.412 E2.20053
G1 X114.876 Y108.108 E2.21026
G1 X114.826 Y108.821 E2.22024
G1 X114.697 Y109.525 E2.23024
G1 X114.527 Y110.116 E2.23883
G1 X114.28 Y110.787 E2.24882
G1 X113.96 Y111.427 E2.25882
G1 X113.57 Y112.026 E2.2688
G1 X112.908 Y112.805 E2.28308
G1 X112.293 Y113.362 E2.29467
G1 X111.713 Y113.78 E2.30466
G1 X111.09 Y114.131 E2.31465
G1 X110.349 Y114.447 E2.3259
G1 X109.559 Y114.685 E2.33743
G1 X108.856 Y114.814 E2.34741
G1 X108.187 Y114.863 E2.35678
G1 X107.103 Y114.885 E2.37193
G1 X92.582 Y114.885 E2.57477
G1 X91.907 Y114.875 E2.58421
G1 X91.194 Y114.825 E2.59419
G1 X90.49 Y114.695 E2.60419
G1 X89.85 Y114.509 E2.6135
G1 X89.18 Y114.258 E2.6235
G1 X88.543 Y113.934 E2.63348
G1 X87.945 Y113.541 E2.64347
G1 X87.25 Y112.956 E2.65616
G1 X86.682 Y112.347 E2.6678
G1 X86.255 Y111.774 E2.67778
G1 X85.894 Y111.156 E2.68778
G1 X85.462 Y110.108 E2.70361
G1 X85.248 Y109.282 E2.71553
G1 X85.13 Y108.444 E2.72735
G1 X85.114 Y107.359 E2.74251
G1 X85.114 Y92.588 E2.94885
G1 X85.124 Y91.891 E2.95859
G1 X85.174 Y91.178 E2.96857
G1 X85.303 Y90.474 E2.97857
G1 X85.513 Y89.755 E2.98904
G1 X85.763 Y89.084 E2.99904
G1 X86.086 Y88.446 E3.00903
G1 X86.478 Y87.848 E3.01902
G1 X86.935 Y87.297 E3.02902
G0 F3600 X87.288 Y87.505
G1 F900 X87.795 Y87.033 E3.03869
G1 X88.353 Y86.623 E3.04837
G1 X88.954 Y86.279 E3.05804
G1 X89.735 Y85.945 E3.06991
G1 X90.56 Y85.697 E3.08194
G1 X91.242 Y85.577 E3.09161
G1 X91.821 Y85.537 E3.09972
G1 X92.905 Y85.515 E3.11487
G1 X107.323 Y85.514 E3.31628
G1 X108.087 Y85.525 E3.32695
G1 X108.778 Y85.575 E3.33663
G1 X109.886 Y85.818 E3.35247
G1 X110.679 Y86.117 E3.36431
G1 X111.295 Y86.434 E3.37399
G1 X111.87 Y86.82 E3.38366
G1 X112.477 Y87.338 E3.39481
G1 X113.025 Y87.926 E3.40604
G1 X113.436 Y88.484 E3.41572
G1 X113.779 Y89.085 E3.42539
G1 X114.165 Y90.043 E3.43981
G1 X114.368 Y90.844 E3.45136
G1 X114.471 Y91.623 E3.46233
G1 X114.486 Y92.64 E3.47654
G1 X114.486 Y107.406 E3.68281
G1 X114.476 Y108.102 E3.69254
G1 X114.426 Y108.793 E3.70221
G1 X114.194 Y109.865 E3.71754
G1 X113.905 Y110.648 E3.7292
G1 X113.591 Y111.266 E3.73888
G1 X113.208 Y111.843 E3.74855
G1 X112.619 Y112.528 E3.76117
G1 X112.025 Y113.065 E3.77236
G1 X111.461 Y113.467 E3.78203
G1 X110.854 Y113.801 E3.79171
G1 X110.204 Y114.074 E3.80156
G1 X109.444 Y114.301 E3.81264
G1 X108.762 Y114.422 E3.82232
G1 X108.179 Y114.463 E3.83048
G1 X107.095 Y114.485 E3.84563
G1 X92.588 Y114.485 E4.04828
G1 X91.913 Y114.475 E4.05771
G1 X91.222 Y114.425 E4.06739
G1 X90.114 Y114.182 E4.08323
G1 X89.321 Y113.883 E4.09507
G1 X88.705 Y113.566 E4.10475
G1 X88.13 Y113.18 E4.11442
G1 X87.523 Y112.662 E4.12557
G1 X86.975 Y112.074 E4.1368
G1 X86.564 Y111.516 E4.14648
G1 X86.221 Y110.915 E4.15615
G1 X85.842 Y109.98 E4.17024
G1 X85.636 Y109.182 E4.18175
G1 X85.529 Y108.402 E4.19275
G1 X85.514 Y107.359 E4.20732
G1 X85.514 Y92.594 E4.41358
G1 X85.524 Y91.897 E4.42332
G1 X85.573 Y91.206 E4.43299
G1 X85.822 Y90.067 E4.44928
G1 X86.138 Y89.225 E4.46184
G1 X86.455 Y88.608 E4.47153
G1 X86.84 Y88.033 E4.4812
G1 X87.288 Y87.505 E4.49087
G0 F3600 X87.641 Y87.717
G1 F900 X88.139 Y87.269 E4.50023
G1 X88.686 Y86.885 E4.50957
G1 X89.275 Y86.568 E4.51891
G1 X90.033 Y86.272 E4.53028
G1 X90.675 Y86.082 E4.53963
G1 X91.479 Y85.944 E4.55103
G1 X92.913 Y85.915 E4.57106
G1 X107.323 Y85.914 E4.77236
G1 X108.081 Y85.925 E4.78295
G1 X108.748 Y85.974 E4.79229
G1 X109.771 Y86.202 E4.80693
G1 X110.537 Y86.492 E4.81837
G1 X111.13 Y86.802 E4.82772
G1 X111.682 Y87.18 E4.83707
G1 X112.207 Y87.632 E4.84674
G1 X112.732 Y88.199 E4.85754
G1 X113.125 Y88.74 E4.86688
G1 X113.451 Y89.324 E4.87622
G1 X113.786 Y90.169 E4.88892
G1 X113.98 Y90.942 E4.90005
G1 X114.075 Y91.893 E4.9134
G1 X114.086 Y92.64 E4.92384
G1 X114.086 Y107.4 E5.13003
G1 X114.076 Y108.096 E5.13975
G1 X114.027 Y108.764 E5.14911
G1 X113.81 Y109.752 E5.16324
G1 X113.529 Y110.509 E5.17452
G1 X113.222 Y111.104 E5.18387
G1 X112.847 Y111.658 E5.19322
G1 X112.329 Y112.252 E5.20423
G1 X111.756 Y112.767 E5.21499
G1 X111.209 Y113.152 E5.22433
G1 X110.62 Y113.469 E5.23368
G1 X109.971 Y113.727 E5.24343
G1 X109.329 Y113.918 E5.25279
G1 X108.67 Y114.03 E5.26213
G1 X108.171 Y114.063 E5.26911
G1 X107.087 Y114.085 E5.28426
G1 X92.594 Y114.085 E5.48671
G1 X91.919 Y114.075 E5.49614
G1 X91.252 Y114.026 E5.50549
G1 X90.229 Y113.798 E5.52013
G1 X89.463 Y113.508 E5.53157
G1 X88.87 Y113.198 E5.54092
G1 X88.318 Y112.82 E5.55026
G1 X87.793 Y112.368 E5.55994
G1 X87.268 Y111.801 E5.57073
G1 X86.875 Y111.26 E5.58008
G1 X86.549 Y110.676 E5.58942
G1 X86.22 Y109.851 E5.60183
G1 X86.025 Y109.083 E5.61289
G1 X85.925 Y108.11 E5.62656
G1 X85.914 Y107.359 E5.63705
G1 X85.914 Y92.6 E5.84322
G1 X85.924 Y91.903 E5.85296
G1 X85.973 Y91.235 E5.86232
G1 X86.206 Y90.18 E5.87741
G1 X86.514 Y89.366 E5.88957
G1 X86.823 Y88.772 E5.89892
G1 X87.2 Y88.22 E5.90826
G1 X87.641 Y87.717 E5.9176
G0 F3600 X87.992 Y87.931
G1 F900 X88.48 Y87.51 E5.92661
G1 X89.017 Y87.153 E5.93561
G1 X89.979 Y86.704 E5.95044
G1 X90.788 Y86.466 E5.96222
G1 X91.54 Y86.343 E5.97287
G1 X92.921 Y86.315 E5.99216
G1 X107.323 Y86.314 E6.19335
G1 X108.075 Y86.325 E6.20386
G1 X108.718 Y86.374 E6.21286
G1 X109.655 Y86.584 E6.22628
G1 X110.395 Y86.866 E6.23734
G1 X110.964 Y87.169 E6.24635
G1 X111.492 Y87.539 E6.25535
G1 X112 Y87.997 E6.26491
G1 X112.438 Y88.471 E6.27392
G1 X112.813 Y88.995 E6.28292
G1 X113.121 Y89.562 E6.29194
G1 X113.406 Y90.297 E6.30295
G1 X113.591 Y91.039 E6.31363
G1 X113.675 Y91.899 E6.3257
G1 X113.686 Y92.64 E6.33606
G1 X113.686 Y107.395 E6.54217
G1 X113.676 Y108.091 E6.5519
G1 X113.627 Y108.733 E6.56089
G1 X113.428 Y109.638 E6.57383
G1 X113.154 Y110.369 E6.58474
G1 X112.854 Y110.94 E6.59375
G1 X112.487 Y111.469 E6.60274
G1 X112.04 Y111.976 E6.61219
G1 X111.489 Y112.469 E6.62251
G1 X110.959 Y112.836 E6.63152
G1 X110.388 Y113.135 E6.64052
G1 X109.834 Y113.351 E6.64883
G1 X109.216 Y113.533 E6.65783
G1 X108.466 Y113.657 E6.66845
G1 X107.079 Y113.685 E6.68783
G1 X92.6 Y113.685 E6.89009
G1 X91.925 Y113.675 E6.89952
G1 X91.282 Y113.626 E6.90853
G1 X90.345 Y113.416 E6.92194
G1 X89.605 Y113.134 E6.933
G1 X89.036 Y112.831 E6.94201
G1 X88.508 Y112.461 E6.95101
G1 X88 Y112.003 E6.96057
G1 X87.562 Y111.529 E6.96959
G1 X87.187 Y111.005 E6.97859
G1 X86.879 Y110.438 E6.9876
G1 X86.599 Y109.721 E6.99835
G1 X86.413 Y108.984 E7.00897
G1 X86.325 Y108.104 E7.02133
G1 X86.314 Y107.359 E7.03173
G1 X86.314 Y92.605 E7.23784
G1 X86.324 Y91.908 E7.24757
G1 X86.373 Y91.266 E7.25657
G1 X86.59 Y90.296 E7.27045
G1 X86.888 Y89.507 E7.28223
G1 X87.19 Y88.938 E7.29123
G1 X87.56 Y88.41 E7.30024
G1 X87.992 Y87.931 E7.30925
G1 F1500 E7.00925
;MESH:Dado.stl
G0 F3600 X91.202 Y91.19
G0 X92.114 Y92.114
;TYPE:WALL-INNER
G1 F1500 E7.30925
G1 F1200 X92.115 Y107.885 E7.52956
G1 X107.887 Y107.886 E7.74988
G1 X107.887 Y92.113 E7.97022
G1 X92.114 Y92.114 E8.19056
G1 F1500 E7.89056
G0 F3600 X92.214 Y92.384
G0 X95.801 Y92.313
G0 X98.83 Y97.765
G0 X98.828 Y97.96
G1 F1500 E8.19056
G1 F1200 X99.441 Y97.725 E8.19973
G1 X100.079 Y97.663 E8.20868
G1 X100.681 Y97.762 E8.2172
G1 X101.239 Y98.014 E8.22576
G1 X101.658 Y98.342 E8.23319
G1 X102.04 Y98.83 E8.24185
G1 X102.278 Y99.468 E8.25136
G1 X102.343 Y99.999 E8.25883
G1 X102.275 Y100.558 E8.2667
G1 X102.04 Y101.172 E8.27588
G1 X101.659 Y101.659 E8.28452
G1 X101.172 Y102.04 E8.29316
G1 X100.558 Y102.275 E8.30234
G1 X99.921 Y102.337 E8.31128
G1 X99.318 Y102.238 E8.31982
G1 X98.761 Y101.986 E8.32836
G1 X98.342 Y101.658 E8.33579
G1 X97.961 Y101.171 E8.34443
G1 X97.725 Y100.558 E8.35361
G1 X97.662 Y100.078 E8.36037
G1 X97.721 Y99.467 E8.36894
G1 X97.961 Y98.827 E8.37849
G1 X98.341 Y98.341 E8.38711
G1 X98.828 Y97.96 E8.39575
G0 F3600 X98.624 Y98.624
;TYPE:WALL-OUTER
G1 F1200 X99.05 Y98.303 E8.4032
G1 X99.51 Y98.119 E8.41012
G1 X100.027 Y98.059 E8.41739
G1 X100.529 Y98.132 E8.42448
G1 X100.949 Y98.304 E8.43082
G1 X101.375 Y98.625 E8.43827
G1 X101.695 Y99.05 E8.4457
G1 X101.882 Y99.52 E8.45277
G1 X101.943 Y99.999 E8.45951
G1 X101.881 Y100.489 E8.46641
G1 X101.697 Y100.95 E8.47334
G1 X101.376 Y101.376 E8.4808
G1 X100.95 Y101.697 E8.48825
G1 X100.489 Y101.881 E8.49518
G1 X99.973 Y101.941 E8.50244
G1 X99.47 Y101.868 E8.50954
G1 X99.051 Y101.696 E8.51586
G1 X98.625 Y101.375 E8.52332
G1 X98.304 Y100.948 E8.53078
G1 X98.119 Y100.489 E8.53769
G1 X98.059 Y99.974 E8.54493
G1 X98.118 Y99.519 E8.55134
G1 X98.305 Y99.048 E8.55842
G1 X98.624 Y98.624 E8.56583
G0 F3600 X98.783 Y98.504
G1 F1500 E8.26583
G0 F3600 X98.478 Y98.104
G0 X92.314 Y96.753
G0 X91.852 Y91.765
G1 F1500 E8.56583
G1 F1200 X91.759 Y91.858 E8.56767
G1 X91.713 Y91.999 E8.56974
G1 X91.715 Y108.002 E8.79329
G1 X91.759 Y108.143 E8.79536
G1 X91.853 Y108.236 E8.7972
G1 X92 Y108.286 E8.79937
G1 X107.999 Y108.286 E9.02287
G1 X108.148 Y108.235 E9.02507
G1 X108.241 Y108.142 E9.0269
G1 X108.287 Y108.001 E9.02898
G1 X108.287 Y92.049 E9.25181
G1 X108.241 Y91.856 E9.25459
G1 X108.148 Y91.764 E9.25641
G1 X108 Y91.714 E9.25859
G1 X92.001 Y91.714 E9.48209
G1 X91.852 Y91.765 E9.48429
G0 F3600 X91.759 Y91.858
G0 X91.738 Y91.923
G0 X92.495 Y92.494
;TYPE:SKIN
G1 F1200 X92.495 Y99.703 E9.58499
G1 X92.495 Y107.505 E9.69398
G1 X107.507 Y107.506 E9.90369
G1 X107.507 Y92.493 E10.11341
G1 X92.495 Y92.494 E10.32311
G1 F1500 E10.02311
G0 F3600 X92.214 Y92.494
G0 X92.314 Y96.753
G0 X97.483 Y99.898
G0 X97.622 Y101.355
G1 F1500 E10.32311
G1 F1200 X97.35 Y100.626 E10.33398
G1 X97.276 Y100.003 E10.34275
G1 X97.344 Y99.42 E10.35095
G1 X97.622 Y98.642 E10.36249
G1 X98.069 Y98.072 E10.37261
G1 X98.638 Y97.625 E10.38272
G1 X99.373 Y97.35 E10.39368
G1 X100 Y97.276 E10.4025
G1 X100.581 Y97.345 E10.41067
G1 X101.359 Y97.623 E10.42221
G1 X101.925 Y98.07 E10.43229
G1 X102.381 Y98.648 E10.44257
G1 X102.645 Y99.375 E10.45338
G1 X102.725 Y99.996 E10.46212
G1 X102.65 Y100.626 E10.47098
G1 X102.378 Y101.358 E10.48189
G1 X101.931 Y101.928 E10.49201
G1 X101.362 Y102.376 E10.50213
G1 X100.626 Y102.65 E10.5131
G1 X100 Y102.724 E10.52191
G1 X99.419 Y102.655 E10.53008
G1 X98.672 Y102.388 E10.54116
G1 X98.617 Y102.358 E10.54204
G1 X98.07 Y101.925 E10.55178
G1 X97.622 Y101.355 E10.56191
G1 F1500 E10.26191
G0 F3600 X97.811 Y101.066
G0 X97.751 Y107.685
G0 X93.162 Y107.304
G1 F1500 E10.56191
G1 F1200 X92.694 Y106.836 E10.57115
G0 F3600 X92.694 Y106.271
G1 F1200 X93.727 Y107.304 E10.59156
G0 F3600 X94.293 Y107.304
G1 F1200 X92.694 Y105.705 E10.62315
G0 F3600 X92.694 Y105.139
G1 F1200 X94.859 Y107.304 E10.66592
G0 F3600 X95.424 Y107.304
G1 F1200 X92.694 Y104.574 E10.71985
G0 F3600 X92.694 Y104.008
G1 F1200 X95.99 Y107.304 E10.78497
G0 F3600 X96.556 Y107.304
G1 F1200 X92.694 Y103.442 E10.86126
G0 F3600 X92.694 Y102.876
G1 F1200 X97.121 Y107.304 E10.94873
G0 F3600 X97.688 Y107.304
G1 F1200 X92.694 Y102.311 E11.04738
G0 F3600 X92.694 Y101.745
G1 F1200 X98.253 Y107.304 E11.1572
G0 F3600 X98.819 Y107.304
G1 F1200 X92.694 Y101.179 E11.2782
G0 F3600 X92.694 Y100.614
G1 F1200 X99.385 Y107.304 E11.41038
G0 F3600 X99.95 Y107.304
G1 F1200 X92.694 Y100.048 E11.55372
G0 F3600 X92.693 Y99.482
G1 F1200 X100.516 Y107.304 E11.70826
G0 F3600 X101.082 Y107.304
G1 F1200 X92.693 Y98.916 E11.87398
G0 F3600 X92.693 Y98.35
G1 F1200 X101.648 Y107.304 E12.05088
G0 F3600 X102.213 Y107.304
G1 F1200 X92.693 Y97.785 E12.23894
G0 F3600 X92.693 Y97.219
G1 F1200 X102.78 Y107.305 E12.43821
G0 F3600 X103.345 Y107.305
G1 F1200 X98.623 Y102.582 E12.5315
G1 X98.553 Y102.512
G0 F3600 X99.468 Y102.862
G1 F1200 X103.911 Y107.305 E12.61928
G0 F3600 X104.477 Y107.305
G1 F1200 X100.086 Y102.915 E12.70601
G0 F3600 X100.592 Y102.855
G1 F1200 X105.042 Y107.305 E12.79393
G0 F3600 X105.608 Y107.305
G1 F1200 X101.021 Y102.718 E12.88454
G0 F3600 X101.432 Y102.563
G1 F1200 X106.174 Y107.305 E12.97822
G0 F3600 X106.739 Y107.305
G1 F1200 X101.755 Y102.321 E13.07669
G0 F3600 X102.071 Y102.071
G1 F1200 X107.306 Y107.306 E13.18011
G0 F3600 X107.306 Y106.74
G1 F1200 X102.319 Y101.754 E13.27862
G0 F3600 X102.562 Y101.43
G1 F1200 X107.306 Y106.174 E13.37234
G0 F3600 X107.306 Y105.609
G1 F1200 X102.717 Y101.02 E13.463
G0 F3600 X102.854 Y100.591
G1 F1200 X107.306 Y105.043 E13.55095
G0 F3600 X107.306 Y104.477
G1 F1200 X102.915 Y100.086 E13.63769
G0 F3600 X102.862 Y99.468
G1 F1200 X107.306 Y103.912 E13.72549
G0 F3600 X107.306 Y103.346
G1 F1200 X102.584 Y98.624 E13.81877
G1 X102.514 Y98.554
G0 F3600 X102.189 Y98.935
G0 X101.131 Y97.837
G0 X101.376 Y97.416
G1 F1200 X96.653 Y92.693 E13.91208
G0 F3600 X96.088 Y92.693
G1 F1200 X100.53 Y97.136 E13.99984
G0 F3600 X99.912 Y97.084
G1 F1200 X95.522 Y92.693 E14.08658
G0 F3600 X94.956 Y92.693
G1 F1200 X99.406 Y97.143 E14.17449
G0 F3600 X98.977 Y97.28
G1 F1200 X94.39 Y92.693 E14.26511
G0 F3600 X93.825 Y92.693
G1 F1200 X98.567 Y97.436 E14.3588
G0 F3600 X98.244 Y97.679
G1 F1200 X93.259 Y92.693 E14.45729
