;FLAVOR:Marlin
;TIME:5721
;Filament used: 2.72709m
;Layer height: 0.12
;MINX:71.908
;MINY:46.977
;MINZ:0.12
;MAXX:153.691
;MAXY:131.786
;MAXZ:3.6
;Generated with Cura_SteamEngine 4.13.1
M82 ;absolute extrusion mode
G21 ; set units to millimeters
M140 S60.0 ; set bed temp
G28 ; Home extruder
G1 Z15 ; Levanta Extrusora
G90 ; use absolute positioning
M82 ; absolute extrusion mode
;M140 S60.0 ; set bed temp
M190 S60.0 ; wait for bed temp
M104 S210.0 ; set extruder temp
G29; Perform Automatic Bed Leveling
M109 S210.0 ; wait for extruder temp
G92 E0.0 ; reset extruder distance position
G92 E0
G92 E0
G1 F1500 E-0.3
;LAYER_COUNT:30
;LAYER:0
M107
G0 F3600 X98.635 Y57.25 Z0.12
;TYPE:SKIRT
G1 F1500 E0
G1 X99.074 Y56.657 E0.01472
G1 X99.574 Y56.116 E0.02942
G1 X100.129 Y55.631 E0.04413
G1 X100.734 Y55.209 E0.05885
G1 X101.381 Y54.856 E0.07356
G1 X102.063 Y54.574 E0.08829
G1 X102.599 Y54.411 E0.09947
G1 X103.139 Y54.271 E0.1106
G1 X104.861 Y53.848 E0.14599
G1 X107.387 Y53.151 E0.19828
G1 X109.944 Y52.366 E0.25166
G1 X112.408 Y51.534 E0.30356
G1 X114.89 Y50.616 E0.35637
G1 X117.341 Y49.631 E0.40908
G1 X119.766 Y48.573 E0.46188
G1 X121.13 Y47.943 E0.49187
G1 X121.815 Y47.671 E0.50657
G1 X122.39 Y47.505 E0.51852
G1 X122.954 Y47.374 E0.53007
G1 X123.57 Y47.244 E0.54264
G1 X124.278 Y47.104 E0.55704
G1 X125.008 Y47.001 E0.57175
G1 X125.745 Y46.977 E0.58647
G1 X126.748 Y47.073 E0.60657
G1 X127.436 Y47.203 E0.62055
G1 X128.048 Y47.333 E0.63303
G1 X128.732 Y47.489 E0.64703
G1 X129.441 Y47.692 E0.66175
G1 X129.991 Y47.909 E0.67355
G1 X130.859 Y48.297 E0.69252
G1 X131.903 Y48.781 E0.71549
G1 X134.334 Y49.824 E0.76828
G1 X136.793 Y50.8 E0.82107
G1 X139.265 Y51.696 E0.87354
G1 X141.751 Y52.522 E0.92582
G1 X144.278 Y53.282 E0.97848
G1 X147.66 Y54.179 E1.04831
G1 X148.508 Y54.388 E1.06574
G1 X149.213 Y54.603 E1.08045
G1 X149.891 Y54.893 E1.09516
G1 X150.534 Y55.255 E1.10989
G1 X151.133 Y55.684 E1.12459
G1 X151.683 Y56.175 E1.1393
G1 X152.176 Y56.723 E1.15401
G1 X152.607 Y57.321 E1.16872
G1 X152.971 Y57.963 E1.18345
G1 X153.263 Y58.64 E1.19816
G1 X153.48 Y59.344 E1.21287
G1 X153.619 Y60.068 E1.22758
G1 X153.679 Y60.801 E1.24226
G1 X153.691 Y61.313 E1.25248
G1 X153.69 Y77.289 E1.57129
G1 X153.68 Y77.978 E1.58504
G1 X153.63 Y78.713 E1.59975
G1 X153.5 Y79.439 E1.61447
G1 X153.292 Y80.146 E1.62917
G1 X153.009 Y80.827 E1.64389
G1 X152.653 Y81.473 E1.65861
G1 X152.214 Y82.098 E1.67385
G1 X151.531 Y82.959 E1.69578
G1 X143.224 Y93.04 E1.95646
G1 X141.55 Y95.132 E2.00993
G1 X139.947 Y97.253 E2.06299
G1 X138.424 Y99.394 E2.11542
G1 X136.962 Y101.576 E2.16783
G1 X135.562 Y103.8 E2.22028
G1 X134.211 Y106.088 E2.2733
G1 X132.937 Y108.39 E2.32581
G1 X131.73 Y110.726 E2.37828
G1 X130.589 Y113.093 E2.43072
G1 X129.505 Y115.518 E2.48373
G1 X128.498 Y117.953 E2.53631
G1 X127.641 Y120.186 E2.58404
G1 X127.41 Y120.718 E2.59562
G1 X127.056 Y121.364 E2.61032
G1 X126.633 Y121.968 E2.62503
G1 X126.148 Y122.523 E2.63974
G1 X125.605 Y123.022 E2.65446
G1 X125.012 Y123.46 E2.66917
G1 X124.374 Y123.83 E2.68389
G1 X123.7 Y124.13 E2.69861
G1 X123 Y124.354 E2.71328
G1 X122.466 Y124.493 E2.72429
G1 X120.73 Y124.919 E2.75996
G1 X118.202 Y125.617 E2.8123
G1 X115.717 Y126.379 E2.86417
G1 X113.17 Y127.239 E2.91781
G1 X110.719 Y128.145 E2.96996
G1 X108.271 Y129.129 E3.02261
G1 X105.849 Y130.184 E3.07533
G1 X104.49 Y130.814 E3.10523
G1 X103.805 Y131.087 E3.11994
G1 X103.28 Y131.241 E3.13086
G1 X102.852 Y131.345 E3.13965
G1 X102.185 Y131.49 E3.15327
G1 X101.27 Y131.667 E3.17187
G1 X100.539 Y131.767 E3.18659
G1 X99.802 Y131.786 E3.20131
G1 X98.782 Y131.681 E3.22177
G1 X98.083 Y131.544 E3.23598
G1 X97.565 Y131.435 E3.24655
G1 X96.879 Y131.28 E3.26058
G1 X96.17 Y131.079 E3.27529
G1 X95.595 Y130.851 E3.28763
G1 X94.787 Y130.488 E3.30531
G1 X93.79 Y130.025 E3.32725
G1 X91.324 Y128.966 E3.3808
G1 X88.878 Y127.993 E3.43334
G1 X86.445 Y127.107 E3.48501
G1 X83.89 Y126.256 E3.53875
G1 X81.417 Y125.51 E3.5903
G1 X77.857 Y124.564 E3.66381
G1 X77.101 Y124.379 E3.67934
G1 X76.395 Y124.165 E3.69406
G1 X75.717 Y123.876 E3.70877
G1 X75.074 Y123.516 E3.72348
G1 X74.474 Y123.088 E3.73818
G1 X73.923 Y122.597 E3.75291
G1 X73.429 Y122.05 E3.76762
G1 X72.998 Y121.452 E3.78233
G1 X72.633 Y120.811 E3.79705
G1 X72.34 Y120.135 E3.81175
G1 X72.122 Y119.43 E3.82648
G1 X71.981 Y118.707 E3.84118
G1 X71.919 Y117.957 E3.8562
G1 X71.908 Y117.439 E3.86654
G1 X71.909 Y101.477 E4.18508
G1 X71.919 Y100.788 E4.19883
G1 X71.969 Y100.053 E4.21353
G1 X72.099 Y99.327 E4.22825
G1 X72.307 Y98.62 E4.24295
G1 X72.59 Y97.939 E4.25767
G1 X72.946 Y97.293 E4.27239
G1 X73.387 Y96.665 E4.28771
G1 X74.004 Y95.886 E4.30754
G1 X82.381 Y85.719 E4.57043
G1 X84.054 Y83.629 E4.62385
G1 X85.641 Y81.527 E4.67641
G1 X87.173 Y79.374 E4.72915
G1 X88.643 Y77.181 E4.78183
G1 X90.046 Y74.952 E4.83439
G1 X91.381 Y72.692 E4.88677
G1 X92.645 Y70.408 E4.93887
G1 X93.875 Y68.029 E4.99231
G1 X95.01 Y65.671 E5.04454
G1 X96.092 Y63.252 E5.09742
G1 X97.098 Y60.82 E5.14994
G1 X97.963 Y58.56 E5.19823
G1 X98.264 Y57.887 E5.21295
G1 X98.635 Y57.25 E5.22766
G0 F3600 X98.993 Y57.435
G1 F1500 X99.423 Y56.863 E5.24194
G1 X99.914 Y56.343 E5.25621
G1 X100.46 Y55.881 E5.27048
G1 X101.055 Y55.483 E5.28477
G1 X101.69 Y55.154 E5.29904
G1 X102.7 Y54.798 E5.32041
G1 X103.235 Y54.659 E5.33144
G1 X104.958 Y54.235 E5.36685
G1 X107.528 Y53.527 E5.42005
G1 X110.051 Y52.752 E5.47272
G1 X112.526 Y51.916 E5.52485
G1 X115.054 Y50.982 E5.57864
G1 X117.472 Y50.009 E5.63065
G1 X119.935 Y48.935 E5.68427
G1 X121.297 Y48.306 E5.71421
G1 X121.962 Y48.043 E5.72848
G1 X122.484 Y47.894 E5.73931
G1 X123.041 Y47.764 E5.75073
G1 X123.648 Y47.637 E5.7631
G1 X124.356 Y47.497 E5.77751
G1 X125.064 Y47.397 E5.79178
G1 X125.779 Y47.378 E5.80605
G1 X126.681 Y47.467 E5.82414
G1 X127.358 Y47.596 E5.83789
G1 X127.959 Y47.723 E5.85015
G1 X128.643 Y47.879 E5.86415
G1 X129.33 Y48.077 E5.87842
G1 X129.828 Y48.274 E5.88911
G1 X130.691 Y48.66 E5.90797
G1 X131.756 Y49.153 E5.93139
G1 X134.164 Y50.187 E5.98369
G1 X136.647 Y51.172 E6.037
G1 X139.118 Y52.068 E6.08945
G1 X141.647 Y52.908 E6.14263
G1 X144.15 Y53.661 E6.19479
G1 X147.637 Y54.586 E6.26678
G1 X148.412 Y54.777 E6.28271
G1 X149.096 Y54.986 E6.29699
G1 X149.752 Y55.271 E6.31126
G1 X150.373 Y55.627 E6.32554
G1 X150.949 Y56.05 E6.33981
G1 X151.475 Y56.535 E6.35408
G1 X151.944 Y57.075 E6.36836
G1 X152.349 Y57.664 E6.38262
G1 X152.686 Y58.295 E6.3969
G1 X152.951 Y58.96 E6.41118
G1 X153.14 Y59.649 E6.42544
G1 X153.25 Y60.356 E6.43972
G1 X153.289 Y61.134 E6.45526
G1 X153.291 Y61.313 E6.45884
G1 X153.29 Y77.283 E6.77754
G1 X153.28 Y77.972 E6.79129
G1 X153.23 Y78.685 E6.80555
G1 X153.1 Y79.389 E6.81984
G1 X152.893 Y80.073 E6.8341
G1 X152.611 Y80.73 E6.84837
G1 X152.257 Y81.352 E6.86265
G1 X151.901 Y81.849 E6.87485
G1 X151.222 Y82.705 E6.89665
G1 X142.922 Y92.777 E7.1571
G1 X141.234 Y94.886 E7.21101
G1 X139.618 Y97.026 E7.26453
G1 X138.098 Y99.161 E7.31683
G1 X136.633 Y101.348 E7.36936
G1 X135.197 Y103.63 E7.42316
G1 X133.875 Y105.869 E7.47505
G1 X132.589 Y108.191 E7.52802
G1 X131.364 Y110.562 E7.58128
G1 X130.22 Y112.935 E7.63385
G1 X129.147 Y115.339 E7.68639
G1 X128.12 Y117.819 E7.73996
G1 X127.267 Y120.043 E7.78749
G1 X127.05 Y120.544 E7.79839
G1 X126.705 Y121.171 E7.81267
G1 X126.292 Y121.755 E7.82694
G1 X125.816 Y122.289 E7.84122
G1 X125.284 Y122.768 E7.8555
G1 X124.702 Y123.183 E7.86977
G1 X124.077 Y123.531 E7.88404
G1 X123.418 Y123.807 E7.8983
G1 X122.899 Y123.967 E7.90914
G1 X122.37 Y124.104 E7.92005
G1 X120.675 Y124.52 E7.95488
G1 X118.084 Y125.235 E8.00851
G1 X115.577 Y126.004 E8.06084
G1 X113.051 Y126.857 E8.11405
G1 X110.555 Y127.779 E8.16715
G1 X108.11 Y128.763 E8.21975
G1 X105.699 Y129.813 E8.27222
G1 X104.322 Y130.451 E8.30251
G1 X103.657 Y130.715 E8.31679
G1 X102.959 Y130.909 E8.33125
G1 X102.767 Y130.954 E8.33518
G1 X102.1 Y131.099 E8.3488
G1 X101.194 Y131.274 E8.36722
G1 X100.485 Y131.37 E8.3815
G1 X99.77 Y131.385 E8.39577
G1 X98.853 Y131.287 E8.41417
G1 X98.162 Y131.152 E8.42822
G1 X97.653 Y131.045 E8.4386
G1 X96.967 Y130.89 E8.45264
G1 X96.28 Y130.693 E8.4669
G1 X95.759 Y130.486 E8.47809
G1 X94.955 Y130.125 E8.49567
G1 X93.937 Y129.653 E8.51807
G1 X91.482 Y128.597 E8.5714
G1 X89.056 Y127.633 E8.62349
G1 X86.539 Y126.717 E8.67695
G1 X84.026 Y125.88 E8.72981
G1 X81.51 Y125.121 E8.78225
G1 X78.005 Y124.189 E8.85463
G1 X77.196 Y123.991 E8.87125
G1 X76.512 Y123.782 E8.88552
G1 X75.855 Y123.499 E8.8998
G1 X75.234 Y123.143 E8.91408
G1 X74.657 Y122.721 E8.92835
G1 X74.13 Y122.237 E8.94263
G1 X73.661 Y121.698 E8.95688
G1 X73.255 Y121.109 E8.97116
G1 X72.917 Y120.479 E8.98543
G1 X72.651 Y119.814 E8.99972
G1 X72.461 Y119.125 E9.01398
G1 X72.35 Y118.418 E9.02827
G1 X72.31 Y117.611 E9.04439
G1 X72.308 Y117.439 E9.04782
G1 X72.309 Y101.483 E9.36624
G1 X72.319 Y100.794 E9.37999
G1 X72.369 Y100.081 E9.39426
G1 X72.499 Y99.377 E9.40854
G1 X72.706 Y98.693 E9.4228
G1 X72.988 Y98.036 E9.43707
G1 X73.342 Y97.414 E9.45135
G1 X73.701 Y96.913 E9.46365
G1 X74.396 Y96.038 E9.48595
G1 X82.682 Y85.982 E9.74598
G1 X84.37 Y83.875 E9.79986
G1 X85.97 Y81.755 E9.85286
G1 X87.499 Y79.607 E9.90548
G1 X88.97 Y77.411 E9.95823
G1 X90.386 Y75.163 E10.01124
G1 X91.732 Y72.882 E10.0641
G1 X93.015 Y70.565 E10.11695
G1 X94.226 Y68.222 E10.16959
G1 X95.365 Y65.858 E10.22195
G1 X96.463 Y63.402 E10.27564
G1 X97.475 Y60.954 E10.3285
G1 X98.337 Y58.703 E10.3766
G1 X98.629 Y58.051 E10.39086
G1 X98.993 Y57.435 E10.40514
G0 F3600 X99.35 Y57.62
G1 F1500 X99.772 Y57.071 E10.41896
G1 X100.254 Y56.574 E10.43277
G1 X100.79 Y56.135 E10.4466
G1 X101.373 Y55.761 E10.46042
G1 X101.995 Y55.457 E10.47424
G1 X102.801 Y55.185 E10.49121
G1 X103.33 Y55.048 E10.50212
G1 X105.055 Y54.624 E10.53757
G1 X107.614 Y53.918 E10.59054
G1 X110.192 Y53.127 E10.64436
G1 X112.656 Y52.294 E10.69626
G1 X115.193 Y51.356 E10.75024
G1 X117.645 Y50.371 E10.80297
G1 X120.084 Y49.307 E10.85608
G1 X121.465 Y48.669 E10.88644
G1 X122.11 Y48.416 E10.90026
G1 X122.794 Y48.231 E10.9144
G1 X123.652 Y48.044 E10.93193
G1 X124.433 Y47.889 E10.94782
G1 X125.119 Y47.794 E10.96164
G1 X125.811 Y47.779 E10.97545
G1 X126.613 Y47.862 E10.99154
G1 X127.279 Y47.988 E11.00507
G1 X127.87 Y48.113 E11.01712
G1 X128.554 Y48.269 E11.03112
G1 X129.219 Y48.462 E11.04494
G1 X129.665 Y48.64 E11.05452
G1 X130.523 Y49.023 E11.07327
G1 X131.579 Y49.513 E11.09651
G1 X134.038 Y50.568 E11.1499
G1 X136.499 Y51.544 E11.20274
G1 X138.993 Y52.448 E11.25568
G1 X141.511 Y53.285 E11.30863
G1 X144.059 Y54.051 E11.36173
G1 X147.483 Y54.96 E11.43242
G1 X148.317 Y55.165 E11.44956
G1 X148.978 Y55.369 E11.46337
G1 X149.612 Y55.648 E11.47719
G1 X150.21 Y55.998 E11.49102
G1 X150.763 Y56.415 E11.50484
G1 X151.264 Y56.893 E11.51866
G1 X151.707 Y57.425 E11.53247
G1 X152.086 Y58.005 E11.5463
G1 X152.396 Y58.624 E11.56011
G1 X152.631 Y59.275 E11.57393
G1 X152.791 Y59.949 E11.58775
G1 X152.88 Y60.823 E11.60528
G1 X152.891 Y61.313 E11.61506
G1 X152.89 Y77.277 E11.93364
G1 X152.88 Y77.966 E11.94739
G1 X152.83 Y78.657 E11.96122
G1 X152.701 Y79.337 E11.97503
G1 X152.494 Y79.998 E11.98885
G1 X152.213 Y80.631 E12.00267
G1 X151.86 Y81.227 E12.0165
G1 X151.587 Y81.601 E12.02574
G1 X150.913 Y82.451 E12.04739
G1 X142.627 Y92.506 E12.3074
G1 X140.901 Y94.663 E12.36253
G1 X139.305 Y96.775 E12.41536
G1 X137.773 Y98.928 E12.46809
G1 X136.29 Y101.142 E12.52127
G1 X134.872 Y103.394 E12.57438
G1 X133.523 Y105.679 E12.62733
G1 X132.219 Y108.035 E12.68107
G1 X131.02 Y110.354 E12.73316
G1 X129.853 Y112.776 E12.78682
G1 X128.776 Y115.188 E12.83953
G1 X127.762 Y117.639 E12.89246
G1 X126.894 Y119.9 E12.9408
G1 X126.689 Y120.371 E12.95105
G1 X126.354 Y120.977 E12.96486
G1 X125.951 Y121.541 E12.9787
G1 X125.486 Y122.054 E12.99251
G1 X124.965 Y122.51 E13.00633
G1 X124.395 Y122.903 E13.02015
G1 X123.783 Y123.228 E13.03398
G1 X123.138 Y123.48 E13.0478
G1 X122.362 Y123.694 E13.06386
G1 X120.546 Y124.141 E13.10118
G1 X117.966 Y124.852 E13.15459
G1 X115.469 Y125.618 E13.20671
G1 X112.921 Y126.478 E13.26038
G1 X110.416 Y127.405 E13.31368
G1 X107.967 Y128.389 E13.36635
G1 X105.514 Y129.458 E13.41975
G1 X104.154 Y130.088 E13.44966
G1 X103.51 Y130.342 E13.46347
G1 X102.862 Y130.521 E13.47689
G1 X102.682 Y130.563 E13.48058
G1 X101.87 Y130.738 E13.49716
G1 X101.119 Y130.882 E13.51242
G1 X100.432 Y130.973 E13.52624
G1 X99.74 Y130.984 E13.54006
G1 X98.924 Y130.894 E13.55644
G1 X98.241 Y130.76 E13.57033
G1 X97.742 Y130.654 E13.58051
G1 X97.056 Y130.499 E13.59454
G1 X96.39 Y130.308 E13.60837
G1 X95.922 Y130.121 E13.61843
G1 X95.123 Y129.763 E13.6359
G1 X94.085 Y129.281 E13.65874
G1 X91.639 Y128.23 E13.71187
G1 X89.174 Y127.25 E13.7648
G1 X86.687 Y126.345 E13.81762
G1 X84.131 Y125.493 E13.87139
G1 X81.638 Y124.741 E13.92335
G1 X78.059 Y123.79 E13.99725
G1 X77.291 Y123.602 E14.01303
G1 X76.629 Y123.399 E14.02685
G1 X75.995 Y123.121 E14.04066
G1 X75.397 Y122.772 E14.05448
G1 X74.843 Y122.356 E14.06831
G1 X74.341 Y121.879 E14.08213
G1 X73.897 Y121.347 E14.09595
G1 X73.517 Y120.768 E14.10977
G1 X73.207 Y120.149 E14.12359
G1 X72.97 Y119.498 E14.13742
G1 X72.81 Y118.825 E14.15122
G1 X72.719 Y117.935 E14.16907
G1 X72.708 Y117.439 E14.17897
G1 X72.709 Y101.489 E14.49727
G1 X72.719 Y100.8 E14.51102
G1 X72.769 Y100.109 E14.52485
G1 X72.898 Y99.429 E14.53866
G1 X73.105 Y98.768 E14.55249
G1 X73.386 Y98.135 E14.56631
G1 X73.739 Y97.539 E14.58013
G1 X74.015 Y97.162 E14.58945
G1 X74.705 Y96.292 E14.61161
G1 X82.984 Y86.244 E14.87143
G1 X84.685 Y84.12 E14.92573
G1 X86.3 Y81.982 E14.9792
G1 X87.824 Y79.84 E15.03166
G1 X89.314 Y77.616 E15.08509
G1 X90.71 Y75.399 E15.13737
G1 X92.092 Y73.058 E15.19162
G1 X93.363 Y70.763 E15.24397
G1 X94.584 Y68.4 E15.29705
G1 X95.746 Y65.987 E15.3505
G1 X96.822 Y63.582 E15.40308
G1 X97.834 Y61.134 E15.45594
G1 X98.71 Y58.846 E15.50483
G1 X98.995 Y58.215 E15.51865
G1 X99.35 Y57.62 E15.53248
G0 F3600 X99.707 Y57.808
G1 F1500 X100.119 Y57.281 E15.54583
G1 X100.592 Y56.807 E15.55919
G1 X101.117 Y56.393 E15.57253
G1 X101.688 Y56.045 E15.58588
G1 X102.297 Y55.767 E15.59924
G1 X102.902 Y55.572 E15.61192
G1 X103.426 Y55.436 E15.62272
G1 X105.176 Y55.006 E15.65869
G1 X107.742 Y54.298 E15.71181
G1 X110.289 Y53.516 E15.76498
G1 X112.818 Y52.662 E15.81825
G1 X115.302 Y51.744 E15.87109
G1 X117.817 Y50.732 E15.92519
G1 X120.232 Y49.679 E15.97777
G1 X121.633 Y49.032 E16.00857
G1 X122.256 Y48.789 E16.02191
G1 X122.887 Y48.62 E16.03495
G1 X123.734 Y48.435 E16.05225
G1 X124.511 Y48.281 E16.06806
G1 X125.174 Y48.191 E16.08141
G1 X125.843 Y48.18 E16.09476
G1 X126.545 Y48.256 E16.10885
G1 X127.201 Y48.38 E16.12217
G1 X127.781 Y48.503 E16.13401
G1 X128.465 Y48.659 E16.14801
G1 X129.107 Y48.847 E16.16136
G1 X129.502 Y49.005 E16.16985
G1 X130.354 Y49.386 E16.18847
G1 X131.406 Y49.873 E16.21161
G1 X133.882 Y50.936 E16.26538
G1 X136.352 Y51.916 E16.31841
G1 X138.879 Y52.832 E16.37205
G1 X141.375 Y53.661 E16.42453
G1 X143.938 Y54.432 E16.47794
G1 X147.395 Y55.35 E16.54932
G1 X148.221 Y55.553 E16.5663
G1 X148.86 Y55.752 E16.57965
G1 X149.471 Y56.025 E16.59301
G1 X150.044 Y56.369 E16.60635
G1 X150.573 Y56.779 E16.6197
G1 X151.049 Y57.25 E16.63307
G1 X151.465 Y57.773 E16.6464
G1 X151.816 Y58.343 E16.65976
G1 X152.097 Y58.95 E16.67311
G1 X152.303 Y59.587 E16.68647
G1 X152.432 Y60.243 E16.69981
G1 X152.48 Y60.835 E16.71166
G1 X152.491 Y61.313 E16.72121
G1 X152.49 Y77.271 E17.03966
G1 X152.48 Y77.96 E17.05342
G1 X152.431 Y78.627 E17.06676
G1 X152.302 Y79.284 E17.08012
G1 X152.096 Y79.92 E17.09347
G1 X151.815 Y80.528 E17.10683
G1 X151.273 Y81.353 E17.12653
G1 X150.605 Y82.196 E17.14799
G1 X142.264 Y92.318 E17.40974
G1 X140.602 Y94.395 E17.46282
G1 X138.976 Y96.548 E17.51666
G1 X137.441 Y98.704 E17.56948
G1 X135.968 Y100.904 E17.62232
G1 X134.517 Y103.209 E17.67667
G1 X133.178 Y105.477 E17.72923
G1 X131.879 Y107.822 E17.78273
G1 X130.656 Y110.19 E17.83591
G1 X129.492 Y112.605 E17.88941
G1 X128.412 Y115.021 E17.94222
G1 X127.371 Y117.537 E17.99656
G1 X126.52 Y119.756 E18.04399
G1 X126.329 Y120.198 E18.0536
G1 X126.004 Y120.783 E18.06695
G1 X125.611 Y121.325 E18.08031
G1 X125.157 Y121.816 E18.09366
G1 X124.647 Y122.25 E18.10702
G1 X124.09 Y122.619 E18.12036
G1 X123.492 Y122.92 E18.13372
G1 X122.697 Y123.193 E18.15049
