;FLAVOR:Marlin
;TIME:3567
;Filament used: 4.60478m
;Layer height: 0.25
;MINX:62.303
;MINY:80.077
;MINZ:0.3
;MAXX:129.791
;MAXY:119.928
;MAXZ:48.05
;Generated with Cura_SteamEngine 4.13.1
M82 ;absolute extrusion mode
G21 ; set units to millimeters
M140 S60 ; set bed temp
G28 ; Home extruder
G1 Z15 ; Levanta Extrusora
G90 ; use absolute positioning
M82 ; absolute extrusion mode
;M140 S60 ; set bed temp
M190 S60 ; wait for bed temp
M104 S200 ; set extruder temp
G29; Perform Automatic Bed Leveling
M109 S200 ; wait for extruder temp
G92 E0.0 ; reset extruder distance position
G92 E0
G92 E0
G1 F1500 E-3
;LAYER_COUNT:192
;LAYER:0
M107
G0 F3600 X67.63 Y84.3 Z0.3
;TYPE:SKIRT
G1 F1500 E0
G1 F1800 X68.685 Y83.574 E0.06389
G1 X68.885 Y83.452 E0.07558
G1 X69.734 Y82.981 E0.12402
G1 X70.494 Y82.632 E0.16574
G1 X70.763 Y82.52 E0.18028
G1 X71.675 Y82.184 E0.22877
G1 X72.382 Y81.98 E0.26548
G1 X72.578 Y81.93 E0.27557
G1 X73.616 Y81.715 E0.32846
G1 X73.709 Y81.7 E0.33316
G1 X74.681 Y81.584 E0.38199
G1 X75.867 Y81.494 E0.44133
G1 X98.309 Y80.122 E1.56306
G1 X99.127 Y80.087 E1.60391
G1 X99.717 Y80.077 E1.63335
G1 X100.135 Y80.077 E1.6542
G1 X101.056 Y80.094 E1.70016
G1 X101.691 Y80.122 E1.73187
G1 X102.052 Y80.149 E1.74993
G1 X102.87 Y80.223 E1.79091
G1 X103.388 Y80.281 E1.81691
G1 X103.649 Y80.317 E1.83006
G1 X104.273 Y80.41 E1.86153
G1 X105.025 Y80.539 E1.8996
G1 X105.571 Y80.649 E1.92738
G1 X106.334 Y80.822 E1.96642
G1 X106.865 Y80.953 E1.9937
G1 X107.398 Y81.099 E2.02127
G1 X107.699 Y81.189 E2.03695
G1 X108.343 Y81.39 E2.07061
G1 X108.774 Y81.534 E2.09328
G1 X109.298 Y81.72 E2.12102
G1 X109.987 Y81.983 E2.15781
G1 X110.709 Y82.286 E2.19687
G1 X111.262 Y82.534 E2.22711
G1 X112.023 Y82.902 E2.26928
G1 X112.747 Y83.278 E2.30999
G1 X113.488 Y83.691 E2.35231
G1 X113.763 Y83.854 E2.36826
G1 X114.205 Y84.124 E2.3941
G1 X114.833 Y84.527 E2.43132
G1 X115.356 Y84.886 E2.46297
G1 X115.552 Y85.02 E2.47482
G1 X116.027 Y85.364 E2.50408
G1 X116.522 Y85.741 E2.53512
G1 X116.937 Y86.072 E2.5616
G1 X117.523 Y86.566 E2.59984
G1 X118.002 Y86.988 E2.63169
G1 X118.378 Y87.33 E2.65705
G1 X119.005 Y87.943 E2.7008
G1 X119.241 Y88.186 E2.7177
G1 X119.709 Y88.68 E2.75164
G1 X120.053 Y89.059 E2.77718
G1 X120.334 Y89.384 E2.79861
G1 X120.674 Y89.785 E2.82484
G1 X121.109 Y90.321 E2.85928
G1 X121.43 Y90.74 E2.88562
G1 X121.794 Y91.236 E2.91631
G1 X122.119 Y91.704 E2.94474
G1 X122.583 Y92.407 E2.98676
G1 X122.878 Y92.872 E3.01423
G1 X123.201 Y93.416 E3.0458
G1 X123.807 Y94.614 E3.11278
G1 X123.838 Y94.685 E3.11664
G1 X124.048 Y95.198 E3.1443
G1 X124.153 Y95.473 E3.15898
G1 X124.462 Y96.394 E3.20745
G1 X124.755 Y97.662 E3.27238
G1 X124.792 Y97.875 E3.28316
G1 X124.919 Y98.839 E3.33167
G1 X124.966 Y99.895 E3.38441
G1 X124.966 Y100.108 E3.39504
G1 X124.926 Y101.079 E3.44352
G1 X124.862 Y101.668 E3.47308
G1 X124.844 Y101.803 E3.47987
G1 X124.677 Y102.759 E3.52829
G1 X124.456 Y103.614 E3.57235
G1 X124.377 Y103.879 E3.58615
G1 X124.062 Y104.798 E3.63461
G1 X123.667 Y105.697 E3.6836
G1 X123.423 Y106.178 E3.71051
G1 X123.326 Y106.359 E3.72076
G1 X122.978 Y106.964 E3.75558
G1 X122.667 Y107.47 E3.78521
G1 X122.177 Y108.215 E3.8297
G1 X121.827 Y108.718 E3.86027
G1 X121.463 Y109.217 E3.89108
G1 X121.199 Y109.561 E3.91272
G1 X120.822 Y110.035 E3.94293
G1 X120.589 Y110.319 E3.96126
G1 X120.25 Y110.719 E3.98742
G1 X119.647 Y111.389 E4.03239
G1 X119.088 Y111.973 E4.07272
G1 X118.699 Y112.361 E4.10013
G1 X118.263 Y112.776 E4.13016
G1 X117.875 Y113.13 E4.15637
G1 X117.335 Y113.596 E4.19195
G1 X116.915 Y113.946 E4.21923
G1 X116.478 Y114.293 E4.24707
G1 X115.986 Y114.665 E4.27784
G1 X115.433 Y115.067 E4.31195
G1 X114.998 Y115.367 E4.33831
G1 X114.75 Y115.531 E4.35314
G1 X114.292 Y115.826 E4.38032
G1 X113.66 Y116.214 E4.41732
G1 X113.204 Y116.478 E4.44361
G1 X112.996 Y116.592 E4.45544
G1 X112.446 Y116.887 E4.48658
G1 X111.794 Y117.215 E4.52299
G1 X111.185 Y117.501 E4.55656
G1 X110.489 Y117.81 E4.59455
G1 X109.939 Y118.033 E4.62416
G1 X109.397 Y118.242 E4.65314
G1 X108.839 Y118.446 E4.68278
G1 X108.102 Y118.69 E4.72151
G1 X107.688 Y118.816 E4.7431
G1 X107.143 Y118.971 E4.77137
G1 X106.758 Y119.073 E4.79124
G1 X106.182 Y119.216 E4.82085
G1 X105.536 Y119.361 E4.85388
G1 X104.761 Y119.51 E4.89326
G1 X104.005 Y119.634 E4.93148
G1 X103.373 Y119.723 E4.96332
G1 X102.843 Y119.785 E4.98994
G1 X102.209 Y119.841 E5.02169
G1 X101.755 Y119.875 E5.04441
G1 X101.22 Y119.905 E5.07114
G1 X100.623 Y119.923 E5.10094
G1 X100.104 Y119.928 E5.12683
G1 X99.537 Y119.925 E5.15512
G1 X98.701 Y119.898 E5.19685
G1 X98.124 Y119.867 E5.22568
G1 X77.384 Y118.601 E6.26233
G1 X75.656 Y118.493 E6.34871
G1 X74.879 Y118.434 E6.38758
G1 X74.228 Y118.369 E6.42022
G1 X73.267 Y118.223 E6.46872
G1 X72.104 Y117.934 E6.5285
G1 X71.714 Y117.816 E6.54883
G1 X70.796 Y117.497 E6.59732
G1 X69.665 Y116.979 E6.65938
G1 X69.445 Y116.864 E6.67177
G1 X68.603 Y116.379 E6.72024
G1 X67.986 Y115.961 E6.75742
G1 X67.797 Y115.824 E6.76907
G1 X67.034 Y115.222 E6.81756
G1 X66.317 Y114.552 E6.86652
G1 X66.116 Y114.348 E6.8808
G1 X65.463 Y113.628 E6.9293
G1 X64.856 Y112.836 E6.97908
G1 X64.697 Y112.609 E6.99291
G1 X64.173 Y111.791 E7.04137
G1 X63.898 Y111.293 E7.06976
G1 X63.812 Y111.128 E7.07904
G1 X63.399 Y110.249 E7.12749
G1 X63.009 Y109.179 E7.18431
G1 X62.911 Y108.864 E7.20077
G1 X62.62 Y107.735 E7.25893
G1 X62.568 Y107.482 E7.27182
G1 X62.411 Y106.523 E7.3203
G1 X62.328 Y105.326 E7.38016
G1 X62.305 Y104.094 E7.44164
G1 X62.303 Y103.873 E7.45267
G1 X62.305 Y95.59 E7.86591
G1 X62.315 Y94.903 E7.90018
G1 X62.349 Y94.17 E7.93679
G1 X62.364 Y93.975 E7.94655
G1 X62.559 Y92.559 E8.01786
G1 X62.626 Y92.225 E8.03486
G1 X62.857 Y91.281 E8.08334
G1 X63.077 Y90.594 E8.11933
G1 X63.136 Y90.428 E8.12812
G1 X63.499 Y89.527 E8.17658
G1 X63.808 Y88.894 E8.21173
G1 X63.965 Y88.595 E8.22857
G1 X64.451 Y87.755 E8.27699
G1 X64.999 Y86.965 E8.32496
G1 X65.126 Y86.797 E8.33547
G1 X65.743 Y86.047 E8.38392
G1 X66.594 Y85.188 E8.44424
G1 X66.885 Y84.923 E8.46388
G1 X67.63 Y84.3 E8.51233
G0 F3600 X67.887 Y84.607
G1 F1800 X68.893 Y83.916 E8.57322
G1 X69.093 Y83.794 E8.58491
G1 X69.929 Y83.331 E8.63259
G1 X70.648 Y83.002 E8.67203
G1 X70.917 Y82.89 E8.68657
G1 X71.813 Y82.56 E8.73421
G1 X72.481 Y82.368 E8.76888
G1 X72.677 Y82.318 E8.77898
G1 X73.68 Y82.109 E8.83009
G1 X73.773 Y82.094 E8.83479
G1 X74.712 Y81.983 E8.88196
G1 X75.891 Y81.893 E8.94095
G1 X98.33 Y80.522 E10.06253
G1 X99.134 Y80.487 E10.10268
G1 X99.724 Y80.477 E10.13212
G1 X100.127 Y80.477 E10.15222
G1 X101.048 Y80.494 E10.19818
G1 X101.667 Y80.521 E10.22909
G1 X102.016 Y80.547 E10.24655
G1 X102.834 Y80.621 E10.28753
G1 X103.338 Y80.678 E10.31283
G1 X103.59 Y80.713 E10.32553
G1 X104.214 Y80.806 E10.357
G1 X104.955 Y80.933 E10.39451
G1 X105.483 Y81.039 E10.42138
G1 X106.246 Y81.212 E10.46041
G1 X106.767 Y81.341 E10.48719
G1 X107.289 Y81.484 E10.51419
G1 X107.579 Y81.571 E10.52929
G1 X108.223 Y81.772 E10.56295
G1 X108.64 Y81.911 E10.58488
G1 X109.164 Y82.097 E10.61262
G1 X109.841 Y82.356 E10.64879
G1 X110.545 Y82.651 E10.68687
G1 X111.098 Y82.899 E10.7171
G1 X111.839 Y83.257 E10.75816
G1 X112.563 Y83.633 E10.79886
G1 X113.289 Y84.038 E10.84034
G1 X113.555 Y84.195 E10.85575
G1 X113.997 Y84.465 E10.88159
G1 X114.615 Y84.862 E10.91823
G1 X115.326 Y85.35 E10.96126
G1 X115.784 Y85.682 E10.98948
G1 X116.279 Y86.059 E11.02052
G1 X116.681 Y86.379 E11.04615
G1 X117.259 Y86.866 E11.08386
G1 X117.738 Y87.288 E11.11571
G1 X118.42 Y87.925 E11.16227
G1 X118.951 Y88.461 E11.19991
G1 X119.419 Y88.955 E11.23386
G1 X119.942 Y89.541 E11.27305
G1 X120.369 Y90.044 E11.30596
G1 X120.796 Y90.571 E11.3398
G1 X121.11 Y90.98 E11.36553
G1 X121.471 Y91.472 E11.39597
G1 X121.785 Y91.924 E11.42343
G1 X122.249 Y92.627 E11.46545
G1 X122.538 Y93.083 E11.49239
G1 X122.855 Y93.617 E11.52337
G1 X123.441 Y94.774 E11.58807
G1 X123.472 Y94.845 E11.59194
G1 X123.674 Y95.341 E11.61866
G1 X123.779 Y95.616 E11.63334
G1 X124.082 Y96.521 E11.68096
G1 X124.361 Y97.731 E11.74291
G1 X124.398 Y97.944 E11.7537
G1 X124.522 Y98.891 E11.80135
G1 X124.566 Y99.895 E11.85148
G1 X124.566 Y100.108 E11.86211
G1 X124.526 Y101.062 E11.90975
G1 X124.466 Y101.615 E11.9375
G1 X124.448 Y101.75 E11.94429
G1 X124.282 Y102.69 E11.99191
G1 X124.073 Y103.5 E12.03365
G1 X123.994 Y103.765 E12.04745
G1 X123.683 Y104.668 E12.09509
G1 X123.308 Y105.521 E12.14158
G1 X123.07 Y105.989 E12.16777
G1 X122.973 Y106.17 E12.17802
G1 X122.637 Y106.754 E12.21163
G1 X122.326 Y107.26 E12.24127
G1 X121.846 Y107.992 E12.28494
G1 X121.5 Y108.488 E12.31511
G1 X121.141 Y108.98 E12.34549
G1 X120.886 Y109.312 E12.36638
G1 X120.509 Y109.786 E12.39659
G1 X120.284 Y110.061 E12.41432
G1 X119.945 Y110.461 E12.44048
G1 X119.358 Y111.113 E12.48425
G1 X118.799 Y111.697 E12.52458
G1 X118.424 Y112.071 E12.551
G1 X117.988 Y112.486 E12.58104
G1 X117.612 Y112.828 E12.60639
G1 X117.079 Y113.289 E12.64155
G1 X116.659 Y113.639 E12.66883
G1 X116.236 Y113.974 E12.69575
G1 X115.744 Y114.346 E12.72652
G1 X115.2 Y114.742 E12.76009
G1 X114.773 Y115.036 E12.78595
G1 X114.533 Y115.195 E12.80032
G1 X114.075 Y115.49 E12.8275
G1 X113.453 Y115.872 E12.86391
G1 X113.008 Y116.129 E12.88955
G1 X112.257 Y116.534 E12.93212
G1 X111.624 Y116.853 E12.96748
G1 X111.015 Y117.139 E13.00105
G1 X110.329 Y117.443 E13.03848
G1 X109.798 Y117.659 E13.06708
G1 X109.253 Y117.869 E13.09622
G1 X108.705 Y118.069 E13.12533
G1 X107.979 Y118.309 E13.16347
G1 X107.579 Y118.431 E13.18434
G1 X107.034 Y118.586 E13.21261
G1 X106.662 Y118.685 E13.23181
G1 X106.086 Y118.828 E13.26142
G1 X105.459 Y118.968 E13.29347
G1 X104.694 Y119.116 E13.33235
G1 X103.95 Y119.238 E13.36996
G1 X103.318 Y119.327 E13.4018
G1 X102.805 Y119.387 E13.42757
G1 X102.182 Y119.442 E13.45877
G1 X101.723 Y119.476 E13.48173
G1 X101.206 Y119.505 E13.50757
G1 X100.618 Y119.523 E13.53692
G1 X100.106 Y119.528 E13.56246
G1 X99.539 Y119.525 E13.59075
G1 X98.717 Y119.498 E13.63178
G1 X98.148 Y119.468 E13.66021
G1 X77.408 Y118.202 E14.69686
G1 X75.681 Y118.094 E14.78319
G1 X74.91 Y118.035 E14.82176
G1 X74.272 Y117.971 E14.85375
G1 X73.328 Y117.827 E14.9014
G1 X72.22 Y117.551 E14.95836
G1 X71.83 Y117.433 E14.97869
G1 X70.928 Y117.119 E15.02634
G1 X69.85 Y116.625 E15.0855
G1 X69.63 Y116.51 E15.09789
G1 X68.803 Y116.033 E15.14552
G1 X68.22 Y115.637 E15.18068
G1 X68.031 Y115.5 E15.19232
G1 X67.282 Y114.908 E15.23995
G1 X66.601 Y114.271 E15.28648
G1 X66.4 Y114.067 E15.30076
G1 X65.759 Y113.36 E15.34837
G1 X65.184 Y112.606 E15.39568
G1 X65.025 Y112.379 E15.40951
G1 X64.51 Y111.575 E15.45714
G1 X64.253 Y111.108 E15.48374
G1 X64.167 Y110.943 E15.49302
G1 X63.761 Y110.079 E15.54065
G1 X63.391 Y109.061 E15.59469
G1 X63.293 Y108.746 E15.61115
G1 X63.011 Y107.654 E15.66741
G1 X62.959 Y107.401 E15.6803
G1 X62.807 Y106.459 E15.7279
G1 X62.728 Y105.319 E15.78491
G1 X62.705 Y104.087 E15.84639
G1 X62.703 Y103.873 E15.85707
G1 X62.705 Y95.596 E16.27001
G1 X62.715 Y94.909 E16.30429
G1 X62.748 Y94.201 E16.33965
G1 X62.763 Y94.006 E16.3494
G1 X62.952 Y92.638 E16.4183
G1 X63.019 Y92.304 E16.4353
G1 X63.245 Y91.376 E16.48295
G1 X63.454 Y90.728 E16.51692
G1 X63.513 Y90.562 E16.52571
G1 X63.87 Y89.677 E16.57332
G1 X64.162 Y89.08 E16.60647
G1 X64.319 Y88.781 E16.62332
G1 X64.798 Y87.955 E16.67096
G1 X65.318 Y87.206 E16.71645
G1 X65.445 Y87.038 E16.72696
G1 X66.052 Y86.302 E16.77455
G1 X66.863 Y85.484 E16.83202
G1 X67.154 Y85.219 E16.85166
G1 X67.887 Y84.607 E16.8993
G0 F3600 X68.143 Y84.914
G1 F1800 X69.102 Y84.257 E16.95729
G1 X69.302 Y84.135 E16.96898
G1 X70.122 Y83.681 E17.01574
G1 X70.802 Y83.371 E17.05303
G1 X71.071 Y83.259 E17.06756
G1 X71.951 Y82.936 E17.11433
G1 X72.58 Y82.755 E17.14698
G1 X72.776 Y82.705 E17.15708
G1 X73.743 Y82.504 E17.20635
G1 X73.836 Y82.489 E17.21105
G1 X74.743 Y82.382 E17.25662
G1 X75.916 Y82.293 E17.3153
G1 X98.351 Y80.921 E18.43668
G1 X99.141 Y80.887 E18.47613
G1 X99.731 Y80.877 E18.50557
G1 X100.12 Y80.877 E18.52498
G1 X101.041 Y80.894 E18.57094
G1 X101.643 Y80.92 E18.601
G1 X101.98 Y80.946 E18.61786
G1 X102.798 Y81.02 E18.65884
G1 X103.532 Y81.108 E18.69572
G1 X104.156 Y81.201 E18.72719
G1 X104.885 Y81.326 E18.76409
G1 X105.394 Y81.429 E18.79
G1 X106.157 Y81.602 E18.82904
G1 X106.668 Y81.728 E18.85529
G1 X107.18 Y81.869 E18.88179
G1 X107.46 Y81.953 E18.89637
G1 X108.104 Y82.154 E18.93003
G1 X108.507 Y82.288 E18.95122
G1 X109.031 Y82.474 E18.97896
G1 X109.695 Y82.728 E19.01443
G1 X110.381 Y83.016 E19.05155
G1 X110.934 Y83.264 E19.08178
G1 X111.655 Y83.612 E19.12172
G1 X112.379 Y83.988 E19.16243
G1 X113.09 Y84.385 E19.20305
G1 X113.346 Y84.537 E19.21791
G1 X113.788 Y84.807 E19.24375
G1 X114.397 Y85.197 E19.27983
G1 X114.969 Y85.591 E19.31448
G1 X115.099 Y85.68 E19.32234
G1 X115.542 Y86 E19.3496
G1 X116.037 Y86.377 E19.38064
G1 X116.556 Y86.796 E19.41392
G1 X116.995 Y87.166 E19.44257
G1 X117.474 Y87.588 E19.47441
G1 X118.137 Y88.208 E19.5197
G1 X118.66 Y88.736 E19.55678
G1 X119.128 Y89.23 E19.59073
G1 X119.64 Y89.804 E19.6291
G1 X120.064 Y90.302 E19.66173
G1 X120.484 Y90.82 E19.695
G1 X120.79 Y91.22 E19.72013
G1 X121.148 Y91.708 E19.75032
G1 X121.452 Y92.145 E19.77688
G1 X121.916 Y92.848 E19.81891
G1 X122.199 Y93.295 E19.8453
G1 X122.509 Y93.818 E19.87563
G1 X123.074 Y94.934 E19.93804
G1 X123.105 Y95.005 E19.9419
G1 X123.3 Y95.483 E19.96766
G1 X123.405 Y95.758 E19.98235
G1 X123.702 Y96.648 E20.02915
G1 X123.967 Y97.799 E20.08808
G1 X124.004 Y98.012 E20.09887
G1 X124.125 Y98.942 E20.14566
G1 X124.166 Y99.895 E20.19324
G1 X124.166 Y100.108 E20.20387
G1 X124.126 Y101.045 E20.25066
G1 X124.07 Y101.562 E20.27661
G1 X124.052 Y101.697 E20.2834
G1 X123.888 Y102.62 E20.33017
G1 X123.69 Y103.386 E20.36964
G1 X123.611 Y103.651 E20.38344
G1 X123.305 Y104.537 E20.4302
G1 X122.949 Y105.345 E20.47425
G1 X122.717 Y105.8 E20.49973
G1 X122.62 Y105.981 E20.50998
G1 X122.296 Y106.545 E20.54243
G1 X121.985 Y107.051 E20.57206
G1 X121.514 Y107.769 E20.6149
G1 X121.173 Y108.257 E20.6446
G1 X120.819 Y108.742 E20.67456
G1 X120.573 Y109.063 E20.69474
G1 X120.196 Y109.537 E20.72495
G1 X119.979 Y109.802 E20.74204
G1 X119.64 Y110.202 E20.7682
G1 X119.069 Y110.836 E20.81077
G1 X118.51 Y111.42 E20.8511
G1 X118.148 Y111.782 E20.87664
G1 X117.712 Y112.197 E20.90667
G1 X117.003 Y112.829 E20.95406
G1 X116.403 Y113.331 E20.99308
G1 X115.995 Y113.655 E21.01908
G1 X115.503 Y114.027 E21.04985
G1 X114.966 Y114.417 E21.08296
G1 X114.548 Y114.705 E21.10829
G1 X114.316 Y114.859 E21.12218
G1 X113.858 Y115.154 E21.14936
G1 X113.245 Y115.53 E21.18523
G1 X112.618 Y115.887 E21.22123
G1 X112.068 Y116.182 E21.25237
G1 X111.454 Y116.491 E21.28666
G1 X110.845 Y116.777 E21.32023
G1 X110.168 Y117.077 E21.35717
G1 X109.656 Y117.285 E21.38474
G1 X109.108 Y117.496 E21.41404
G1 X108.571 Y117.692 E21.44256
G1 X107.855 Y117.929 E21.48019
G1 X107.469 Y118.046 E21.50031
G1 X106.924 Y118.201 E21.52858
G1 X106.565 Y118.297 E21.54712
G1 X105.989 Y118.44 E21.57673
G1 X105.381 Y118.576 E21.60781
G1 X104.627 Y118.721 E21.64612
G1 X103.894 Y118.842 E21.68318
G1 X103.262 Y118.931 E21.71502
G1 X102.452 Y119.019 E21.75567
G1 X101.692 Y119.077 E21.7937
G1 X100.838 Y119.118 E21.83635
G1 X100.313 Y119.127 E21.86255
G1 X100.108 Y119.128 E21.87278
G1 X99.541 Y119.125 E21.90107
G1 X98.734 Y119.099 E21.94135
G1 X98.173 Y119.068 E21.96938
G1 X77.412 Y117.801 E23.00708
G1 X75.551 Y117.684 E23.10011
G1 X74.94 Y117.637 E23.13068
G1 X74.315 Y117.574 E23.16202
G1 X73.388 Y117.431 E23.20881
G1 X72.335 Y117.169 E23.26295
G1 X71.945 Y117.051 E23.28328
G1 X71.06 Y116.741 E23.33006
G1 X70.035 Y116.27 E23.38634
G1 X69.815 Y116.155 E23.39872
G1 X69.003 Y115.686 E23.44551
G1 X68.455 Y115.313 E23.47858
G1 X68.266 Y115.176 E23.49022
G1 X67.531 Y114.594 E23.537
G1 X66.886 Y113.99 E23.58108
G1 X66.685 Y113.786 E23.59537
G1 X66.056 Y113.091 E23.64214
G1 X65.511 Y112.377 E23.68695
G1 X65.352 Y112.15 E23.70078
G1 X64.847 Y111.359 E23.7476
G1 X64.521 Y110.758 E23.78171
G1 X64.124 Y109.909 E23.82847
G1 X63.773 Y108.942 E23.87979
G1 X63.675 Y108.627 E23.89625
G1 X63.403 Y107.574 E23.95051
G1 X63.351 Y107.321 E23.96339
G1 X63.202 Y106.395 E24.01019
G1 X63.128 Y105.311 E24.06439
G1 X63.105 Y104.079 E24.12587
G1 X63.103 Y103.873 E24.13615
G1 X63.105 Y95.602 E24.54879
