;FLAVOR:Marlin
;TIME:5368
;Filament used: 1.06247m
;Layer height: 0.12
;MINX:68.212
;MINY:68.213
;MINZ:0.12
;MAXX:131.798
;MAXY:131.793
;MAXZ:3.96
;Generated with Cura_SteamEngine 5.2.1
M82 ;absolute extrusion mode
G1 F3000 X0 Y0 Z0
G21 ; set units to millimeters
M140 S60.0 ; set bed temp
G28 ; Home extruder
G1 Z15 ; Levanta Extrusora
G90 ; use absolute positioning
M82 ; absolute extrusion mode
;M140 S60.0 ; set bed temp
M190 S60.0 ; wait for bed temp
M104 S215.0 ; set extruder temp
G29; Perform Automatic Bed Leveling
M109 S215.0 ; wait for extruder temp
G92 E0.0 ; reset extruder distance position
G92 E0
G92 E0
G1 F1500 E-0.3
;LAYER_COUNT:33
;LAYER:0
M107
G0 F1440 X77.199 Y77.848 Z0.12
;TYPE:SKIRT
G1 F1500 E0
G1 F300 X78.003 Y77.051 E0.01581
G1 X78.746 Y76.36 E0.02999
G1 X79.553 Y75.658 E0.04493
G1 X80.22 Y75.113 E0.05696
G1 X80.868 Y74.611 E0.06841
G1 X81.709 Y73.998 E0.08295
G1 X82.445 Y73.496 E0.0954
G1 X83.17 Y73.03 E0.10744
G1 X84.168 Y72.431 E0.12369
G1 X84.732 Y72.114 E0.13273
G1 X85.714 Y71.599 E0.14822
G1 X86.706 Y71.122 E0.1636
G1 X87.638 Y70.71 E0.17783
G1 X88.41 Y70.395 E0.18948
G1 X89.423 Y70.018 E0.20458
G1 X90.183 Y69.761 E0.21579
G1 X91.024 Y69.501 E0.22808
G1 X91.868 Y69.265 E0.24033
G1 X93.06 Y68.975 E0.25746
G1 X93.862 Y68.806 E0.26891
G1 X94.959 Y68.609 E0.28448
G1 X95.561 Y68.518 E0.29299
G1 X96.781 Y68.37 E0.31015
G1 X97.591 Y68.298 E0.32151
G1 X98.549 Y68.24 E0.33492
G1 X99.353 Y68.213 E0.34616
G1 X100.653 Y68.213 E0.36432
G1 X101.508 Y68.242 E0.37627
G1 X102.531 Y68.306 E0.39059
G1 X103.313 Y68.379 E0.40156
G1 X104.265 Y68.493 E0.41495
G1 X105.051 Y68.608 E0.42605
G1 X106.135 Y68.802 E0.44143
G1 X107.108 Y69.009 E0.45533
G1 X107.97 Y69.219 E0.46772
G1 X108.773 Y69.438 E0.47935
G1 X109.949 Y69.801 E0.49654
G1 X110.729 Y70.07 E0.50807
G1 X111.774 Y70.464 E0.52367
G1 X112.536 Y70.781 E0.5352
G1 X113.565 Y71.243 E0.55096
G1 X114.244 Y71.572 E0.5615
G1 X115.05 Y71.99 E0.57418
G1 X115.746 Y72.375 E0.58529
G1 X116.661 Y72.919 E0.60016
G1 X117.532 Y73.473 E0.61458
G1 X118.421 Y74.082 E0.62963
G1 X119.09 Y74.571 E0.64121
G1 X119.952 Y75.241 E0.65646
G1 X120.568 Y75.752 E0.66764
G1 X121.375 Y76.459 E0.68263
G1 X121.975 Y77.017 E0.69407
G1 X122.603 Y77.635 E0.70638
G1 X123.316 Y78.38 E0.72079
G1 X124.049 Y79.197 E0.73612
G1 X124.575 Y79.822 E0.74753
G1 X125.236 Y80.653 E0.76236
G1 X125.704 Y81.28 E0.77329
G1 X126.25 Y82.054 E0.78653
G1 X126.825 Y82.925 E0.80111
G1 X127.361 Y83.797 E0.8154
G1 X127.781 Y84.528 E0.82718
G1 X128.274 Y85.446 E0.84174
G1 X128.562 Y86.019 E0.8507
G1 X129.024 Y87.007 E0.86593
G1 X129.429 Y87.954 E0.88032
G1 X129.813 Y88.939 E0.89509
G1 X130.103 Y89.755 E0.90718
G1 X130.432 Y90.775 E0.92216
G1 X130.653 Y91.543 E0.93332
G1 X130.927 Y92.602 E0.9486
G1 X131.061 Y93.186 E0.95697
G1 X131.275 Y94.253 E0.97217
G1 X131.446 Y95.278 E0.98669
G1 X131.592 Y96.364 E1.002
G1 X131.652 Y96.933 E1.00999
G1 X131.751 Y98.247 E1.0284
G1 X131.785 Y99.079 E1.04003
G1 X131.798 Y99.96 E1.05234
G1 X131.789 Y100.797 E1.06403
G1 X131.748 Y101.795 E1.07798
G1 X131.669 Y102.885 E1.09325
G1 X131.555 Y103.944 E1.10813
G1 X131.473 Y104.551 E1.11668
G1 X131.3 Y105.61 E1.13167
G1 X131.098 Y106.642 E1.14636
G1 X130.906 Y107.486 E1.15845
G1 X130.685 Y108.346 E1.17086
G1 X130.349 Y109.497 E1.18761
G1 X130.159 Y110.085 E1.19624
G1 X129.728 Y111.288 E1.21409
G1 X129.492 Y111.892 E1.22315
G1 X129.072 Y112.882 E1.23817
G1 X128.727 Y113.636 E1.24976
G1 X128.23 Y114.637 E1.26537
G1 X127.848 Y115.353 E1.2767
G1 X127.309 Y116.29 E1.2918
G1 X126.791 Y117.13 E1.30559
G1 X126.335 Y117.823 E1.31718
G1 X125.847 Y118.521 E1.32908
G1 X125.191 Y119.403 E1.34443
G1 X124.539 Y120.222 E1.35905
G1 X123.996 Y120.863 E1.37079
G1 X123.451 Y121.475 E1.38224
G1 X122.677 Y122.289 E1.39793
G1 X122.096 Y122.866 E1.40937
G1 X121.327 Y123.585 E1.42407
G1 X120.661 Y124.17 E1.43646
G1 X119.708 Y124.953 E1.45369
G1 X119.066 Y125.447 E1.465
G1 X118.367 Y125.956 E1.47708
G1 X117.51 Y126.54 E1.49157
G1 X116.578 Y127.133 E1.507
G1 X115.879 Y127.547 E1.51835
G1 X115.151 Y127.953 E1.52999
G1 X114.206 Y128.446 E1.54488
G1 X113.439 Y128.816 E1.55678
G1 X112.65 Y129.171 E1.56886
G1 X111.676 Y129.575 E1.58359
G1 X110.914 Y129.865 E1.59498
G1 X109.685 Y130.285 E1.61313
G1 X108.882 Y130.53 E1.62485
G1 X107.942 Y130.788 E1.63847
G1 X107.3 Y130.947 E1.64771
G1 X106.015 Y131.221 E1.66606
G1 X105.204 Y131.366 E1.67757
G1 X104.324 Y131.499 E1.69001
G1 X103.336 Y131.618 E1.70391
G1 X102.23 Y131.715 E1.71942
G1 X101.403 Y131.763 E1.73099
G1 X100.56 Y131.789 E1.74277
G1 X99.725 Y131.793 E1.75443
G1 X98.585 Y131.762 E1.77037
G1 X97.611 Y131.703 E1.784
G1 X96.482 Y131.599 E1.79983
G1 X95.872 Y131.525 E1.80842
G1 X94.691 Y131.347 E1.8251
G1 X93.843 Y131.191 E1.83715
G1 X92.956 Y131.002 E1.84982
G1 X92.198 Y130.82 E1.86071
G1 X91.133 Y130.53 E1.87612
G1 X90.34 Y130.289 E1.8877
G1 X89.144 Y129.881 E1.90535
G1 X88.564 Y129.664 E1.91401
G1 X87.579 Y129.265 E1.92885
G1 X86.611 Y128.834 E1.94365
G1 X85.805 Y128.446 E1.95615
G1 X84.954 Y128.005 E1.96954
G1 X83.966 Y127.452 E1.98535
G1 X83.279 Y127.038 E1.99656
G1 X82.352 Y126.443 E2.01195
G1 X81.677 Y125.979 E2.02339
G1 X80.777 Y125.321 E2.03896
G1 X80.312 Y124.962 E2.04717
G1 X79.488 Y124.287 E2.06205
G1 X78.703 Y123.602 E2.0766
G1 X78.076 Y123.022 E2.08853
G1 X77.484 Y122.443 E2.1001
G1 X76.58 Y121.497 E2.11838
G1 X76.056 Y120.911 E2.12936
G1 X75.353 Y120.079 E2.14458
G1 X75.003 Y119.642 E2.1524
G1 X74.187 Y118.554 E2.1714
G1 X73.744 Y117.919 E2.18221
G1 X73.116 Y116.963 E2.19819
G1 X72.677 Y116.246 E2.20994
G1 X72.265 Y115.534 E2.22143
G1 X71.879 Y114.825 E2.2327
G1 X71.391 Y113.858 E2.24783
G1 X70.948 Y112.903 E2.26254
G1 X70.595 Y112.076 E2.2751
G1 X70.239 Y111.172 E2.28867
G1 X69.877 Y110.156 E2.30374
G1 X69.618 Y109.352 E2.31554
G1 X69.372 Y108.511 E2.32778
G1 X69.157 Y107.696 E2.33956
G1 X68.927 Y106.7 E2.35383
G1 X68.756 Y105.855 E2.36588
G1 X68.54 Y104.559 E2.38423
G1 X68.436 Y103.771 E2.39534
G1 X68.325 Y102.681 E2.41064
G1 X68.269 Y101.896 E2.42163
G1 X68.228 Y101 E2.43416
G1 X68.212 Y100.174 E2.4457
G1 X68.225 Y99.109 E2.46058
G1 X68.272 Y98.052 E2.47536
G1 X68.35 Y97.033 E2.48964
G1 X68.418 Y96.379 E2.49882
G1 X68.593 Y95.093 E2.51695
G1 X68.732 Y94.275 E2.52854
G1 X68.948 Y93.193 E2.54396
G1 X69.125 Y92.431 E2.55489
G1 X69.347 Y91.582 E2.56714
G1 X69.572 Y90.8 E2.57851
G1 X69.905 Y89.764 E2.59371
G1 X70.185 Y88.974 E2.60542
G1 X70.643 Y87.805 E2.62296
G1 X70.978 Y87.03 E2.63475
G1 X71.339 Y86.251 E2.64675
G1 X71.708 Y85.505 E2.65837
G1 X72.203 Y84.576 E2.67308
G1 X72.725 Y83.673 E2.68765
G1 X73.278 Y82.782 E2.7023
G1 X73.76 Y82.055 E2.71448
G1 X74.268 Y81.334 E2.7268
G1 X74.718 Y80.727 E2.73736
G1 X75.537 Y79.698 E2.75573
G1 X76.078 Y79.064 E2.76737
G1 X76.663 Y78.413 E2.7796
G1 X77.199 Y77.848 E2.79048
G0 F1440 X77.488 Y78.124
G1 F300 X78.419 Y77.206 E2.80874
G1 X79.009 Y76.661 E2.81996
G1 X79.662 Y76.09 E2.83208
G1 X80.316 Y75.548 E2.84395
G1 X81.262 Y74.815 E2.86066
G1 X81.771 Y74.444 E2.86946
G1 X82.831 Y73.721 E2.88739
G1 X83.385 Y73.367 E2.89657
G1 X84.364 Y72.78 E2.91252
G1 X84.928 Y72.463 E2.92155
G1 X86.084 Y71.861 E2.93976
G1 X86.868 Y71.487 E2.9519
G1 X87.64 Y71.144 E2.9637
G1 X88.551 Y70.769 E2.97746
G1 X89.378 Y70.459 E2.9898
G1 X90.119 Y70.203 E3.00075
G1 X91.329 Y69.829 E3.01844
G1 X92.168 Y69.6 E3.03059
G1 X92.98 Y69.403 E3.04226
G1 X93.735 Y69.239 E3.05305
G1 X95.018 Y69.005 E3.07127
G1 X95.806 Y68.889 E3.0824
G1 X96.818 Y68.768 E3.09664
G1 X97.411 Y68.713 E3.10495
G1 X98.767 Y68.631 E3.12393
G1 X99.558 Y68.61 E3.13498
G1 X100.641 Y68.613 E3.15011
G1 X101.484 Y68.641 E3.1619
G1 X102.305 Y68.69 E3.17339
G1 X103.265 Y68.776 E3.18685
G1 X104.217 Y68.89 E3.20024
G1 X105.191 Y69.037 E3.214
G1 X106.246 Y69.232 E3.22899
G1 X107.013 Y69.398 E3.23995
G1 X108.067 Y69.658 E3.25512
G1 X108.846 Y69.876 E3.26642
G1 X109.637 Y70.12 E3.27798
G1 X110.589 Y70.445 E3.29203
G1 X111.418 Y70.754 E3.30439
G1 X112.373 Y71.146 E3.31881
G1 X113.235 Y71.531 E3.332
G1 X113.88 Y71.838 E3.34198
G1 X115.033 Y72.435 E3.36012
G1 X115.552 Y72.724 E3.36842
G1 X116.599 Y73.35 E3.38546
G1 X117.307 Y73.804 E3.39721
G1 X118.187 Y74.406 E3.4121
G1 X118.693 Y74.773 E3.42083
G1 X119.697 Y75.549 E3.43856
G1 X120.305 Y76.053 E3.44959
G1 X121.104 Y76.753 E3.46443
G1 X121.694 Y77.302 E3.47569
G1 X122.322 Y77.92 E3.488
G1 X122.889 Y78.508 E3.49941
G1 X123.611 Y79.304 E3.51442
G1 X124.148 Y79.933 E3.52597
G1 X124.801 Y80.746 E3.54054
G1 X125.377 Y81.511 E3.55392
G1 X126.034 Y82.447 E3.56989
G1 X126.384 Y82.977 E3.57876
G1 X127.015 Y83.997 E3.59552
G1 X127.429 Y84.718 E3.60713
G1 X127.828 Y85.456 E3.61885
G1 X128.291 Y86.378 E3.63326
G1 X128.741 Y87.355 E3.64829
G1 X129.057 Y88.1 E3.65959
G1 X129.371 Y88.899 E3.67159
G1 X129.661 Y89.698 E3.68346
G1 X129.989 Y90.695 E3.69812
G1 X130.218 Y91.47 E3.70941
G1 X130.537 Y92.692 E3.72705
G1 X130.711 Y93.463 E3.73809
G1 X130.918 Y94.523 E3.75318
G1 X131.05 Y95.332 E3.76463
G1 X131.194 Y96.406 E3.77977
G1 X131.254 Y96.975 E3.78776
G1 X131.352 Y98.265 E3.80583
G1 X131.38 Y98.895 E3.81464
G1 X131.398 Y100.15 E3.83218
G1 X131.384 Y100.984 E3.84383
G1 X131.349 Y101.777 E3.85492
G1 X131.271 Y102.844 E3.86986
G1 X131.181 Y103.702 E3.88191
G1 X131.048 Y104.69 E3.89584
G1 X130.906 Y105.545 E3.90795
G1 X130.748 Y106.365 E3.91961
G1 X130.516 Y107.398 E3.9344
G1 X130.248 Y108.427 E3.94926
G1 X130.021 Y109.203 E3.96055
G1 X129.778 Y109.962 E3.97168
G1 X129.418 Y110.975 E3.9867
G1 X129.119 Y111.746 E3.99825
G1 X128.632 Y112.888 E4.0156
G1 X128.364 Y113.469 E4.02453
G1 X127.785 Y114.626 E4.04261
G1 X127.399 Y115.337 E4.05391
G1 X126.963 Y116.09 E4.06606
G1 X126.557 Y116.752 E4.07691
G1 X125.888 Y117.768 E4.0939
G1 X125.411 Y118.441 E4.10543
G1 X124.751 Y119.318 E4.12076
G1 X124.233 Y119.964 E4.13233
G1 X123.69 Y120.605 E4.14406
G1 X123.01 Y121.363 E4.15829
G1 X122.259 Y122.144 E4.17342
G1 X121.678 Y122.713 E4.18478
G1 X120.899 Y123.432 E4.19959
G1 X120.263 Y123.983 E4.21135
G1 X119.609 Y124.521 E4.22318
G1 X118.983 Y125.009 E4.23427
G1 X118.131 Y125.633 E4.24902
G1 X117.45 Y126.101 E4.26056
G1 X116.54 Y126.686 E4.27567
G1 X115.684 Y127.198 E4.28961
G1 X114.956 Y127.604 E4.30125
G1 X114.032 Y128.085 E4.3158
G1 X113.092 Y128.535 E4.33036
G1 X112.314 Y128.88 E4.34225
G1 X111.524 Y129.205 E4.35418
G1 X110.773 Y129.49 E4.3654
G1 X109.567 Y129.903 E4.38321
G1 X108.963 Y130.09 E4.39204
G1 X107.846 Y130.399 E4.40823
G1 X107.001 Y130.605 E4.42038
G1 X105.944 Y130.828 E4.43547
G1 X105.334 Y130.939 E4.44413
G1 X104.264 Y131.103 E4.45926
G1 X103.3 Y131.22 E4.47282
G1 X102.393 Y131.302 E4.48554
G1 X101.582 Y131.354 E4.4969
G1 X100.547 Y131.389 E4.51136
G1 X99.724 Y131.393 E4.52286
G1 X98.597 Y131.362 E4.53861
G1 X97.646 Y131.305 E4.55192
G1 X96.73 Y131.223 E4.56476
G1 X95.738 Y131.103 E4.57872
G1 X94.941 Y130.983 E4.58998
G1 X94.127 Y130.839 E4.60153
G1 X93.039 Y130.61 E4.61706
G1 X92.107 Y130.383 E4.63046
G1 X91.056 Y130.091 E4.6457
G1 X90.269 Y129.846 E4.65721
G1 X89.456 Y129.568 E4.66921
G1 X88.529 Y129.221 E4.68304
G1 X87.543 Y128.815 E4.69794
G1 X86.784 Y128.474 E4.70956
G1 X85.978 Y128.086 E4.72206
G1 X85.148 Y127.656 E4.73511
G1 X84.341 Y127.207 E4.74802
G1 X83.657 Y126.802 E4.75912
G1 X82.737 Y126.217 E4.77435
G1 X82.076 Y125.77 E4.7855
G1 X81.022 Y125.004 E4.8037
G1 X80.4 Y124.52 E4.81471
G1 X79.743 Y123.979 E4.8266
G1 X78.975 Y123.308 E4.84084
G1 X78.2 Y122.587 E4.85563
G1 X77.632 Y122.023 E4.86681
G1 X77.005 Y121.367 E4.87949
G1 X76.361 Y120.652 E4.89293
G1 X75.782 Y119.97 E4.90543
G1 X75.193 Y119.234 E4.9186
G1 X74.632 Y118.487 E4.93165
G1 X74.077 Y117.698 E4.94512
G1 X73.456 Y116.754 E4.96091
G1 X73.11 Y116.191 E4.97014
G1 X72.52 Y115.17 E4.98661
G1 X72.231 Y114.635 E4.9951
G1 X71.749 Y113.679 E5.01006
G1 X71.396 Y112.925 E5.02169
G1 X70.896 Y111.756 E5.03945
G1 X70.616 Y111.037 E5.05023
G1 X70.257 Y110.032 E5.06514
G1 X70.002 Y109.24 E5.07676
G1 X69.756 Y108.399 E5.089
G1 X69.5 Y107.411 E5.10326
G1 X69.279 Y106.435 E5.11724
G1 X69.111 Y105.575 E5.12948
G1 X68.964 Y104.689 E5.14202
G1 X68.834 Y103.729 E5.15556
G1 X68.741 Y102.843 E5.168
G1 X68.68 Y102.061 E5.17896
G1 X68.628 Y100.982 E5.19405
G1 X68.612 Y100.168 E5.20542
G1 X68.63 Y98.931 E5.2227
G1 X68.659 Y98.274 E5.23189
G1 X68.748 Y97.074 E5.2487
G1 X68.816 Y96.42 E5.25788
G1 X68.987 Y95.159 E5.27566
G1 X69.124 Y94.352 E5.2871
G1 X69.297 Y93.472 E5.29962
G1 X69.512 Y92.532 E5.31309
G1 X69.734 Y91.683 E5.32535
G1 X69.956 Y90.912 E5.33656
G1 X70.286 Y89.887 E5.3516
G1 X70.626 Y88.937 E5.3657
G1 X71.011 Y87.962 E5.38034
G1 X71.341 Y87.198 E5.39197
G1 X71.702 Y86.419 E5.40396
G1 X72.155 Y85.511 E5.41814
G1 X72.555 Y84.766 E5.42995
G1 X72.974 Y84.036 E5.44171
G1 X73.612 Y83.002 E5.45868
G1 X73.971 Y82.456 E5.46781
G1 X74.595 Y81.565 E5.483
G1 X75.161 Y80.808 E5.49621
G1 X75.843 Y79.956 E5.51145
G1 X76.376 Y79.331 E5.52293
G1 X77.095 Y78.535 E5.53791
G1 X77.488 Y78.124 E5.54585
G0 F1440 X77.777 Y78.4
G1 F300 X78.691 Y77.499 E5.56378
G1 X79.272 Y76.962 E5.57483
G1 X79.925 Y76.391 E5.58695
G1 X80.709 Y75.746 E5.60113
G1 X81.498 Y75.138 E5.61505
G1 X82.16 Y74.659 E5.62646
G1 X82.896 Y74.157 E5.63891
G1 X83.6 Y73.704 E5.6506
G1 X84.415 Y73.213 E5.66389
G1 X85.124 Y72.812 E5.67527
G1 X86.083 Y72.309 E5.6904
G1 X87.031 Y71.853 E5.70509
G1 X87.944 Y71.449 E5.71904
G1 X88.691 Y71.144 E5.73031
G1 X89.682 Y70.775 E5.74508
G1 X90.249 Y70.581 E5.75346
G1 X91.436 Y70.214 E5.77081
G1 X92.262 Y69.989 E5.78277
G1 X93.074 Y69.792 E5.79444
G1 X94.005 Y69.593 E5.80774
G1 X95.078 Y69.4 E5.82297
G1 X95.68 Y69.309 E5.83148
G1 X96.686 Y69.185 E5.84564
G1 X97.639 Y69.097 E5.85901
G1 X98.597 Y69.039 E5.87241
G1 X99.558 Y69.01 E5.88584
G1 X100.446 Y69.01 E5.89825
G1 X101.286 Y69.033 E5.90999
G1 X102.46 Y69.103 E5.92642
G1 X103.04 Y69.155 E5.93455
G1 X104.346 Y69.311 E5.95292
G1 X105.119 Y69.43 E5.96385
G1 X105.991 Y69.589 E5.97623
G1 X106.918 Y69.786 E5.98947
G1 X107.78 Y69.996 E6.00186
G1 X108.56 Y70.209 E6.01316
G1 X109.691 Y70.558 E6.02969
G1 X110.294 Y70.764 E6.03859
G1 X111.279 Y71.129 E6.05327
G1 X112.21 Y71.512 E6.06733
G1 X113.072 Y71.897 E6.08052
G1 X113.707 Y72.199 E6.09034
G1 X114.838 Y72.785 E6.10814
G1 X115.52 Y73.168 E6.11906
G1 X116.25 Y73.605 E6.13095
G1 X117.082 Y74.135 E6.14473
G1 X117.952 Y74.73 E6.15945
G1 X118.602 Y75.205 E6.1707
G1 X119.443 Y75.858 E6.18557
G1 X119.914 Y76.246 E6.1941
G1 X120.833 Y77.047 E6.21113
G1 X121.275 Y77.455 E6.21953
G1 X122.041 Y78.205 E6.2345
G1 X122.6 Y78.785 E6.24576
G1 X123.314 Y79.572 E6.2606
G1 X123.95 Y80.322 E6.27434
G1 X124.597 Y81.135 E6.28885
G1 X125.05 Y81.741 E6.29942
G1 X125.596 Y82.515 E6.31265
G1 X126.145 Y83.346 E6.32657
G1 X126.577 Y84.044 E6.33803
G1 X127.077 Y84.908 E6.35198
G1 X127.559 Y85.805 E6.3662
G1 X127.847 Y86.378 E6.37516
G1 X128.373 Y87.512 E6.39262
G1 X128.684 Y88.246 E6.40376
G1 X129.06 Y89.21 E6.41821
G1 X129.343 Y90.003 E6.42998
G1 X129.609 Y90.819 E6.44196
G1 X129.834 Y91.582 E6.45308
G1 X130.147 Y92.781 E6.47039
G1 X130.319 Y93.541 E6.48127
G1 X130.491 Y94.409 E6.49363
G1 X130.654 Y95.387 E6.50748
G1 X130.796 Y96.448 E6.52244
G1 X130.872 Y97.189 E6.53284
G1 X130.941 Y98.092 E6.54549
G1 X130.98 Y98.913 E6.55698
G1 X130.998 Y99.971 E6.57176
G1 X130.984 Y100.967 E6.58567
G1 X130.94 Y101.926 E6.59908
G1 X130.891 Y102.607 E6.60862
G1 X130.783 Y103.66 E6.62341
G1 X130.68 Y104.444 E6.63445
G1 X130.511 Y105.479 E6.6491
G1 X130.318 Y106.465 E6.66314
G1 X130.126 Y107.309 E6.67523
G1 X129.864 Y108.315 E6.68975
G1 X129.637 Y109.091 E6.70105
G1 X129.335 Y110.021 E6.7147
G1 X128.983 Y110.997 E6.7292
G1 X128.747 Y111.601 E6.73826
G1 X128.336 Y112.567 E6.75292
G1 X127.917 Y113.474 E6.76688
G1 X127.514 Y114.279 E6.77945
G1 X127.052 Y115.136 E6.79305
G1 X126.531 Y116.033 E6.80755
G1 X126.217 Y116.542 E6.8159
G1 X125.561 Y117.538 E6.83256
G1 X125.091 Y118.202 E6.84392
G1 X124.551 Y118.924 E6.85652
G1 X124.043 Y119.566 E6.86795
G1 X123.385 Y120.346 E6.88221
G1 X122.721 Y121.086 E6.8961
G1 X121.978 Y121.859 E6.91108
G1 X121.406 Y122.42 E6.92227
G1 X120.637 Y123.13 E6.93689
G1 X120.009 Y123.674 E6.9485
G1 X119.355 Y124.212 E6.96033
G1 X118.595 Y124.8 E6.97375
G1 X117.743 Y125.417 E6.98844
